RoboFEI-Work/manip_ws/pick_telemetry/pick_telemetry_20260625_213449.csv
time,manip_joint1/current,manip_joint1/voltage,manip_joint1/effort,manip_joint2/current,manip_joint2/voltage,manip_joint2/effort,manip_joint3/current,manip_joint3/voltage,manip_joint3/effort,manip_joint4/current,manip_joint4/voltage,manip_joint4/effort,manip_joint5/current,manip_joint5/voltage,manip_joint5/effort,manip_joint6/current,manip_joint6/voltage,manip_joint6/effort,manip_joint7/current,manip_joint7/voltage,manip_joint7/effort
0.030346668,-0.00269,13.8,-0.006456,-0.00538,13.700000000000001,-0.012912,0.0,13.600000000000001,0.0,0.0,13.600000000000001,0.0,0.0,13.600000000000001,0.0,-0.0,13.600000000000001,-0.0,0.00269,13.600000000000001,0.006456
0.062973056,-0.00269,13.8,-0.006456,-0.00538,13.700000000000001,-0.012912,0.0,13.600000000000001,0.0,0.0,13.600000000000001,0.0,0.0,13.600000000000001,0.0,-0.0,13.600000000000001,-0.0,0.00269,13.600000000000001,0.006456
0.096625105,-0.00538,13.8,-0.012912,-0.00807,13.700000000000001,-0.019368,0.0,13.600000000000001,0.0,0.0,13.600000000000001,0.0,0.0,13.600000000000001,0.0,-0.0,13.600000000000001,-0.0,0.00269,13.600000000000001,0.006456
0.129919669,-0.00807,13.8,-0.019368,-0.00538,13.700000000000001,-0.012912,0.0,13.600000000000001,0.0,-0.00269,13.600000000000001,-0.006456,0.0,13.600000000000001,0.0,-0.0,13.600000000000001,-0.0,0.00269,13.600000000000001,0.006456
0.162970928,-0.00538,13.8,-0.012912,-0.00807,13.700000000000001,-0.019368,0.0,13.600000000000001,0.0,0.0,13.600000000000001,0.0,0.0,13.600000000000001,0.0,-0.0,13.600000000000001,-0.0,-0.0,13.600000000000001,-0.0
0.195930564,-0.00538,13.8,-0.012912,-0.01076,13.700000000000001,-0.025824,0.0,13.600000000000001,0.0,0.0,13.600000000000001,0.0,0.0,13.600000000000001,0.0,-0.0,13.600000000000001,-0.0,-0.0,13.600000000000001,-0.0
0.229968524,-0.00538,13.8,-0.012912,-0.00538,13.700000000000001,-0.012912,0.0,13.600000000000001,0.0,-0.00269,13.600000000000001,-0.006456,0.0,13.600000000000001,0.0,-0.0,13.600000000000001,-0.0,-0.0,13.600000000000001,-0.0
0.264048561,-0.01076,13.8,-0.025824,-0.00807,13.700000000000001,-0.019368,0.0,13.600000000000001,0.0,0.0,13.600000000000001,0.0,0.0,13.600000000000001,0.0,-0.0,13.600000000000001,-0.0,-0.0,13.600000000000001,-0.0
0.296905805,-0.00538,13.8,-0.012912,-0.00538,13.700000000000001,-0.012912,0.0,13.600000000000001,0.0,0.0,13.600000000000001,0.0,0.0,13.600000000000001,0.0,-0.0,13.600000000000001,-0.0,-0.0,13.600000000000001,-0.0
0.330116824,-0.00538,13.8,-0.012912,-0.00538,13.700000000000001,-0.012912,0.0,13.600000000000001,0.0,0.0,13.600000000000001,0.0,0.0,13.600000000000001,0.0,-0.0,13.600000000000001,-0.0,0.00269,13.600000000000001,0.006456
0.362910235,-0.00538,13.8,-0.012912,-0.00807,13.700000000000001,-0.019368,0.0,13.600000000000001,0.0,0.0,13.600000000000001,0.0,0.0,13.600000000000001,0.0,-0.0,13.600000000000001,-0.0,0.00269,13.600000000000001,0.006456
0.396705131,-0.00538,13.8,-0.012912,-0.00269,13.700000000000001,-0.006456,0.0,13.600000000000001,0.0,0.0,13.600000000000001,0.0,0.0,13.5,0.0,0.00269,13.5,0.006456,-0.00807,13.5,-0.019368
0.429687496,-0.00538,13.8,-0.012912,-0.00807,13.700000000000001,-0.019368,0.0,13.600000000000001,0.0,0.0,13.600000000000001,0.0,0.0,13.5,0.0,-0.0,13.600000000000001,-0.0,0.00807,13.600000000000001,0.019368
0.463042396,-0.00269,13.8,-0.006456,-0.00269,13.700000000000001,-0.006456,0.0,13.600000000000001,0.0,0.0,13.600000000000001,0.0,0.0,13.4,0.0,0.00269,13.5,0.006456,-0.00807,13.5,-0.019368
0.496662499,-0.00269,13.8,-0.006456,-0.00807,13.700000000000001,-0.019368,0.0,13.600000000000001,0.0,0.0,13.600000000000001,0.0,0.0,13.5,0.0,-0.0,13.600000000000001,-0.0,0.00269,13.600000000000001,0.006456
0.529636991,-0.00538,13.8,-0.012912,-0.00269,13.700000000000001,-0.006456,0.0,13.600000000000001,0.0,-0.00269,13.600000000000001,-0.006456,0.0,13.5,0.0,0.00538,13.600000000000001,0.012912,0.00538,13.600000000000001,0.012912
0.562792599,-0.00538,13.8,-0.012912,-0.00807,13.700000000000001,-0.019368,0.0,13.600000000000001,0.0,0.0,13.600000000000001,0.0,0.0,13.5,0.0,0.00269,13.600000000000001,0.006456,0.00538,13.600000000000001,0.012912
0.596740107,-0.00269,13.8,-0.006456,-0.00269,13.700000000000001,-0.006456,0.0,13.600000000000001,0.0,0.0,13.600000000000001,0.0,0.0,13.5,0.0,-0.0,13.600000000000001,-0.0,0.00538,13.600000000000001,0.012912
0.629600555,-0.00269,13.8,-0.006456,-0.00807,13.700000000000001,-0.019368,0.0,13.600000000000001,0.0,0.0,13.600000000000001,0.0,0.0,13.5,0.0,0.00269,13.600000000000001,0.006456,0.00538,13.600000000000001,0.012912
0.662852463,-0.00269,13.8,-0.006456,-0.00807,13.700000000000001,-0.019368,0.0,13.600000000000001,0.0,-0.00269,13.600000000000001,-0.006456,0.0,13.5,0.0,0.00269,13.600000000000001,0.006456,0.00538,13.600000000000001,0.012912
0.696752395,-0.02152,13.8,-0.051648,-0.00538,13.700000000000001,-0.012912,0.0,13.600000000000001,0.0,0.0,13.600000000000001,0.0,0.0,13.5,0.0,0.00269,13.600000000000001,0.006456,0.00269,13.600000000000001,0.006456
0.72967492,-0.02152,13.8,-0.051648,-0.00538,13.700000000000001,-0.012912,0.0,13.600000000000001,0.0,0.00269,13.600000000000001,0.006456,0.0,13.5,0.0,0.00269,13.600000000000001,0.006456,0.00269,13.600000000000001,0.006456
0.763092891,-0.024210000000000002,13.8,-0.058104,0.0,13.700000000000001,0.0,0.0,13.600000000000001,0.0,0.02152,13.600000000000001,0.051648,0.0,13.5,0.0,-0.0,13.600000000000001,-0.0,0.00807,13.600000000000001,0.019368
0.796925896,-0.0269,13.8,-0.06455999999999999,0.0,13.700000000000001,0.0,0.0,13.600000000000001,0.0,0.0538,13.600000000000001,0.12911999999999998,0.0,13.5,0.0,0.00269,13.600000000000001,0.006456,0.00538,13.600000000000001,0.012912
0.82994226,-0.0269,13.8,-0.06455999999999999,0.02959,13.700000000000001,0.071016,0.0,13.600000000000001,0.0,0.09684000000000001,13.600000000000001,0.232416,0.0,13.5,0.0,0.00269,13.600000000000001,0.006456,0.00538,13.600000000000001,0.012912
0.862617776,-0.02959,13.8,-0.071016,0.03497,13.700000000000001,0.083928,0.0,13.600000000000001,0.0,0.16947,13.5,0.40672800000000003,0.0,13.5,0.0,0.01614,13.600000000000001,0.038736,0.00269,13.600000000000001,0.006456
0.896783711,-0.02959,13.8,-0.071016,0.048420000000000005,13.700000000000001,0.116208,0.0,13.600000000000001,0.0,0.20175,13.5,0.4842,0.0,13.5,0.0,0.00269,13.600000000000001,0.006456,0.00269,13.600000000000001,0.006456
0.93017876,-0.02959,13.700000000000001,-0.071016,0.10222,13.700000000000001,0.245328,0.0,13.5,0.0,0.24479,13.5,0.587496,0.0,13.5,0.0,0.00269,13.600000000000001,0.006456,0.00269,13.5,0.006456
0.962979348,-0.02959,13.700000000000001,-0.071016,0.17754,13.700000000000001,0.426096,0.0,13.5,0.0,0.23134000000000002,13.5,0.555216,0.0,13.5,0.0,0.00269,13.5,0.006456,0.00538,13.5,0.012912
0.996699947,-0.02959,13.700000000000001,-0.071016,0.25017,13.600000000000001,0.6004079999999999,0.0,13.5,0.0,0.20713,13.5,0.497112,0.0,13.5,0.0,0.00807,13.5,0.019368,0.00538,13.5,0.012912
1.029641363,-0.02959,13.700000000000001,-0.071016,0.33356,13.600000000000001,0.800544,0.0,13.5,0.0,0.22327,13.5,0.535848,0.0,13.5,0.0,0.00269,13.5,0.006456,0.00269,13.5,0.006456
1.063015274,-0.02959,13.700000000000001,-0.071016,0.40081,13.600000000000001,0.9619439999999999,0.0,13.5,0.0,0.24748,13.5,0.593952,0.0,13.4,0.0,0.00538,13.5,0.012912,0.00538,13.5,0.012912
1.096794297,-0.02959,13.700000000000001,-0.071016,0.4842,13.600000000000001,1.16208,0.0,13.4,0.0,0.22865000000000002,13.4,0.54876,0.0,13.4,0.0,-0.0,13.4,-0.0,0.00538,13.4,0.012912
1.129783295,-0.03228,13.600000000000001,-0.077472,0.52993,13.600000000000001,1.271832,0.0,13.4,0.0,0.2421,13.4,0.58104,0.0,13.4,0.0,0.00807,13.4,0.019368,0.00538,13.4,0.012912
1.162754299,-0.03228,13.700000000000001,-0.077472,0.51379,13.5,1.233096,0.0,13.4,0.0,0.25286000000000003,13.3,0.6068640000000001,0.0,13.4,0.0,0.00538,13.4,0.012912,0.00538,13.4,0.012912
1.196722973,-0.03228,13.700000000000001,-0.077472,0.50303,13.5,1.207272,0.0,13.4,0.0,0.22327,13.4,0.535848,0.0,13.4,0.0,0.00269,13.4,0.006456,0.00538,13.4,0.012912
1.229683454,-0.03228,13.700000000000001,-0.077472,0.44385,13.5,1.06524,0.0,13.4,0.0,0.24479,13.3,0.587496,0.0,13.3,0.0,0.00269,13.4,0.006456,0.00269,13.4,0.006456
1.262938981,-0.03228,13.600000000000001,-0.077472,0.45730000000000004,13.5,1.09752,0.0,13.4,0.0,0.22058,13.4,0.529392,0.0,13.3,0.0,0.01076,13.4,0.025824,0.00269,13.3,0.006456
1.296609843,-0.03228,13.600000000000001,-0.077472,0.47613,13.5,1.142712,0.0,13.4,0.0,0.23403000000000002,13.3,0.5616720000000001,0.01076,13.3,0.025824,0.00538,13.3,0.012912,0.00538,13.3,0.012912
1.329462367,-0.02959,13.600000000000001,-0.071016,0.44385,13.4,1.06524,0.0,13.4,0.0,0.26362,13.4,0.632688,0.0,13.3,0.0,0.00269,13.3,0.006456,0.00807,13.3,0.019368
1.363799795,-0.02959,13.600000000000001,-0.071016,0.42233000000000004,13.5,1.013592,0.0,13.4,0.0,0.2421,13.3,0.58104,0.00269,13.3,0.006456,0.00269,13.3,0.006456,0.00538,13.3,0.012912
1.396725392,-0.02959,13.5,-0.071016,0.4304,13.4,1.0329599999999999,0.0,13.3,0.0,0.25017,13.3,0.6004079999999999,0.0,13.3,0.0,0.00269,13.3,0.006456,0.00269,13.3,0.006456
1.4299623,-0.02959,13.600000000000001,-0.071016,0.41426,13.5,0.994224,0.0,13.4,0.0,0.24479,13.3,0.587496,0.01345,13.3,0.032279999999999996,0.01345,13.3,0.032279999999999996,0.00538,13.3,0.012912
1.464062366,-0.02959,13.600000000000001,-0.071016,0.43309000000000003,13.5,1.0394160000000001,0.0,13.3,0.0,0.24479,13.3,0.587496,0.0,13.200000000000001,0.0,0.00269,13.3,0.006456,0.00538,13.3,0.012912
1.496950763,-0.02959,13.5,-0.071016,0.41964,13.5,1.007136,0.0,13.3,0.0,0.27438,13.200000000000001,0.658512,0.0,13.3,0.0,-0.0,13.3,-0.0,0.00269,13.3,0.006456
1.529994665,-0.02959,13.600000000000001,-0.071016,0.36046,13.5,0.865104,0.0,13.3,0.0,0.24479,13.3,0.587496,0.0,13.3,0.0,0.00269,13.3,0.006456,0.00538,13.3,0.012912
1.563978245,-0.02959,13.600000000000001,-0.071016,0.37122,13.5,0.8909279999999999,0.0,13.3,0.0,0.22865000000000002,13.200000000000001,0.54876,0.01076,13.200000000000001,0.025824,-0.0,13.3,-0.0,0.00538,13.3,0.012912
1.596776517,-0.02959,13.600000000000001,-0.071016,0.3766,13.4,0.90384,0.0,13.3,0.0,0.269,13.200000000000001,0.6456000000000001,0.0,13.200000000000001,0.0,0.00538,13.200000000000001,0.012912,0.00538,13.200000000000001,0.012912
1.630288157,-0.040350000000000004,13.5,-0.09684000000000001,0.36315000000000003,13.4,0.87156,0.0,13.3,0.0,0.2421,13.200000000000001,0.58104,0.0,13.200000000000001,0.0,0.00807,13.200000000000001,0.019368,0.00538,13.3,0.012912
1.664313267,-0.06725,13.5,-0.16140000000000002,0.35239000000000004,13.3,0.845736,0.0,13.3,0.0,0.23403000000000002,13.200000000000001,0.5616720000000001,0.01345,13.200000000000001,0.032279999999999996,0.00807,13.3,0.019368,0.00538,13.200000000000001,0.012912
1.697394042,-0.05111,13.5,-0.122664,0.34432,13.4,0.826368,0.0,13.3,0.0,0.25555,13.200000000000001,0.61332,0.0,13.200000000000001,0.0,0.00269,13.200000000000001,0.006456,0.00807,13.200000000000001,0.019368
1.730652239,-0.06725,13.5,-0.16140000000000002,0.32011,13.4,0.768264,0.0,13.3,0.0,0.23134000000000002,13.200000000000001,0.555216,0.0,13.200000000000001,0.0,0.00538,13.200000000000001,0.012912,0.00538,13.3,0.012912
1.763268801,-0.040350000000000004,12.600000000000001,-0.09684000000000001,0.30666,12.100000000000001,0.735984,-1.4687400000000002,11.9,-3.524976,0.19906000000000001,11.8,0.477744,0.01076,11.700000000000001,0.025824,0.00269,11.5,0.006456,-0.0,11.600000000000001,-0.0
1.796942083,-0.0269,13.0,-0.06455999999999999,-0.01345,12.600000000000001,-0.032279999999999996,-0.96033,12.3,-2.304792,0.21251,12.3,0.510024,-0.03497,12.3,-0.083928,-0.0,12.3,-0.0,0.00269,12.3,0.006456
1.829799037,-0.0269,13.5,-0.06455999999999999,-0.20713,13.4,-0.497112,-0.00269,13.3,-0.006456,-0.024210000000000002,13.200000000000001,-0.058104,0.02152,13.200000000000001,0.051648,0.024210000000000002,13.200000000000001,0.058104,0.00538,13.200000000000001,0.012912
1.863585995,-0.01614,13.5,-0.038736,0.19368000000000002,13.200000000000001,0.464832,-0.33087,13.100000000000001,-0.794088,0.15333,13.100000000000001,0.367992,-0.00538,13.0,-0.012912,0.00269,13.0,0.006456,0.00538,13.0,0.012912
1.896537445,-0.00538,13.4,-0.012912,0.74244,13.100000000000001,1.7818559999999999,-0.03228,13.0,-0.077472,0.29321,13.100000000000001,0.703704,0.0,13.0,0.0,0.00269,13.0,0.006456,0.00538,13.0,0.012912
1.930917755,-0.01614,13.4,-0.038736,0.87156,13.200000000000001,2.091744,0.05918,13.0,0.142032,0.35239000000000004,13.0,0.845736,0.0,12.9,0.0,-0.0,12.9,-0.0,0.00538,13.0,0.012912
1.963401356,-0.01345,13.3,-0.032279999999999996,0.7747200000000001,13.3,1.859328,-0.02959,13.0,-0.071016,0.34163,13.0,0.819912,0.0,13.0,0.0,0.00269,12.9,0.006456,0.00269,12.9,0.006456
1.996547498,-0.01345,13.4,-0.032279999999999996,0.64291,13.200000000000001,1.542984,-0.22865000000000002,13.100000000000001,-0.54876,0.26631,13.100000000000001,0.6391439999999999,0.0,12.9,0.0,0.00269,13.0,0.006456,0.00538,13.0,0.012912
2.030294047,-0.01883,13.5,-0.045191999999999996,0.2152,13.3,0.5164799999999999,-0.39274000000000003,13.0,-0.9425760000000001,0.18023,13.100000000000001,0.432552,0.00538,13.0,0.012912,0.00269,13.0,0.006456,0.00538,13.100000000000001,0.012912
2.063250209,-0.0269,13.5,-0.06455999999999999,0.07532,13.3,0.18076799999999998,-0.538,13.200000000000001,-1.2912000000000001,0.14257,13.200000000000001,0.34216799999999997,-0.00807,13.100000000000001,-0.019368,0.00269,13.100000000000001,0.006456,0.00538,13.100000000000001,0.012912
2.09644464,-0.04304,13.5,-0.103296,0.07801000000000001,13.3,0.18722400000000003,-0.51917,13.200000000000001,-1.246008,0.12105,13.100000000000001,0.29052,0.0,13.100000000000001,0.0,0.00269,13.100000000000001,0.006456,0.00538,13.100000000000001,0.012912
2.130233483,-0.03497,13.5,-0.083928,0.20713,13.3,0.497112,-0.41157,13.200000000000001,-0.987768,0.12643000000000001,13.100000000000001,0.30343200000000004,0.01076,13.100000000000001,0.025824,0.00269,13.100000000000001,0.006456,0.00269,13.100000000000001,0.006456
2.163368559,-0.03228,13.5,-0.077472,0.2959,13.3,0.71016,-0.38467,13.100000000000001,-0.923208,0.20444,13.100000000000001,0.490656,-0.00269,13.100000000000001,-0.006456,0.01076,13.100000000000001,0.025824,0.00538,13.100000000000001,0.012912
2.196239227,-0.048420000000000005,13.5,-0.116208,0.31742000000000004,13.3,0.761808,-0.36046,13.200000000000001,-0.865104,0.23403000000000002,13.100000000000001,0.5616720000000001,-0.00807,13.100000000000001,-0.019368,0.00807,13.100000000000001,0.019368,0.00538,13.100000000000001,0.012912
2.230202875,-0.03228,13.4,-0.077472,0.30128,13.200000000000001,0.7230719999999999,-0.37391,13.200000000000001,-0.8973840000000001,0.17485,13.100000000000001,0.41964,0.01076,13.100000000000001,0.025824,0.00269,13.100000000000001,0.006456,0.00538,13.100000000000001,0.012912
2.263233434,-0.03228,13.5,-0.077472,0.25286000000000003,13.3,0.6068640000000001,-0.41964,13.200000000000001,-1.007136,0.19637000000000002,13.200000000000001,0.47128800000000004,-0.01076,13.100000000000001,-0.025824,0.00269,13.100000000000001,0.006456,0.00538,13.100000000000001,0.012912
2.296243225,-0.040350000000000004,13.5,-0.09684000000000001,0.25286000000000003,13.3,0.6068640000000001,-0.42233000000000004,13.100000000000001,-1.013592,0.18561,13.200000000000001,0.44546399999999997,0.0,13.100000000000001,0.0,0.00269,13.100000000000001,0.006456,0.00269,13.100000000000001,0.006456
2.330352699,-0.03497,13.5,-0.083928,0.19637000000000002,13.3,0.47128800000000004,-0.42502,13.3,-1.020048,0.15064,13.200000000000001,0.36153599999999997,0.01076,13.200000000000001,0.025824,0.00269,13.100000000000001,0.006456,0.00269,13.200000000000001,0.006456
2.363087906,-0.02959,13.4,-0.071016,0.18292,13.3,0.439008,-0.47613,13.200000000000001,-1.142712,0.16140000000000002,13.100000000000001,0.38736000000000004,-0.01345,13.100000000000001,-0.032279999999999996,0.00269,13.100000000000001,0.006456,0.00538,13.100000000000001,0.012912
2.396149116,-0.03228,13.5,-0.077472,0.17216,13.3,0.413184,-0.47344,13.100000000000001,-1.136256,0.12105,13.200000000000001,0.29052,0.01076,13.100000000000001,0.025824,0.00269,13.100000000000001,0.006456,0.00538,13.100000000000001,0.012912
2.430568444,-0.03766,13.5,-0.09038399999999999,0.14795,13.4,0.35508,-0.45730000000000004,13.200000000000001,-1.09752,0.11567000000000001,13.100000000000001,0.277608,-0.01076,13.100000000000001,-0.025824,0.00269,13.200000000000001,0.006456,0.00538,13.200000000000001,0.012912
2.463473381,-0.03228,13.5,-0.077472,0.16409,13.4,0.393816,-0.50303,13.200000000000001,-1.207272,0.15064,13.100000000000001,0.36153599999999997,0.0,13.100000000000001,0.0,-0.0,13.100000000000001,-0.0,0.00269,13.100000000000001,0.006456
2.496474565,-0.05918,13.5,-0.142032,0.15871000000000002,13.4,0.380904,-0.44654,13.3,-1.071696,0.11298000000000001,13.100000000000001,0.271152,0.01076,13.100000000000001,0.025824,0.00269,13.100000000000001,0.006456,0.00538,13.200000000000001,0.012912
2.530221389,-0.06994,13.5,-0.167856,0.14795,13.4,0.35508,-0.46268000000000004,13.200000000000001,-1.110432,0.10222,13.200000000000001,0.245328,-0.00807,13.200000000000001,-0.019368,0.00269,13.100000000000001,0.006456,0.00538,13.200000000000001,0.012912
2.563105594,-0.07801000000000001,13.5,-0.18722400000000003,0.11836,13.4,0.284064,-0.47882,13.3,-1.149168,0.13719,13.200000000000001,0.329256,0.0,13.200000000000001,0.0,0.00269,13.100000000000001,0.006456,0.00538,13.100000000000001,0.012912
2.596127992,-0.08070000000000001,13.5,-0.19368000000000002,0.11567000000000001,13.200000000000001,0.277608,-0.51648,13.100000000000001,-1.239552,0.07801000000000001,13.200000000000001,0.18722400000000003,0.01076,13.100000000000001,0.025824,0.00269,13.100000000000001,0.006456,0.00538,13.200000000000001,0.012912
2.630096787,-0.06994,13.5,-0.167856,0.09684000000000001,13.4,0.232416,-0.50841,13.200000000000001,-1.220184,0.0538,13.3,0.12911999999999998,-0.00538,13.200000000000001,-0.012912,0.00269,13.200000000000001,0.006456,0.00538,13.100000000000001,0.012912
2.662994105,-0.06456,13.5,-0.154944,0.08070000000000001,13.3,0.19368000000000002,-0.56759,13.100000000000001,-1.362216,0.10222,13.100000000000001,0.245328,0.00807,13.100000000000001,0.019368,0.00269,13.100000000000001,0.006456,0.00538,13.100000000000001,0.012912
2.696354947,-0.06994,13.5,-0.167856,0.06456,13.3,0.154944,-0.54876,13.200000000000001,-1.317024,0.08608,13.100000000000001,0.206592,0.01345,13.200000000000001,0.032279999999999996,0.00269,13.200000000000001,0.006456,0.00538,13.100000000000001,0.012912
2.730189405,-0.05918,13.5,-0.142032,0.04573,13.3,0.109752,-0.52186,13.3,-1.252464,0.08608,13.200000000000001,0.206592,-0.00807,13.100000000000001,-0.019368,0.00269,13.100000000000001,0.006456,0.00538,13.200000000000001,0.012912
2.762962184,-0.05918,13.5,-0.142032,0.05111,13.4,0.122664,-0.59987,13.200000000000001,-1.439688,0.06456,13.200000000000001,0.154944,0.00538,13.200000000000001,0.012912,0.00269,13.100000000000001,0.006456,0.00538,13.200000000000001,0.012912
2.796028953,-0.06725,13.5,-0.16140000000000002,0.02959,13.3,0.071016,-0.5245500000000001,13.3,-1.25892,0.07532,13.200000000000001,0.18076799999999998,0.01076,13.100000000000001,0.025824,-0.0,13.200000000000001,-0.0,0.00538,13.200000000000001,0.012912
2.829988492,-0.05111,13.5,-0.122664,0.01076,13.3,0.025824,-0.56759,13.200000000000001,-1.362216,0.056490000000000005,13.200000000000001,0.135576,-0.01076,13.100000000000001,-0.025824,0.00269,13.200000000000001,0.006456,0.00538,13.200000000000001,0.012912
2.863751891,-0.05111,13.5,-0.122664,0.0,13.3,0.0,-0.6052500000000001,13.3,-1.4526000000000001,0.05111,13.200000000000001,0.122664,0.00269,13.100000000000001,0.006456,0.00269,13.200000000000001,0.006456,0.00538,13.200000000000001,0.012912
2.896220147,-0.02959,13.5,-0.071016,-0.03766,13.3,-0.09038399999999999,-0.6187,13.200000000000001,-1.48488,0.040350000000000004,13.3,0.09684000000000001,0.01345,13.200000000000001,0.032279999999999996,0.00269,13.200000000000001,0.006456,0.00538,13.200000000000001,0.012912
2.930174584,-0.02959,13.4,-0.071016,-0.06725,13.3,-0.16140000000000002,-0.65636,13.200000000000001,-1.575264,0.01883,13.100000000000001,0.045191999999999996,0.0,13.100000000000001,0.0,0.00269,13.100000000000001,0.006456,0.00269,13.200000000000001,0.006456
2.963230352,-0.04573,13.5,-0.109752,-0.01883,13.3,-0.045191999999999996,-0.6644300000000001,13.100000000000001,-1.594632,0.040350000000000004,13.200000000000001,0.09684000000000001,0.01076,13.100000000000001,0.025824,0.00269,13.100000000000001,0.006456,0.00538,13.100000000000001,0.012912
2.997114474,-0.0538,13.5,-0.12911999999999998,-0.0269,13.3,-0.06455999999999999,-0.6725,13.200000000000001,-1.6139999999999999,0.0269,13.100000000000001,0.06455999999999999,-0.00269,13.100000000000001,-0.006456,0.00269,13.100000000000001,0.006456,0.00269,13.200000000000001,0.006456
3.030252755,-0.06187,13.5,-0.148488,-0.00269,13.3,-0.006456,-0.64291,13.200000000000001,-1.542984,0.06456,13.200000000000001,0.154944,0.0,13.100000000000001,0.0,0.00269,13.100000000000001,0.006456,0.00269,13.100000000000001,0.006456
3.063124883,-0.04304,13.5,-0.103296,-0.01883,13.4,-0.045191999999999996,-0.62946,13.3,-1.510704,0.0269,13.200000000000001,0.06455999999999999,0.01345,13.100000000000001,0.032279999999999996,0.00269,13.100000000000001,0.006456,0.00269,13.200000000000001,0.006456
3.09703848,-0.03497,13.5,-0.083928,-0.0269,13.3,-0.06455999999999999,-0.6160100000000001,13.200000000000001,-1.4784240000000002,0.03766,13.200000000000001,0.09038399999999999,0.0,13.200000000000001,0.0,0.00269,13.100000000000001,0.006456,0.00538,13.200000000000001,0.012912
3.129880897,-0.048420000000000005,13.5,-0.116208,-0.048420000000000005,13.4,-0.116208,-0.66981,13.200000000000001,-1.607544,0.06456,13.100000000000001,0.154944,0.0,13.100000000000001,0.0,0.00269,13.100000000000001,0.006456,0.00269,13.200000000000001,0.006456
3.16317136,-0.04304,13.5,-0.103296,-0.06994,13.4,-0.167856,-0.6348400000000001,13.200000000000001,-1.523616,0.01076,13.200000000000001,0.025824,0.01614,13.100000000000001,0.038736,0.00269,13.200000000000001,0.006456,0.00538,13.200000000000001,0.012912
3.196791836,-0.03228,13.5,-0.077472,-0.10222,13.4,-0.245328,-0.6859500000000001,13.200000000000001,-1.6462800000000002,0.01883,13.200000000000001,0.045191999999999996,0.00807,13.200000000000001,0.019368,0.00269,13.100000000000001,0.006456,0.00538,13.200000000000001,0.012912
3.229787817,-0.03228,13.5,-0.077472,-0.11567000000000001,13.3,-0.277608,-0.70209,13.100000000000001,-1.6850159999999998,0.05111,13.200000000000001,0.122664,0.0,13.100000000000001,0.0,0.00269,13.100000000000001,0.006456,0.00538,13.200000000000001,0.012912
3.263104131,-0.040350000000000004,13.5,-0.09684000000000001,-0.10491,13.4,-0.251784,-0.68057,13.200000000000001,-1.633368,0.00269,13.200000000000001,0.006456,0.01345,13.200000000000001,0.032279999999999996,0.00269,13.200000000000001,0.006456,0.00538,13.200000000000001,0.012912
3.296783564,-0.03228,13.5,-0.077472,-0.14257,13.4,-0.34216799999999997,-0.72899,13.200000000000001,-1.749576,0.024210000000000002,13.200000000000001,0.058104,0.0,13.100000000000001,0.0,0.00269,13.100000000000001,0.006456,0.00538,13.200000000000001,0.012912
3.329859352,-0.03228,13.5,-0.077472,-0.12643000000000001,13.4,-0.30343200000000004,-0.7155400000000001,13.200000000000001,-1.7172960000000002,0.04573,13.100000000000001,0.109752,0.0,13.100000000000001,0.0,0.00269,13.100000000000001,0.006456,0.00269,13.100000000000001,0.006456
3.36314144,-0.03228,13.5,-0.077472,-0.1345,13.4,-0.32280000000000003,-0.7236100000000001,13.3,-1.7366640000000002,0.00538,13.200000000000001,0.012912,0.01076,13.100000000000001,0.025824,0.00269,13.200000000000001,0.006456,0.00538,13.200000000000001,0.012912
3.396928497,-0.048420000000000005,13.5,-0.116208,-0.15064,13.3,-0.36153599999999997,-0.73706,13.100000000000001,-1.768944,0.01883,13.200000000000001,0.045191999999999996,0.0,13.200000000000001,0.0,0.00269,13.100000000000001,0.006456,0.00538,13.200000000000001,0.012912
3.429776478,-0.05918,13.5,-0.142032,-0.15871000000000002,13.3,-0.380904,-0.7263000000000001,13.3,-1.74312,0.02959,13.200000000000001,0.071016,0.00269,13.100000000000001,0.006456,0.00807,13.100000000000001,0.019368,0.00538,13.100000000000001,0.012912
3.462695963,-0.04304,13.5,-0.103296,-0.16409,13.4,-0.393816,-0.7451300000000001,13.200000000000001,-1.7883120000000001,-0.02152,13.200000000000001,-0.051648,0.01076,13.200000000000001,0.025824,0.00269,13.200000000000001,0.006456,0.00538,13.200000000000001,0.012912
3.497102343,-0.05918,13.5,-0.142032,-0.19099000000000002,13.4,-0.458376,-0.7263000000000001,13.3,-1.74312,0.00807,13.100000000000001,0.019368,-0.00269,13.100000000000001,-0.006456,0.00269,13.100000000000001,0.006456,0.00538,13.200000000000001,0.012912
3.529877337,-0.06456,13.5,-0.154944,-0.17485,13.3,-0.41964,-0.7236100000000001,13.200000000000001,-1.7366640000000002,0.01883,13.200000000000001,0.045191999999999996,0.01076,13.200000000000001,0.025824,0.00269,13.100000000000001,0.006456,0.00538,13.200000000000001,0.012912
3.562738886,-0.04304,13.5,-0.103296,-0.18292,13.4,-0.439008,-0.7155400000000001,13.200000000000001,-1.7172960000000002,0.00807,13.200000000000001,0.019368,-0.00269,13.200000000000001,-0.006456,0.00269,13.100000000000001,0.006456,0.00538,13.200000000000001,0.012912
3.596577068,-0.06187,13.5,-0.148488,-0.18292,13.3,-0.439008,-0.72899,13.3,-1.749576,0.00269,13.200000000000001,0.006456,0.0,13.200000000000001,0.0,0.00269,13.200000000000001,0.006456,0.00538,13.200000000000001,0.012912
3.629611414,-0.040350000000000004,13.5,-0.09684000000000001,-0.17754,13.4,-0.426096,-0.7047800000000001,13.3,-1.691472,0.01076,13.100000000000001,0.025824,0.01345,13.100000000000001,0.032279999999999996,0.00269,13.100000000000001,0.006456,0.00269,13.200000000000001,0.006456
3.662670205,-0.03766,13.5,-0.09038399999999999,-0.19368000000000002,13.3,-0.464832,-0.7155400000000001,13.3,-1.7172960000000002,0.0,13.200000000000001,0.0,0.0,13.200000000000001,0.0,-0.0,13.200000000000001,-0.0,0.00269,13.200000000000001,0.006456
3.696698766,-0.03497,13.5,-0.083928,-0.20713,13.4,-0.497112,-0.7155400000000001,13.200000000000001,-1.7172960000000002,-0.01076,13.3,-0.025824,0.0,13.200000000000001,0.0,0.00269,13.200000000000001,0.006456,0.00269,13.100000000000001,0.006456
3.730038529,-0.040350000000000004,13.5,-0.09684000000000001,-0.22865000000000002,13.4,-0.54876,-0.75051,13.200000000000001,-1.801224,0.0,13.200000000000001,0.0,0.01076,13.200000000000001,0.025824,0.00269,13.200000000000001,0.006456,0.00269,13.200000000000001,0.006456
3.762902836,-0.03766,13.5,-0.09038399999999999,-0.22865000000000002,13.4,-0.54876,-0.78279,13.200000000000001,-1.878696,0.0,13.200000000000001,0.0,0.0,13.100000000000001,0.0,0.00269,13.100000000000001,0.006456,0.00269,13.200000000000001,0.006456
3.796987029,-0.03228,13.5,-0.077472,-0.27976,13.4,-0.671424,-0.77741,13.200000000000001,-1.865784,-0.03497,13.200000000000001,-0.083928,0.0,13.200000000000001,0.0,0.00269,13.200000000000001,0.006456,0.00269,13.100000000000001,0.006456
3.829901128,-0.05111,13.5,-0.122664,-0.22596000000000002,13.4,-0.542304,-0.77203,13.200000000000001,-1.8528719999999999,0.00538,13.200000000000001,0.012912,0.01076,13.100000000000001,0.025824,0.00269,13.100000000000001,0.006456,0.00269,13.100000000000001,0.006456
3.863947482,-0.06456,13.5,-0.154944,-0.27438,13.4,-0.658512,-0.79893,13.200000000000001,-1.917432,-0.02152,13.200000000000001,-0.051648,-0.00538,13.100000000000001,-0.012912,0.01076,13.100000000000001,0.025824,0.00269,13.200000000000001,0.006456
3.896564431,-0.06994,13.5,-0.167856,-0.22327,13.3,-0.535848,-0.7451300000000001,13.200000000000001,-1.7883120000000001,0.024210000000000002,13.100000000000001,0.058104,0.0,13.100000000000001,0.0,-0.0,13.100000000000001,-0.0,0.00538,13.200000000000001,0.012912
3.929471457,-0.06456,13.5,-0.154944,-0.26362,13.3,-0.632688,-0.75051,13.3,-1.801224,0.01076,13.200000000000001,0.025824,0.00807,13.100000000000001,0.019368,0.00269,13.200000000000001,0.006456,0.00538,13.200000000000001,0.012912
3.96383002,-0.07532,13.5,-0.18076799999999998,-0.28783000000000003,13.3,-0.6907920000000001,-0.75858,13.200000000000001,-1.820592,0.00807,13.200000000000001,0.019368,-0.00807,13.100000000000001,-0.019368,0.01076,13.100000000000001,0.025824,0.00269,13.200000000000001,0.006456
3.996436545,-0.06725,13.5,-0.16140000000000002,-0.269,13.4,-0.6456000000000001,-0.73168,13.3,-1.756032,0.01883,13.100000000000001,0.045191999999999996,0.0,13.100000000000001,0.0,0.00269,13.100000000000001,0.006456,0.00269,13.200000000000001,0.006456
4.029569079,-0.06187,13.5,-0.148488,-0.28783000000000003,13.3,-0.6907920000000001,-0.79086,13.3,-1.898064,0.00269,13.200000000000001,0.006456,0.00807,13.100000000000001,0.019368,0.00269,13.200000000000001,0.006456,0.00269,13.200000000000001,0.006456
4.063834468,-0.06187,13.5,-0.148488,-0.31204000000000004,13.4,-0.7488960000000001,-0.76934,13.200000000000001,-1.846416,0.00807,13.200000000000001,0.019368,0.0,13.100000000000001,0.0,0.00269,13.100000000000001,0.006456,0.00269,13.200000000000001,0.006456
4.096514386,-0.0538,13.5,-0.12911999999999998,-0.30935,13.4,-0.74244,-0.78279,13.100000000000001,-1.878696,0.01883,13.200000000000001,0.045191999999999996,0.00538,13.200000000000001,0.012912,-0.0,13.100000000000001,-0.0,0.00538,13.200000000000001,0.012912
4.129716217,-0.03497,13.5,-0.083928,-0.27438,13.4,-0.658512,-0.82045,13.3,-1.96908,-0.01614,13.200000000000001,-0.038736,-0.01345,13.200000000000001,-0.032279999999999996,0.00269,13.100000000000001,0.006456,0.00538,13.200000000000001,0.012912
4.163574399,-0.03497,13.5,-0.083928,-0.32549,13.3,-0.781176,-0.76934,13.200000000000001,-1.846416,-0.02152,13.200000000000001,-0.051648,0.0,13.200000000000001,0.0,0.00807,13.100000000000001,0.019368,0.00538,13.200000000000001,0.012912
4.197261829,-0.04573,13.5,-0.109752,-0.35508,13.4,-0.852192,-0.7854800000000001,13.200000000000001,-1.8851520000000002,0.04304,13.200000000000001,0.103296,0.01076,13.100000000000001,0.025824,0.00269,13.100000000000001,0.006456,0.00538,13.100000000000001,0.012912
4.229663677,-0.04304,13.5,-0.103296,-0.28783000000000003,13.4,-0.6907920000000001,-0.7639600000000001,13.200000000000001,-1.833504,0.01614,13.100000000000001,0.038736,0.0,13.100000000000001,0.0,0.00269,13.200000000000001,0.006456,0.00538,13.200000000000001,0.012912
4.263603302,-0.04304,13.5,-0.103296,-0.34163,13.4,-0.819912,-0.7639600000000001,13.200000000000001,-1.833504,0.00269,13.3,0.006456,0.0,13.200000000000001,0.0,0.00269,13.200000000000001,0.006456,0.00538,13.200000000000001,0.012912
4.29695305,-0.08877,13.5,-0.213048,-0.33625,13.3,-0.8069999999999999,-0.76127,13.3,-1.827048,0.03497,13.200000000000001,0.083928,0.01076,13.100000000000001,0.025824,0.00269,13.100000000000001,0.006456,0.00538,13.200000000000001,0.012912
4.329544071,-0.07263,13.5,-0.174312,-0.33894,13.4,-0.8134560000000001,-0.77203,13.200000000000001,-1.8528719999999999,0.01883,13.200000000000001,0.045191999999999996,-0.01345,13.100000000000001,-0.032279999999999996,0.00269,13.200000000000001,0.006456,0.00538,13.100000000000001,0.012912
4.363393834,-0.07263,13.5,-0.174312,-0.35508,13.4,-0.852192,-0.71285,13.200000000000001,-1.71084,-0.00807,13.200000000000001,-0.019368,0.0,13.200000000000001,0.0,0.00269,13.200000000000001,0.006456,0.00538,13.200000000000001,0.012912
4.397009243,-0.07532,13.5,-0.18076799999999998,-0.36853,13.3,-0.884472,-0.77741,13.200000000000001,-1.865784,0.01614,13.200000000000001,0.038736,0.01076,13.100000000000001,0.025824,0.00269,13.200000000000001,0.006456,0.00538,13.200000000000001,0.012912
4.429518931,-0.07532,13.5,-0.18076799999999998,-0.36853,13.4,-0.884472,-0.75051,13.200000000000001,-1.801224,0.0,13.200000000000001,0.0,-0.01345,13.200000000000001,-0.032279999999999996,0.00269,13.200000000000001,0.006456,0.00269,13.200000000000001,0.006456
4.46361532,-0.06994,13.5,-0.167856,-0.38198000000000004,13.4,-0.916752,-0.73168,13.200000000000001,-1.756032,-0.01345,13.200000000000001,-0.032279999999999996,0.0,13.200000000000001,0.0,0.00269,13.200000000000001,0.006456,0.00269,13.200000000000001,0.006456
4.49638138,-0.07801000000000001,13.5,-0.18722400000000003,-0.36853,13.4,-0.884472,-0.79893,13.3,-1.917432,0.00807,13.200000000000001,0.019368,0.01076,13.200000000000001,0.025824,0.00269,13.200000000000001,0.006456,0.00269,13.200000000000001,0.006456
4.529314123,-0.06187,13.5,-0.148488,-0.33625,13.4,-0.8069999999999999,-0.7747200000000001,13.200000000000001,-1.859328,-0.024210000000000002,13.200000000000001,-0.058104,-0.01883,13.200000000000001,-0.045191999999999996,0.00269,13.200000000000001,0.006456,0.00269,13.200000000000001,0.006456
4.563418753,-0.056490000000000005,13.5,-0.135576,-0.36315000000000003,13.4,-0.87156,-0.72899,13.3,-1.749576,-0.00807,13.3,-0.019368,0.00538,13.200000000000001,0.012912,0.00269,13.3,0.006456,0.00269,13.200000000000001,0.006456
4.596490024,-0.06994,13.600000000000001,-0.167856,-0.36584,13.4,-0.878016,-0.69133,13.200000000000001,-1.659192,-0.00807,13.3,-0.019368,0.0,13.200000000000001,0.0,0.00269,13.3,0.006456,0.00269,13.200000000000001,0.006456
4.629298411,-0.06187,13.5,-0.148488,-0.34701000000000004,13.5,-0.8328240000000001,-0.73168,13.3,-1.756032,-0.01076,13.3,-0.025824,0.01345,13.200000000000001,0.032279999999999996,0.00269,13.3,0.006456,0.00269,13.3,0.006456
4.663246691,-0.06187,13.600000000000001,-0.148488,-0.36046,13.4,-0.865104,-0.6859500000000001,13.4,-1.6462800000000002,-0.01883,13.3,-0.045191999999999996,-0.01345,13.3,-0.032279999999999996,0.00807,13.3,0.019368,0.00269,13.3,0.006456
4.696490987,-0.05111,13.600000000000001,-0.122664,-0.36584,13.5,-0.878016,-0.7263000000000001,13.4,-1.74312,-0.00269,13.3,-0.006456,0.0,13.3,0.0,0.00269,13.3,0.006456,0.00269,13.3,0.006456
4.730317166,-0.07532,13.600000000000001,-0.18076799999999998,-0.34701000000000004,13.5,-0.8328240000000001,-0.68057,13.4,-1.633368,-0.00538,13.3,-0.012912,0.0,13.3,0.0,0.00269,13.3,0.006456,0.00269,13.3,0.006456
4.763295361,-0.06456,13.600000000000001,-0.154944,-0.32549,13.4,-0.781176,-0.71016,13.4,-1.704384,0.0,13.4,0.0,0.01345,13.3,0.032279999999999996,0.00269,13.3,0.006456,0.00269,13.3,0.006456
4.796359998,-0.05111,13.600000000000001,-0.122664,-0.32280000000000003,13.5,-0.7747200000000001,-0.70747,13.4,-1.697928,-0.01345,13.3,-0.032279999999999996,-0.02152,13.3,-0.051648,-0.0,13.4,-0.0,-0.0,13.4,-0.0
4.830279269,-0.04573,13.600000000000001,-0.109752,-0.32549,13.5,-0.781176,-0.71016,13.4,-1.704384,-0.01883,13.4,-0.045191999999999996,0.0,13.3,0.0,0.00269,13.4,0.006456,-0.0,13.4,-0.0
4.863265997,-0.10491,13.600000000000001,-0.251784,-0.31742000000000004,13.600000000000001,-0.761808,-0.72899,13.4,-1.749576,0.00538,13.4,0.012912,0.0,13.3,0.0,0.00269,13.4,0.006456,0.00269,13.4,0.006456
4.896243597,-0.07801000000000001,13.600000000000001,-0.18722400000000003,-0.41426,13.5,-0.994224,-0.71016,13.4,-1.704384,-0.01614,13.4,-0.038736,0.0,13.3,0.0,-0.0,13.4,-0.0,0.00269,13.4,0.006456
4.930283928,-0.08070000000000001,13.600000000000001,-0.19368000000000002,-0.40619,13.5,-0.974856,-0.71823,13.4,-1.723752,-0.01345,13.3,-0.032279999999999996,0.0,13.4,0.0,0.00269,13.4,0.006456,0.00269,13.4,0.006456
4.963409346,-0.08339,13.600000000000001,-0.200136,-0.38736000000000004,13.5,-0.929664,-0.7236100000000001,13.4,-1.7366640000000002,-0.01345,13.4,-0.032279999999999996,0.024210000000000002,13.4,0.058104,0.00269,13.4,0.006456,0.00269,13.4,0.006456
4.99638269,-0.08877,13.600000000000001,-0.213048,-0.38198000000000004,13.5,-0.916752,-0.66981,13.4,-1.607544,-0.01345,13.4,-0.032279999999999996,0.0,13.4,0.0,0.00269,13.4,0.006456,0.00269,13.4,0.006456
5.030253093,-0.08608,13.600000000000001,-0.206592,-0.38467,13.5,-0.923208,-0.70747,13.4,-1.697928,-0.01076,13.4,-0.025824,0.0,13.3,0.0,0.00269,13.4,0.006456,0.00269,13.4,0.006456
5.063256181,-0.09684000000000001,13.700000000000001,-0.232416,-0.36046,13.600000000000001,-0.865104,-0.70209,13.4,-1.6850159999999998,-0.01883,13.4,-0.045191999999999996,0.0,13.4,0.0,-0.0,13.4,-0.0,0.00269,13.4,0.006456
5.096884299,-0.08608,13.700000000000001,-0.206592,-0.39005,13.600000000000001,-0.93612,-0.73168,13.4,-1.756032,-0.01345,13.4,-0.032279999999999996,0.0,13.4,0.0,0.00269,13.4,0.006456,0.00269,13.4,0.006456
5.130830786,-0.08608,13.700000000000001,-0.206592,-0.37391,13.600000000000001,-0.8973840000000001,-0.70209,13.4,-1.6850159999999998,-0.02959,13.4,-0.071016,0.0,13.4,0.0,-0.0,13.4,-0.0,0.00269,13.4,0.006456
5.163044883,-0.08339,13.700000000000001,-0.200136,-0.37929,13.600000000000001,-0.910296,-0.7155400000000001,13.5,-1.7172960000000002,-0.05918,13.4,-0.142032,0.00807,13.4,0.019368,-0.0,13.4,-0.0,0.00538,13.4,0.012912
5.196165585,-0.08608,13.700000000000001,-0.206592,-0.39274000000000003,13.600000000000001,-0.9425760000000001,-0.66712,13.4,-1.601088,-0.06456,13.4,-0.154944,0.0,13.4,0.0,-0.0,13.4,-0.0,0.00538,13.4,0.012912
5.230070504,-0.08608,13.700000000000001,-0.206592,-0.37391,13.600000000000001,-0.8973840000000001,-0.64829,13.5,-1.555896,-0.040350000000000004,13.5,-0.09684000000000001,0.0,13.4,0.0,0.00269,13.4,0.006456,0.00538,13.4,0.012912
5.263038899,-0.08608,13.700000000000001,-0.206592,-0.41426,13.600000000000001,-0.994224,-0.70747,13.5,-1.697928,-0.03766,13.5,-0.09038399999999999,0.0,13.4,0.0,0.00269,13.4,0.006456,0.00538,13.4,0.012912
5.296581684,-0.08877,13.700000000000001,-0.213048,-0.42771000000000003,13.600000000000001,-1.026504,-0.6859500000000001,13.5,-1.6462800000000002,-0.03497,13.5,-0.083928,0.0,13.4,0.0,0.00269,13.4,0.006456,0.00538,13.4,0.012912
5.33025478,-0.08608,13.700000000000001,-0.206592,-0.39274000000000003,13.600000000000001,-0.9425760000000001,-0.6994,13.5,-1.67856,-0.02959,13.5,-0.071016,0.0,13.4,0.0,0.00269,13.4,0.006456,0.00538,13.4,0.012912
5.363098366,-0.08608,13.700000000000001,-0.206592,-0.39005,13.5,-0.93612,-0.7263000000000001,13.5,-1.74312,-0.024210000000000002,13.4,-0.058104,0.0,13.4,0.0,0.00269,13.4,0.006456,0.00538,13.4,0.012912
5.395987208,-0.08070000000000001,13.700000000000001,-0.19368000000000002,-0.40619,13.600000000000001,-0.974856,-0.73975,13.4,-1.7754,-0.024210000000000002,13.4,-0.058104,0.0,13.4,0.0,0.00269,13.4,0.006456,0.00538,13.4,0.012912
5.42996357,-0.08070000000000001,13.700000000000001,-0.19368000000000002,-0.39005,13.5,-0.93612,-0.7263000000000001,13.5,-1.74312,-0.024210000000000002,13.4,-0.058104,0.0,13.4,0.0,0.00269,13.4,0.006456,0.00538,13.4,0.012912
5.463883256,-0.08339,13.700000000000001,-0.200136,-0.41426,13.5,-0.994224,-0.7451300000000001,13.5,-1.7883120000000001,-0.024210000000000002,13.4,-0.058104,0.0,13.4,0.0,0.00269,13.4,0.006456,0.00538,13.4,0.012912
5.496683765,-0.08070000000000001,13.700000000000001,-0.19368000000000002,-0.40619,13.5,-0.974856,-0.7532,13.5,-1.80768,-0.02959,13.4,-0.071016,0.0,13.4,0.0,0.00269,13.4,0.006456,0.00538,13.4,0.012912
5.530599311,-0.08339,13.700000000000001,-0.200136,-0.40619,13.600000000000001,-0.974856,-0.74782,13.5,-1.7947680000000001,-0.02959,13.4,-0.071016,0.0,13.4,0.0,0.00269,13.4,0.006456,0.00538,13.4,0.012912
5.563560227,-0.07263,13.700000000000001,-0.174312,-0.39812000000000003,13.600000000000001,-0.955488,-0.75051,13.5,-1.801224,-0.02959,13.4,-0.071016,0.0,13.4,0.0,0.00269,13.4,0.006456,0.00538,13.4,0.012912
5.59634242,-0.08070000000000001,13.700000000000001,-0.19368000000000002,-0.39543,13.600000000000001,-0.949032,-0.74244,13.4,-1.7818559999999999,-0.0269,13.4,-0.06455999999999999,0.0,13.4,0.0,0.00269,13.4,0.006456,0.00538,13.4,0.012912
5.629817413,-0.06994,13.700000000000001,-0.167856,-0.4035,13.600000000000001,-0.9684,-0.74244,13.5,-1.7818559999999999,-0.02959,13.4,-0.071016,0.0,13.4,0.0,0.00269,13.4,0.006456,0.00538,13.4,0.012912
5.662829764,-0.07532,13.700000000000001,-0.18076799999999998,-0.39543,13.5,-0.949032,-0.73975,13.5,-1.7754,-0.03228,13.4,-0.077472,0.0,13.4,0.0,0.00269,13.4,0.006456,0.00538,13.4,0.012912
5.695986467,-0.08608,13.700000000000001,-0.206592,-0.40888,13.600000000000001,-0.981312,-0.74244,13.5,-1.7818559999999999,-0.03497,13.4,-0.083928,0.0,13.4,0.0,0.00269,13.4,0.006456,0.00538,13.4,0.012912
5.729933646,-0.08608,13.700000000000001,-0.206592,-0.41695000000000004,13.600000000000001,-1.00068,-0.74244,13.5,-1.7818559999999999,-0.0269,13.4,-0.06455999999999999,0.0,13.4,0.0,0.00269,13.4,0.006456,0.00538,13.4,0.012912
5.762905698,-0.07532,13.700000000000001,-0.18076799999999998,-0.40888,13.600000000000001,-0.981312,-0.7451300000000001,13.5,-1.7883120000000001,-0.04573,13.4,-0.109752,0.0,13.4,0.0,0.00269,13.4,0.006456,0.00538,13.4,0.012912
5.796707556,-0.08608,13.700000000000001,-0.206592,-0.39274000000000003,13.600000000000001,-0.9425760000000001,-0.73975,13.5,-1.7754,-0.0269,13.4,-0.06455999999999999,0.0,13.4,0.0,0.00269,13.4,0.006456,0.00538,13.4,0.012912
5.829936436,-0.07263,13.700000000000001,-0.174312,-0.40619,13.600000000000001,-0.974856,-0.7343700000000001,13.5,-1.762488,-0.0269,13.5,-0.06455999999999999,0.0,13.4,0.0,0.00269,13.4,0.006456,0.00538,13.4,0.012912
5.862882618,-0.08339,13.700000000000001,-0.200136,-0.41426,13.5,-0.994224,-0.7532,13.5,-1.80768,-0.03766,13.4,-0.09038399999999999,0.0,13.4,0.0,0.00269,13.4,0.006456,0.00538,13.4,0.012912
5.897000474,-0.07801000000000001,13.700000000000001,-0.18722400000000003,-0.39812000000000003,13.600000000000001,-0.955488,-0.74782,13.5,-1.7947680000000001,-0.0269,13.4,-0.06455999999999999,0.0,13.4,0.0,0.00269,13.4,0.006456,0.00538,13.4,0.012912
5.929898912,-0.08608,13.700000000000001,-0.206592,-0.40619,13.600000000000001,-0.974856,-0.74244,13.5,-1.7818559999999999,-0.0269,13.4,-0.06455999999999999,0.0,13.4,0.0,0.00269,13.4,0.006456,0.00269,13.4,0.006456
5.962894428,-0.07532,13.700000000000001,-0.18076799999999998,-0.39005,13.600000000000001,-0.93612,-0.75051,13.5,-1.801224,-0.02959,13.4,-0.071016,0.0,13.4,0.0,0.00269,13.4,0.006456,0.00269,13.4,0.006456
5.99677037,-0.08608,13.700000000000001,-0.206592,-0.40619,13.600000000000001,-0.974856,-0.7451300000000001,13.5,-1.7883120000000001,-0.03228,13.4,-0.077472,0.0,13.4,0.0,0.00269,13.4,0.006456,0.00538,13.4,0.012912
6.029799505,-0.08608,13.700000000000001,-0.206592,-0.42233000000000004,13.600000000000001,-1.013592,-0.74244,13.5,-1.7818559999999999,-0.03497,13.4,-0.083928,0.0,13.4,0.0,-0.0,13.4,-0.0,0.00538,13.4,0.012912
6.062868155,-0.08608,13.700000000000001,-0.206592,-0.41695000000000004,13.600000000000001,-1.00068,-0.7451300000000001,13.5,-1.7883120000000001,-0.03766,13.4,-0.09038399999999999,0.0,13.4,0.0,0.00269,13.4,0.006456,0.00269,13.4,0.006456
6.096696594,-0.08070000000000001,13.700000000000001,-0.19368000000000002,-0.40888,13.5,-0.981312,-0.74244,13.4,-1.7818559999999999,-0.0269,13.4,-0.06455999999999999,0.0,13.4,0.0,0.00269,13.4,0.006456,0.00269,13.4,0.006456
6.129791533,-0.07801000000000001,13.700000000000001,-0.18722400000000003,-0.40081,13.600000000000001,-0.9619439999999999,-0.7451300000000001,13.4,-1.7883120000000001,-0.03497,13.4,-0.083928,0.0,13.4,0.0,0.00269,13.4,0.006456,0.00269,13.4,0.006456
6.162658066,-0.07801000000000001,13.700000000000001,-0.18722400000000003,-0.40619,13.600000000000001,-0.974856,-0.7451300000000001,13.5,-1.7883120000000001,-0.0269,13.4,-0.06455999999999999,0.0,13.4,0.0,-0.0,13.4,-0.0,0.00269,13.4,0.006456
6.196673839,-0.05918,13.700000000000001,-0.142032,-0.42233000000000004,13.600000000000001,-1.013592,-0.73975,13.5,-1.7754,-0.0269,13.4,-0.06455999999999999,0.0,13.4,0.0,-0.0,13.4,-0.0,0.00269,13.4,0.006456
6.229540133,-0.07263,13.700000000000001,-0.174312,-0.4035,13.600000000000001,-0.9684,-0.73975,13.5,-1.7754,-0.03228,13.4,-0.077472,0.0,13.4,0.0,-0.0,13.4,-0.0,0.00538,13.4,0.012912
6.262689393,-0.05918,13.700000000000001,-0.142032,-0.40081,13.600000000000001,-0.9619439999999999,-0.73706,13.5,-1.768944,-0.03497,13.4,-0.083928,0.0,13.4,0.0,0.00269,13.4,0.006456,0.00538,13.4,0.012912
6.296645014,-0.08070000000000001,13.700000000000001,-0.19368000000000002,-0.42233000000000004,13.600000000000001,-1.013592,-0.73168,13.4,-1.756032,-0.02959,13.4,-0.071016,0.0,13.4,0.0,0.00269,13.4,0.006456,0.00538,13.4,0.012912
6.332243737,-0.08070000000000001,13.700000000000001,-0.19368000000000002,-0.39543,13.600000000000001,-0.949032,-0.74782,13.5,-1.7947680000000001,-0.03497,13.4,-0.083928,0.0,13.4,0.0,0.00269,13.4,0.006456,0.00538,13.4,0.012912
6.363628193,-0.06994,13.700000000000001,-0.167856,-0.39543,13.600000000000001,-0.949032,-0.75858,13.5,-1.820592,-0.0269,13.4,-0.06455999999999999,0.0,13.4,0.0,0.00807,13.4,0.019368,0.00538,13.4,0.012912
6.396834166,-0.08339,13.700000000000001,-0.200136,-0.4035,13.600000000000001,-0.9684,-0.73975,13.5,-1.7754,-0.0269,13.4,-0.06455999999999999,0.0,13.4,0.0,0.00269,13.4,0.006456,0.00538,13.4,0.012912
6.429800002,-0.06725,13.700000000000001,-0.16140000000000002,-0.40619,13.600000000000001,-0.974856,-0.75051,13.5,-1.801224,-0.03228,13.5,-0.077472,0.0,13.4,0.0,0.00269,13.4,0.006456,0.00538,13.4,0.012912
6.462710534,-0.07532,13.700000000000001,-0.18076799999999998,-0.38467,13.600000000000001,-0.923208,-0.73975,13.5,-1.7754,-0.03497,13.5,-0.083928,0.0,13.4,0.0,0.00269,13.4,0.006456,0.00538,13.4,0.012912
6.496652007,-0.06994,13.700000000000001,-0.167856,-0.40081,13.600000000000001,-0.9619439999999999,-0.75858,13.5,-1.820592,-0.02959,13.5,-0.071016,0.0,13.4,0.0,0.00269,13.4,0.006456,0.00538,13.4,0.012912
6.530054889,-0.08070000000000001,13.700000000000001,-0.19368000000000002,-0.41964,13.600000000000001,-1.007136,-0.73706,13.4,-1.768944,-0.02959,13.5,-0.071016,0.0,13.4,0.0,0.00269,13.4,0.006456,0.00538,13.4,0.012912
6.563737393,-0.06456,13.700000000000001,-0.154944,-0.41695000000000004,13.600000000000001,-1.00068,-0.7532,13.5,-1.80768,-0.0269,13.5,-0.06455999999999999,0.0,13.4,0.0,-0.0,13.4,-0.0,0.00538,13.4,0.012912
6.596608349,-0.06725,13.700000000000001,-0.16140000000000002,-0.41157,13.5,-0.987768,-0.73706,13.5,-1.768944,-0.03228,13.5,-0.077472,0.0,13.4,0.0,-0.0,13.4,-0.0,-0.0,13.4,-0.0
6.629784453,-0.06994,13.700000000000001,-0.167856,-0.39005,13.600000000000001,-0.93612,-0.7451300000000001,13.5,-1.7883120000000001,-0.03497,13.4,-0.083928,0.0,13.4,0.0,0.00269,13.4,0.006456,-0.0,13.4,-0.0
6.663848974,-0.07532,13.700000000000001,-0.18076799999999998,-0.39812000000000003,13.5,-0.955488,-0.75051,13.4,-1.801224,-0.04304,13.4,-0.103296,0.0,13.4,0.0,-0.0,13.4,-0.0,-0.0,13.4,-0.0
6.696579413,-0.04573,13.700000000000001,-0.109752,-0.41157,13.600000000000001,-0.987768,-0.73975,13.5,-1.7754,-0.03766,13.4,-0.09038399999999999,0.0,13.4,0.0,-0.0,13.4,-0.0,-0.0,13.4,-0.0
6.72964785,-0.0538,13.700000000000001,-0.12911999999999998,-0.40619,13.600000000000001,-0.974856,-0.74244,13.5,-1.7818559999999999,-0.03497,13.5,-0.083928,0.0,13.4,0.0,-0.0,13.4,-0.0,0.00269,13.4,0.006456
6.763524349,-0.06994,13.700000000000001,-0.167856,-0.41157,13.600000000000001,-0.987768,-0.74244,13.5,-1.7818559999999999,-0.0269,13.5,-0.06455999999999999,0.0,13.4,0.0,-0.0,13.4,-0.0,0.00269,13.4,0.006456
6.796621346,-0.06187,13.700000000000001,-0.148488,-0.40619,13.600000000000001,-0.974856,-0.7532,13.5,-1.80768,-0.03497,13.5,-0.083928,0.0,13.4,0.0,-0.0,13.4,-0.0,0.00269,13.4,0.006456
6.829686736,-0.05111,13.700000000000001,-0.122664,-0.39812000000000003,13.600000000000001,-0.955488,-0.73168,13.5,-1.756032,-0.02959,13.5,-0.071016,0.0,13.4,0.0,-0.0,13.4,-0.0,0.00269,13.4,0.006456
6.863599926,-0.056490000000000005,13.700000000000001,-0.135576,-0.40619,13.600000000000001,-0.974856,-0.74782,13.5,-1.7947680000000001,-0.03766,13.5,-0.09038399999999999,0.0,13.4,0.0,-0.0,13.4,-0.0,0.00269,13.4,0.006456
6.896850689,-0.08608,13.700000000000001,-0.206592,-0.4035,13.600000000000001,-0.9684,-0.7263000000000001,13.5,-1.74312,-0.0269,13.5,-0.06455999999999999,0.0,13.4,0.0,-0.0,13.4,-0.0,0.00269,13.4,0.006456
6.929553818,-0.05918,13.700000000000001,-0.142032,-0.39543,13.600000000000001,-0.949032,-0.7451300000000001,13.5,-1.7883120000000001,-0.03766,13.4,-0.09038399999999999,0.0,13.4,0.0,0.00269,13.4,0.006456,0.00269,13.4,0.006456
6.963492784,-0.08339,13.700000000000001,-0.200136,-0.40888,13.600000000000001,-0.981312,-0.74244,13.5,-1.7818559999999999,-0.0269,13.4,-0.06455999999999999,0.0,13.4,0.0,-0.0,13.4,-0.0,0.00269,13.4,0.006456
6.996736143,-0.06187,13.700000000000001,-0.148488,-0.40888,13.600000000000001,-0.981312,-0.74244,13.5,-1.7818559999999999,-0.03766,13.4,-0.09038399999999999,0.0,13.4,0.0,-0.0,13.4,-0.0,0.00269,13.4,0.006456
7.0294806,-0.06456,13.700000000000001,-0.154944,-0.41426,13.600000000000001,-0.994224,-0.7558900000000001,13.5,-1.814136,-0.0269,13.4,-0.06455999999999999,0.0,13.4,0.0,-0.0,13.4,-0.0,0.00538,13.4,0.012912
7.063803714,-0.06994,13.700000000000001,-0.167856,-0.41157,13.600000000000001,-0.987768,-0.74244,13.5,-1.7818559999999999,-0.0269,13.4,-0.06455999999999999,0.0,13.4,0.0,-0.0,13.4,-0.0,0.00538,13.4,0.012912
7.096474382,-0.06725,13.700000000000001,-0.16140000000000002,-0.40888,13.600000000000001,-0.981312,-0.7558900000000001,13.4,-1.814136,-0.0269,13.4,-0.06455999999999999,0.0,13.4,0.0,0.00269,13.4,0.006456,0.00538,13.4,0.012912
7.129403301,-0.06456,13.700000000000001,-0.154944,-0.41964,13.600000000000001,-1.007136,-0.74244,13.5,-1.7818559999999999,-0.03497,13.4,-0.083928,0.0,13.4,0.0,0.00269,13.4,0.006456,0.00538,13.4,0.012912
7.163721194,-0.06725,13.700000000000001,-0.16140000000000002,-0.41695000000000004,13.600000000000001,-1.00068,-0.74244,13.4,-1.7818559999999999,-0.0269,13.5,-0.06455999999999999,0.0,13.4,0.0,-0.0,13.4,-0.0,0.00538,13.4,0.012912
7.196570306,-0.07532,13.700000000000001,-0.18076799999999998,-0.41157,13.600000000000001,-0.987768,-0.73975,13.4,-1.7754,-0.0269,13.5,-0.06455999999999999,0.0,13.4,0.0,-0.0,13.4,-0.0,0.00538,13.4,0.012912
7.229684252,-0.07532,13.700000000000001,-0.18076799999999998,-0.40081,13.5,-0.9619439999999999,-0.74782,13.5,-1.7947680000000001,-0.03497,13.5,-0.083928,0.0,13.4,0.0,-0.0,13.4,-0.0,0.00538,13.4,0.012912
7.263636514,-0.06456,13.700000000000001,-0.154944,-0.41426,13.600000000000001,-0.994224,-0.75051,13.5,-1.801224,-0.0269,13.4,-0.06455999999999999,0.0,13.4,0.0,0.00269,13.4,0.006456,0.00538,13.4,0.012912
7.296437204,-0.05918,13.700000000000001,-0.142032,-0.41157,13.600000000000001,-0.987768,-0.73975,13.4,-1.7754,-0.0269,13.4,-0.06455999999999999,0.0,13.4,0.0,-0.0,13.4,-0.0,0.00538,13.4,0.012912
7.329475599,-0.07263,13.700000000000001,-0.174312,-0.40619,13.600000000000001,-0.974856,-0.7451300000000001,13.5,-1.7883120000000001,-0.02959,13.4,-0.071016,0.0,13.4,0.0,0.00269,13.4,0.006456,0.00538,13.4,0.012912
7.363642917,-0.07801000000000001,13.700000000000001,-0.18722400000000003,-0.41695000000000004,13.600000000000001,-1.00068,-0.73975,13.5,-1.7754,-0.0269,13.4,-0.06455999999999999,0.0,13.4,0.0,-0.0,13.4,-0.0,0.00538,13.4,0.012912
7.396691093,-0.06725,13.700000000000001,-0.16140000000000002,-0.41426,13.600000000000001,-0.994224,-0.7343700000000001,13.4,-1.762488,-0.02959,13.4,-0.071016,0.0,13.4,0.0,0.00269,13.4,0.006456,0.00538,13.4,0.012912
7.430356095,-0.06456,13.700000000000001,-0.154944,-0.41695000000000004,13.600000000000001,-1.00068,-0.7558900000000001,13.5,-1.814136,-0.04304,13.4,-0.103296,0.0,13.4,0.0,0.00269,13.4,0.006456,0.00538,13.4,0.012912
7.463480142,-0.05918,13.700000000000001,-0.142032,-0.4035,13.600000000000001,-0.9684,-0.7451300000000001,13.4,-1.7883120000000001,-0.03228,13.4,-0.077472,0.0,13.4,0.0,0.00269,13.4,0.006456,0.00538,13.4,0.012912
7.496492696,-0.08339,13.700000000000001,-0.200136,-0.40888,13.600000000000001,-0.981312,-0.75051,13.5,-1.801224,-0.0269,13.5,-0.06455999999999999,0.0,13.4,0.0,-0.0,13.4,-0.0,0.00538,13.4,0.012912
7.53036452,-0.06725,13.700000000000001,-0.16140000000000002,-0.4035,13.600000000000001,-0.9684,-0.7343700000000001,13.4,-1.762488,-0.02959,13.5,-0.071016,0.0,13.4,0.0,-0.0,13.4,-0.0,0.00538,13.4,0.012912
7.563214246,-0.07801000000000001,13.700000000000001,-0.18722400000000003,-0.41157,13.600000000000001,-0.987768,-0.73975,13.5,-1.7754,-0.0269,13.5,-0.06455999999999999,0.0,13.4,0.0,0.00538,13.4,0.012912,0.00538,13.4,0.012912
7.596439864,-0.07801000000000001,13.700000000000001,-0.18722400000000003,-0.41157,13.5,-0.987768,-0.73975,13.4,-1.7754,-0.02959,13.5,-0.071016,0.0,13.4,0.0,0.00269,13.4,0.006456,0.00538,13.4,0.012912
7.630388535,-0.05111,13.700000000000001,-0.122664,-0.4035,13.600000000000001,-0.9684,-0.74244,13.5,-1.7818559999999999,-0.0269,13.4,-0.06455999999999999,0.0,13.4,0.0,0.00269,13.4,0.006456,0.00538,13.4,0.012912
7.66339675,-0.07263,13.700000000000001,-0.174312,-0.40888,13.600000000000001,-0.981312,-0.7451300000000001,13.5,-1.7883120000000001,-0.024210000000000002,13.4,-0.058104,0.0,13.4,0.0,-0.0,13.4,-0.0,0.00538,13.4,0.012912
7.696407224,-0.06994,13.700000000000001,-0.167856,-0.40081,13.600000000000001,-0.9619439999999999,-0.74244,13.5,-1.7818559999999999,-0.0269,13.5,-0.06455999999999999,0.0,13.4,0.0,-0.0,13.4,-0.0,0.00538,13.4,0.012912
7.730103059,-0.08608,13.700000000000001,-0.206592,-0.39274000000000003,13.600000000000001,-0.9425760000000001,-0.75051,13.5,-1.801224,-0.0269,13.5,-0.06455999999999999,0.0,13.4,0.0,-0.0,13.4,-0.0,0.00538,13.4,0.012912
7.763435817,-0.05918,13.700000000000001,-0.142032,-0.40888,13.600000000000001,-0.981312,-0.7343700000000001,13.5,-1.762488,-0.02959,13.5,-0.071016,0.0,13.4,0.0,-0.0,13.4,-0.0,0.00538,13.4,0.012912
7.796042431,-0.06994,13.700000000000001,-0.167856,-0.40081,13.5,-0.9619439999999999,-0.7558900000000001,13.5,-1.814136,-0.0269,13.5,-0.06455999999999999,0.0,13.4,0.0,-0.0,13.4,-0.0,0.00538,13.4,0.012912
7.83025045,-0.07263,13.700000000000001,-0.174312,-0.4035,13.600000000000001,-0.9684,-0.73706,13.5,-1.768944,-0.0269,13.5,-0.06455999999999999,0.0,13.4,0.0,0.00269,13.4,0.006456,0.00538,13.4,0.012912
7.862982392,-0.06994,13.700000000000001,-0.167856,-0.42502,13.600000000000001,-1.020048,-0.7451300000000001,13.4,-1.7883120000000001,-0.0269,13.5,-0.06455999999999999,0.0,13.4,0.0,-0.0,13.4,-0.0,0.00538,13.4,0.012912
7.896211816,-0.06187,13.700000000000001,-0.148488,-0.42233000000000004,13.5,-1.013592,-0.73975,13.4,-1.7754,-0.03497,13.5,-0.083928,0.0,13.4,0.0,-0.0,13.4,-0.0,0.00538,13.4,0.012912
7.930376914,-0.06456,13.700000000000001,-0.154944,-0.41695000000000004,13.600000000000001,-1.00068,-0.7558900000000001,13.4,-1.814136,-0.0269,13.4,-0.06455999999999999,0.0,13.4,0.0,-0.0,13.4,-0.0,0.00538,13.4,0.012912
7.963426749,-0.056490000000000005,13.700000000000001,-0.135576,-0.41157,13.600000000000001,-0.987768,-0.74782,13.4,-1.7947680000000001,-0.03766,13.4,-0.09038399999999999,0.0,13.4,0.0,-0.0,13.4,-0.0,0.00538,13.4,0.012912
7.997274903,-0.04573,13.700000000000001,-0.109752,-0.41695000000000004,13.600000000000001,-1.00068,-0.7451300000000001,13.5,-1.7883120000000001,-0.0269,13.5,-0.06455999999999999,0.0,13.4,0.0,-0.0,13.4,-0.0,0.00538,13.4,0.012912
8.030334395,-0.05918,13.700000000000001,-0.142032,-0.41157,13.600000000000001,-0.987768,-0.72899,13.5,-1.749576,-0.0269,13.5,-0.06455999999999999,0.0,13.4,0.0,-0.0,13.4,-0.0,0.00538,13.4,0.012912
8.063241203,-0.06725,13.700000000000001,-0.16140000000000002,-0.40081,13.600000000000001,-0.9619439999999999,-0.74782,13.5,-1.7947680000000001,-0.0269,13.4,-0.06455999999999999,0.0,13.4,0.0,-0.0,13.4,-0.0,0.00538,13.4,0.012912
8.09625656,-0.07263,13.700000000000001,-0.174312,-0.39543,13.600000000000001,-0.949032,-0.7451300000000001,13.4,-1.7883120000000001,-0.0269,13.4,-0.06455999999999999,0.0,13.4,0.0,-0.0,13.4,-0.0,0.00538,13.4,0.012912
8.130429982,-0.06456,13.700000000000001,-0.154944,-0.41426,13.600000000000001,-0.994224,-0.7451300000000001,13.5,-1.7883120000000001,-0.040350000000000004,13.4,-0.09684000000000001,0.0,13.4,0.0,-0.0,13.4,-0.0,0.00538,13.4,0.012912
8.163107143,-0.06456,13.700000000000001,-0.154944,-0.41695000000000004,13.5,-1.00068,-0.73706,13.4,-1.768944,-0.0269,13.4,-0.06455999999999999,0.0,13.4,0.0,-0.0,13.4,-0.0,0.00538,13.4,0.012912
8.196071258,-0.08070000000000001,13.700000000000001,-0.19368000000000002,-0.41695000000000004,13.600000000000001,-1.00068,-0.73975,13.5,-1.7754,-0.03766,13.4,-0.09038399999999999,0.0,13.4,0.0,-0.0,13.4,-0.0,0.00538,13.4,0.012912
8.230069799,-0.06725,13.700000000000001,-0.16140000000000002,-0.40619,13.600000000000001,-0.974856,-0.7451300000000001,13.4,-1.7883120000000001,-0.03497,13.4,-0.083928,0.0,13.4,0.0,-0.0,13.4,-0.0,0.00538,13.4,0.012912
8.263121479,-0.06994,13.700000000000001,-0.167856,-0.40888,13.600000000000001,-0.981312,-0.73706,13.4,-1.768944,-0.0269,13.4,-0.06455999999999999,0.0,13.4,0.0,-0.0,13.4,-0.0,0.00538,13.4,0.012912
8.295922253,-0.06725,13.700000000000001,-0.16140000000000002,-0.42233000000000004,13.600000000000001,-1.013592,-0.74782,13.5,-1.7947680000000001,-0.0269,13.4,-0.06455999999999999,0.0,13.4,0.0,-0.0,13.4,-0.0,0.00538,13.4,0.012912
8.329955072,-0.07532,13.700000000000001,-0.18076799999999998,-0.4035,13.600000000000001,-0.9684,-0.74782,13.5,-1.7947680000000001,-0.0269,13.4,-0.06455999999999999,0.0,13.4,0.0,-0.0,13.4,-0.0,0.00538,13.4,0.012912
8.362819762,-0.05918,13.700000000000001,-0.142032,-0.40081,13.600000000000001,-0.9619439999999999,-0.73706,13.5,-1.768944,-0.02959,13.5,-0.071016,0.0,13.4,0.0,-0.0,13.4,-0.0,0.00538,13.4,0.012912
8.397596849,-0.05111,13.700000000000001,-0.122664,-0.41695000000000004,13.600000000000001,-1.00068,-0.75051,13.5,-1.801224,-0.02959,13.5,-0.071016,0.0,13.4,0.0,-0.0,13.4,-0.0,0.00538,13.4,0.012912
8.430767379,-0.0538,13.700000000000001,-0.12911999999999998,-0.41695000000000004,13.600000000000001,-1.00068,-0.7343700000000001,13.5,-1.762488,-0.03766,13.5,-0.09038399999999999,0.0,13.4,0.0,-0.0,13.4,-0.0,0.00538,13.4,0.012912
8.462769133,-0.06725,13.700000000000001,-0.16140000000000002,-0.41157,13.600000000000001,-0.987768,-0.7558900000000001,13.5,-1.814136,-0.0269,13.4,-0.06455999999999999,0.0,13.4,0.0,-0.0,13.4,-0.0,0.00538,13.4,0.012912
8.496977836,-0.08070000000000001,13.700000000000001,-0.19368000000000002,-0.41157,13.600000000000001,-0.987768,-0.73706,13.5,-1.768944,-0.02959,13.4,-0.071016,0.0,13.4,0.0,-0.0,13.4,-0.0,0.00538,13.4,0.012912
8.529678456,-0.02152,13.700000000000001,-0.051648,-0.24479,13.600000000000001,-0.587496,-0.28245000000000003,13.600000000000001,-0.67788,-0.02959,13.5,-0.071016,0.0,13.5,0.0,0.00269,13.5,0.006456,0.00538,13.5,0.012912
8.563200722,-0.02959,13.700000000000001,-0.071016,-0.32011,13.700000000000001,-0.768264,-0.30128,13.600000000000001,-0.7230719999999999,-0.04573,13.600000000000001,-0.109752,0.0,13.5,0.0,0.00269,13.600000000000001,0.006456,0.00538,13.5,0.012912
8.596607522,-0.02959,13.700000000000001,-0.071016,-0.32011,13.700000000000001,-0.768264,-0.32011,13.5,-0.768264,-0.08877,13.600000000000001,-0.213048,0.0,13.5,0.0,0.00269,13.600000000000001,0.006456,0.00538,13.5,0.012912
8.629874155,-0.01883,13.700000000000001,-0.045191999999999996,-0.4304,13.700000000000001,-1.0329599999999999,-0.35239000000000004,13.5,-0.845736,-0.09953000000000001,13.600000000000001,-0.238872,0.0,13.5,0.0,0.00269,13.600000000000001,0.006456,0.00538,13.5,0.012912
8.6634949,-0.01076,13.700000000000001,-0.025824,-0.46537,13.700000000000001,-1.1168879999999999,-0.40888,13.5,-0.981312,-0.10491,13.600000000000001,-0.251784,0.0,13.5,0.0,0.00269,13.600000000000001,0.006456,0.00538,13.5,0.012912
8.697500286,-0.02152,13.700000000000001,-0.051648,-0.41964,13.700000000000001,-1.007136,-0.46537,13.5,-1.1168879999999999,-0.11836,13.600000000000001,-0.284064,0.0,13.5,0.0,0.00269,13.5,0.006456,0.00269,13.5,0.006456
8.729965937,-0.02152,13.700000000000001,-0.051648,-0.35777000000000003,13.700000000000001,-0.8586480000000001,-0.47344,13.5,-1.136256,-0.09415,13.600000000000001,-0.22596,0.0,13.5,0.0,0.00269,13.5,0.006456,0.00269,13.5,0.006456
8.762735621,-0.02152,13.700000000000001,-0.051648,-0.35239000000000004,13.600000000000001,-0.845736,-0.54069,13.5,-1.297656,-0.09953000000000001,13.600000000000001,-0.238872,0.0,13.5,0.0,-0.0,13.5,-0.0,0.00269,13.5,0.006456
8.797028009,-0.01883,13.700000000000001,-0.045191999999999996,-0.33087,13.600000000000001,-0.794088,-0.5944900000000001,13.600000000000001,-1.426776,-0.12374,13.5,-0.296976,0.0,13.5,0.0,0.00269,13.5,0.006456,0.00269,13.5,0.006456
8.829732365,-0.024210000000000002,13.700000000000001,-0.058104,-0.33087,13.600000000000001,-0.794088,-0.6644300000000001,13.5,-1.594632,-0.11567000000000001,13.5,-0.277608,0.0,13.5,0.0,0.00269,13.5,0.006456,0.00269,13.5,0.006456
8.862664365,-0.01345,13.700000000000001,-0.032279999999999996,-0.39005,13.600000000000001,-0.93612,-0.74244,13.5,-1.7818559999999999,-0.1076,13.5,-0.25823999999999997,0.0,13.4,0.0,0.00269,13.5,0.006456,0.00269,13.5,0.006456
8.897290236,-0.01076,13.700000000000001,-0.025824,-0.42502,13.600000000000001,-1.020048,-0.7747200000000001,13.4,-1.859328,-0.11029,13.5,-0.264696,0.0,13.4,0.0,0.00269,13.5,0.006456,0.00269,13.5,0.006456
8.930257937,-0.01883,13.700000000000001,-0.045191999999999996,-0.40619,13.600000000000001,-0.974856,-0.75858,13.4,-1.820592,-0.11836,13.5,-0.284064,0.0,13.4,0.0,0.00269,13.5,0.006456,-0.0,13.5,-0.0
8.962981144,-0.02152,13.700000000000001,-0.051648,-0.40888,13.5,-0.981312,-0.7155400000000001,13.5,-1.7172960000000002,-0.14795,13.4,-0.35508,0.0,13.4,0.0,0.00269,13.5,0.006456,0.00269,13.4,0.006456
8.996838563,-0.0269,13.700000000000001,-0.06455999999999999,-0.41426,13.5,-0.994224,-0.64291,13.4,-1.542984,-0.11567000000000001,13.4,-0.277608,0.0,13.4,0.0,-0.0,13.5,-0.0,0.00269,13.4,0.006456
9.030000415,-0.01614,13.700000000000001,-0.038736,-0.38198000000000004,13.600000000000001,-0.916752,-0.6644300000000001,13.4,-1.594632,-0.1345,13.4,-0.32280000000000003,0.0,13.4,0.0,0.00269,13.4,0.006456,0.00269,13.4,0.006456
9.062900183,-0.01345,13.700000000000001,-0.032279999999999996,-0.45730000000000004,13.600000000000001,-1.09752,-0.68326,13.5,-1.639824,-0.13181,13.5,-0.316344,0.0,13.4,0.0,0.00269,13.4,0.006456,0.00269,13.4,0.006456
9.096689467,-0.01883,13.700000000000001,-0.045191999999999996,-0.46268000000000004,13.5,-1.110432,-0.65367,13.5,-1.568808,-0.11029,13.4,-0.264696,0.0,13.4,0.0,0.00269,13.4,0.006456,0.00269,13.4,0.006456
9.129707298,-0.01883,13.700000000000001,-0.045191999999999996,-0.49496,13.600000000000001,-1.187904,-0.69671,13.4,-1.672104,-0.14795,13.4,-0.35508,0.0,13.4,0.0,0.00269,13.4,0.006456,0.00269,13.4,0.006456
9.162800966,-0.024210000000000002,13.700000000000001,-0.058104,-0.44923,13.600000000000001,-1.078152,-0.66981,13.5,-1.607544,-0.13181,13.4,-0.316344,0.0,13.4,0.0,0.00807,13.4,0.019368,0.00269,13.4,0.006456
9.197012495,-0.01883,13.600000000000001,-0.045191999999999996,-0.50034,13.600000000000001,-1.2008159999999999,-0.6348400000000001,13.4,-1.523616,-0.12105,13.4,-0.29052,0.0,13.4,0.0,-0.0,13.4,-0.0,0.00269,13.4,0.006456
9.230326776,-0.01883,13.600000000000001,-0.045191999999999996,-0.45192000000000004,13.600000000000001,-1.084608,-0.6240800000000001,13.4,-1.4977920000000002,-0.12374,13.4,-0.296976,0.0,13.4,0.0,-0.0,13.4,-0.0,0.00269,13.4,0.006456
9.264277267,-0.01883,13.600000000000001,-0.045191999999999996,-0.4842,13.5,-1.16208,-0.64829,13.4,-1.555896,-0.1345,13.4,-0.32280000000000003,0.0,13.4,0.0,-0.0,13.4,-0.0,0.00269,13.4,0.006456
9.296555026,-0.01076,13.700000000000001,-0.025824,-0.49227000000000004,13.600000000000001,-1.181448,-0.67788,13.5,-1.6269120000000001,-0.12912,13.4,-0.309888,0.0,13.3,0.0,-0.0,13.4,-0.0,0.00269,13.4,0.006456
9.32976248,-0.01883,13.700000000000001,-0.045191999999999996,-0.58104,13.600000000000001,-1.394496,-0.67788,13.4,-1.6269120000000001,-0.12643000000000001,13.4,-0.30343200000000004,0.0,13.4,0.0,-0.0,13.4,-0.0,0.00269,13.4,0.006456
9.363629927,-0.01883,13.700000000000001,-0.045191999999999996,-0.58373,13.600000000000001,-1.400952,-0.67788,13.4,-1.6269120000000001,-0.1076,13.4,-0.25823999999999997,0.0,13.4,0.0,0.00269,13.4,0.006456,0.00269,13.4,0.006456
9.396478259,-0.02152,13.700000000000001,-0.051648,-0.58373,13.5,-1.400952,-0.72899,13.4,-1.749576,-0.12105,13.4,-0.29052,0.0,13.4,0.0,-0.0,13.4,-0.0,0.00269,13.4,0.006456
9.429662137,-0.01345,13.700000000000001,-0.032279999999999996,-0.5756600000000001,13.600000000000001,-1.3815840000000001,-0.71285,13.5,-1.71084,-0.09415,13.4,-0.22596,0.0,13.4,0.0,-0.0,13.4,-0.0,0.00269,13.4,0.006456
9.463393258,-0.00807,13.700000000000001,-0.019368,-0.57297,13.5,-1.375128,-0.7747200000000001,13.4,-1.859328,-0.09146,13.4,-0.219504,0.0,13.4,0.0,-0.0,13.4,-0.0,0.00269,13.4,0.006456
9.496480182,-0.01883,13.700000000000001,-0.045191999999999996,-0.51648,13.600000000000001,-1.239552,-0.74244,13.5,-1.7818559999999999,-0.10491,13.4,-0.251784,0.0,13.4,0.0,0.00269,13.4,0.006456,0.00269,13.4,0.006456
9.52950329,-0.0538,13.700000000000001,-0.12911999999999998,-0.5245500000000001,13.5,-1.25892,-0.7558900000000001,13.4,-1.814136,-0.08877,13.4,-0.213048,0.0,13.4,0.0,-0.0,13.4,-0.0,0.00269,13.4,0.006456
9.56357078,-0.04304,13.700000000000001,-0.103296,-0.57028,13.5,-1.3686719999999999,-0.71823,13.4,-1.723752,-0.10491,13.4,-0.251784,0.0,13.4,0.0,0.00269,13.4,0.006456,0.00269,13.4,0.006456
9.596521124,-0.03497,13.700000000000001,-0.083928,-0.57835,13.5,-1.38804,-0.75051,13.4,-1.801224,-0.09684000000000001,13.4,-0.232416,0.0,13.4,0.0,0.00269,13.4,0.006456,0.00269,13.4,0.006456
9.629743103,-0.03766,13.700000000000001,-0.09038399999999999,-0.5353100000000001,13.600000000000001,-1.284744,-0.7343700000000001,13.4,-1.762488,-0.09146,13.4,-0.219504,0.0,13.4,0.0,-0.0,13.4,-0.0,0.00269,13.4,0.006456
9.663537109,-0.06187,13.700000000000001,-0.148488,-0.69133,13.600000000000001,-1.659192,-0.71285,13.4,-1.71084,-0.09146,13.4,-0.219504,0.0,13.4,0.0,0.01076,13.4,0.025824,0.00269,13.4,0.006456
9.696899956,-0.04573,13.700000000000001,-0.109752,-0.63215,13.600000000000001,-1.5171599999999998,-0.72092,13.4,-1.730208,-0.07263,13.4,-0.174312,0.0,13.4,0.0,-0.0,13.4,-0.0,0.00269,13.4,0.006456
9.731101477,-0.05918,13.700000000000001,-0.142032,-0.62677,13.600000000000001,-1.504248,-0.6940200000000001,13.4,-1.6656480000000002,-0.07532,13.4,-0.18076799999999998,0.0,13.4,0.0,-0.0,13.4,-0.0,0.00269,13.4,0.006456
9.763880341,-0.03497,13.700000000000001,-0.083928,-0.61332,13.600000000000001,-1.471968,-0.75051,13.4,-1.801224,-0.07263,13.4,-0.174312,0.0,13.4,0.0,-0.0,13.4,-0.0,0.00269,13.4,0.006456
9.796296666,-0.04304,13.700000000000001,-0.103296,-0.59987,13.600000000000001,-1.439688,-0.7747200000000001,13.4,-1.859328,-0.06725,13.4,-0.16140000000000002,0.0,13.4,0.0,-0.0,13.4,-0.0,0.00269,13.4,0.006456
9.829430481,-0.040350000000000004,13.700000000000001,-0.09684000000000001,-0.61332,13.5,-1.471968,-0.74782,13.4,-1.7947680000000001,-0.08339,13.4,-0.200136,0.0,13.4,0.0,-0.0,13.4,-0.0,0.00269,13.4,0.006456
9.863530149,-0.04304,13.700000000000001,-0.103296,-0.65098,13.600000000000001,-1.562352,-0.73975,13.4,-1.7754,-0.05918,13.4,-0.142032,0.0,13.4,0.0,-0.0,13.4,-0.0,0.00269,13.4,0.006456
9.896591027,-0.04304,13.700000000000001,-0.103296,-0.66174,13.600000000000001,-1.588176,-0.83121,13.4,-1.994904,-0.056490000000000005,13.4,-0.135576,0.0,13.4,0.0,-0.0,13.4,-0.0,0.00269,13.4,0.006456
9.930801699,-0.048420000000000005,13.600000000000001,-0.116208,-0.6187,13.5,-1.48488,-0.82852,13.4,-1.988448,-0.07532,13.4,-0.18076799999999998,0.0,13.4,0.0,-0.0,13.4,-0.0,0.00269,13.4,0.006456
9.96324095,-0.04304,13.600000000000001,-0.103296,-0.5756600000000001,13.5,-1.3815840000000001,-0.82314,13.5,-1.975536,-0.06187,13.4,-0.148488,0.0,13.4,0.0,-0.0,13.4,-0.0,0.00269,13.4,0.006456
9.996569653,-0.056490000000000005,13.600000000000001,-0.135576,-0.6456000000000001,13.5,-1.5494400000000002,-0.8258300000000001,13.4,-1.981992,-0.06994,13.4,-0.167856,0.0,13.4,0.0,-0.0,13.4,-0.0,0.00269,13.4,0.006456
10.030342159,-0.0538,13.600000000000001,-0.12911999999999998,-0.62139,13.5,-1.491336,-0.83121,13.5,-1.994904,-0.08877,13.4,-0.213048,0.0,13.4,0.0,-0.0,13.4,-0.0,0.00269,13.4,0.006456
10.06321946,-0.03497,13.600000000000001,-0.083928,-0.6187,13.5,-1.48488,-0.83121,13.5,-1.994904,-0.08070000000000001,13.4,-0.19368000000000002,0.0,13.4,0.0,-0.0,13.4,-0.0,0.00269,13.4,0.006456
10.096370952,-0.04304,13.600000000000001,-0.103296,-0.62139,13.5,-1.491336,-0.82852,13.5,-1.988448,-0.08070000000000001,13.4,-0.19368000000000002,0.0,13.4,0.0,-0.0,13.4,-0.0,0.00269,13.4,0.006456
10.130188148,-0.04304,13.600000000000001,-0.103296,-0.61063,13.5,-1.465512,-0.82852,13.4,-1.988448,-0.08339,13.4,-0.200136,0.0,13.4,0.0,-0.0,13.4,-0.0,0.00269,13.4,0.006456
10.163345946,-0.03497,13.600000000000001,-0.083928,-0.6187,13.5,-1.48488,-0.8339000000000001,13.4,-2.00136,-0.08070000000000001,13.4,-0.19368000000000002,0.0,13.4,0.0,-0.0,13.4,-0.0,0.00269,13.4,0.006456
10.196869074,-0.04573,13.600000000000001,-0.109752,-0.6187,13.5,-1.48488,-0.8339000000000001,13.5,-2.00136,-0.08877,13.4,-0.213048,0.0,13.4,0.0,-0.0,13.4,-0.0,0.00269,13.4,0.006456
10.229990023,-0.040350000000000004,13.600000000000001,-0.09684000000000001,-0.62139,13.5,-1.491336,-0.8365900000000001,13.3,-2.007816,-0.08339,13.4,-0.200136,0.0,13.4,0.0,-0.0,13.4,-0.0,0.00269,13.4,0.006456
10.262956152,-0.03766,13.600000000000001,-0.09038399999999999,-0.62139,13.600000000000001,-1.491336,-0.8339000000000001,13.4,-2.00136,-0.08608,13.4,-0.206592,0.0,13.4,0.0,-0.0,13.4,-0.0,-0.0,13.4,-0.0
10.296565446,-0.04573,13.600000000000001,-0.109752,-0.6187,13.5,-1.48488,-0.83121,13.4,-1.994904,-0.08339,13.4,-0.200136,0.0,13.4,0.0,0.00269,13.4,0.006456,-0.0,13.4,-0.0
10.330344501,-0.03497,13.600000000000001,-0.083928,-0.6187,13.5,-1.48488,-0.82852,13.4,-1.988448,-0.08070000000000001,13.4,-0.19368000000000002,0.0,13.4,0.0,0.00269,13.4,0.006456,-0.0,13.4,-0.0
10.363062922,-0.048420000000000005,13.600000000000001,-0.116208,-0.62139,13.4,-1.491336,-0.8365900000000001,13.4,-2.007816,-0.08339,13.4,-0.200136,0.0,13.4,0.0,0.00269,13.4,0.006456,-0.0,13.4,-0.0
10.39600589,-0.04573,13.600000000000001,-0.109752,-0.6187,13.5,-1.48488,-0.8150700000000001,13.4,-1.9561680000000001,-0.08339,13.4,-0.200136,0.0,13.4,0.0,-0.0,13.4,-0.0,0.00269,13.4,0.006456
10.430147112,-0.048420000000000005,13.600000000000001,-0.116208,-0.6187,13.5,-1.48488,-0.82852,13.4,-1.988448,-0.08339,13.4,-0.200136,0.0,13.4,0.0,-0.0,13.4,-0.0,0.00269,13.4,0.006456
10.463377984,-0.03497,13.600000000000001,-0.083928,-0.62139,13.5,-1.491336,-0.8365900000000001,13.4,-2.007816,-0.08339,13.4,-0.200136,0.0,13.4,0.0,-0.0,13.4,-0.0,0.00269,13.4,0.006456
10.496903615,-0.04304,13.600000000000001,-0.103296,-0.62139,13.5,-1.491336,-0.82314,13.4,-1.975536,-0.08339,13.4,-0.200136,0.0,13.4,0.0,-0.0,13.4,-0.0,0.00269,13.4,0.006456
10.53069445,-0.040350000000000004,13.600000000000001,-0.09684000000000001,-0.62139,13.5,-1.491336,-0.82314,13.5,-1.975536,-0.08339,13.4,-0.200136,0.0,13.4,0.0,0.00269,13.4,0.006456,0.00269,13.4,0.006456
10.562967997,-0.03766,13.600000000000001,-0.09038399999999999,-0.62139,13.5,-1.491336,-0.84197,13.4,-2.020728,-0.08339,13.4,-0.200136,0.0,13.4,0.0,-0.0,13.4,-0.0,0.00269,13.4,0.006456
10.596019531,-0.03766,13.600000000000001,-0.09038399999999999,-0.62139,13.5,-1.491336,-0.83121,13.5,-1.994904,-0.08339,13.4,-0.200136,0.0,13.4,0.0,-0.0,13.4,-0.0,0.00269,13.4,0.006456
10.630264175,-0.03766,13.600000000000001,-0.09038399999999999,-0.62139,13.5,-1.491336,-0.8258300000000001,13.4,-1.981992,-0.08339,13.4,-0.200136,0.0,13.4,0.0,-0.0,13.4,-0.0,0.00269,13.4,0.006456
10.662962901,-0.03497,13.600000000000001,-0.083928,-0.62139,13.5,-1.491336,-0.82314,13.4,-1.975536,-0.08339,13.4,-0.200136,0.0,13.4,0.0,-0.0,13.4,-0.0,-0.0,13.4,-0.0
10.695904468,-0.048420000000000005,13.600000000000001,-0.116208,-0.6160100000000001,13.5,-1.4784240000000002,-0.8258300000000001,13.4,-1.981992,-0.08339,13.4,-0.200136,0.0,13.4,0.0,-0.0,13.4,-0.0,-0.0,13.4,-0.0
10.730063505,-0.04573,13.600000000000001,-0.109752,-0.62139,13.5,-1.491336,-0.83121,13.4,-1.994904,-0.08877,13.4,-0.213048,0.0,13.4,0.0,0.00269,13.4,0.006456,-0.0,13.4,-0.0
10.763304482,-0.040350000000000004,13.600000000000001,-0.09684000000000001,-0.62139,13.5,-1.491336,-0.8365900000000001,13.5,-2.007816,-0.08339,13.4,-0.200136,0.0,13.4,0.0,0.00269,13.4,0.006456,0.00269,13.4,0.006456
10.796867601,-0.03497,13.600000000000001,-0.083928,-0.62139,13.5,-1.491336,-0.8339000000000001,13.4,-2.00136,-0.08608,13.4,-0.206592,0.0,13.4,0.0,0.00269,13.4,0.006456,0.00269,13.4,0.006456
10.829826751,-0.04304,13.600000000000001,-0.103296,-0.62139,13.5,-1.491336,-0.84197,13.4,-2.020728,-0.08339,13.4,-0.200136,0.0,13.4,0.0,0.00269,13.4,0.006456,0.00269,13.4,0.006456
10.862867152,-0.03766,13.600000000000001,-0.09038399999999999,-0.6160100000000001,13.600000000000001,-1.4784240000000002,-0.83121,13.5,-1.994904,-0.08339,13.4,-0.200136,0.0,13.4,0.0,-0.0,13.4,-0.0,0.00269,13.4,0.006456
10.896899635,-0.03766,13.600000000000001,-0.09038399999999999,-0.62139,13.600000000000001,-1.491336,-0.8150700000000001,13.4,-1.9561680000000001,-0.08339,13.4,-0.200136,0.0,13.4,0.0,-0.0,13.4,-0.0,0.00269,13.4,0.006456
10.930094939,-0.03766,13.600000000000001,-0.09038399999999999,-0.6160100000000001,13.5,-1.4784240000000002,-0.82314,13.4,-1.975536,-0.08339,13.4,-0.200136,0.0,13.4,0.0,-0.0,13.4,-0.0,0.00538,13.4,0.012912
10.963334917,-0.05111,13.600000000000001,-0.122664,-0.62139,13.600000000000001,-1.491336,-0.8365900000000001,13.5,-2.007816,-0.08339,13.4,-0.200136,0.0,13.4,0.0,-0.0,13.4,-0.0,0.00538,13.4,0.012912
10.996877143,-0.04304,13.600000000000001,-0.103296,-0.6240800000000001,13.5,-1.4977920000000002,-0.8339000000000001,13.4,-2.00136,-0.08339,13.4,-0.200136,0.0,13.4,0.0,0.00269,13.4,0.006456,0.00538,13.4,0.012912
11.030218638,-0.0538,13.600000000000001,-0.12911999999999998,-0.62139,13.4,-1.491336,-0.82314,13.4,-1.975536,-0.08339,13.4,-0.200136,0.0,13.4,0.0,0.00269,13.4,0.006456,0.00538,13.4,0.012912
11.062985836,-0.0538,13.600000000000001,-0.12911999999999998,-0.6240800000000001,13.600000000000001,-1.4977920000000002,-0.82852,13.4,-1.988448,-0.08339,13.4,-0.200136,0.0,13.4,0.0,0.00538,13.4,0.012912,0.00538,13.4,0.012912
11.096998319,-0.03766,13.600000000000001,-0.09038399999999999,-0.62139,13.600000000000001,-1.491336,-0.8446600000000001,13.4,-2.027184,-0.08339,13.4,-0.200136,0.0,13.4,0.0,0.00269,13.4,0.006456,0.00538,13.4,0.012912
11.130659093,-0.03497,13.600000000000001,-0.083928,-0.62139,13.600000000000001,-1.491336,-0.8446600000000001,13.4,-2.027184,-0.08339,13.4,-0.200136,0.0,13.4,0.0,0.00269,13.4,0.006456,0.00538,13.4,0.012912
11.162707268,-0.040350000000000004,13.600000000000001,-0.09684000000000001,-0.6240800000000001,13.5,-1.4977920000000002,-0.8365900000000001,13.4,-2.007816,-0.08339,13.4,-0.200136,0.0,13.4,0.0,-0.0,13.4,-0.0,0.00538,13.4,0.012912
11.197021719,-0.05918,13.600000000000001,-0.142032,-0.62139,13.5,-1.491336,-0.82852,13.4,-1.988448,-0.08339,13.4,-0.200136,0.0,13.4,0.0,0.00269,13.4,0.006456,0.00538,13.4,0.012912
11.230204456,-0.040350000000000004,13.600000000000001,-0.09684000000000001,-0.62139,13.600000000000001,-1.491336,-0.8446600000000001,13.5,-2.027184,-0.08339,13.4,-0.200136,0.0,13.4,0.0,0.00269,13.4,0.006456,0.00538,13.4,0.012912
11.264464769,-0.03497,13.600000000000001,-0.083928,-0.62139,13.600000000000001,-1.491336,-0.8339000000000001,13.4,-2.00136,-0.08339,13.4,-0.200136,0.0,13.4,0.0,-0.0,13.4,-0.0,0.00538,13.4,0.012912
11.297661673,-0.05111,13.600000000000001,-0.122664,-0.6240800000000001,13.5,-1.4977920000000002,-0.84197,13.5,-2.020728,-0.08339,13.4,-0.200136,0.0,13.4,0.0,-0.0,13.4,-0.0,0.00538,13.4,0.012912
11.329918646,-0.05918,13.600000000000001,-0.142032,-0.62139,13.600000000000001,-1.491336,-0.83928,13.4,-2.014272,-0.08339,13.4,-0.200136,0.0,13.4,0.0,-0.0,13.4,-0.0,0.00538,13.4,0.012912
11.362582143,-0.040350000000000004,13.600000000000001,-0.09684000000000001,-0.61332,13.4,-1.471968,-0.82852,13.4,-1.988448,-0.08339,13.4,-0.200136,0.0,13.4,0.0,-0.0,13.4,-0.0,0.00538,13.4,0.012912
11.396605968,-0.04573,13.600000000000001,-0.109752,-0.62139,13.5,-1.491336,-0.8339000000000001,13.5,-2.00136,-0.08339,13.4,-0.200136,0.0,13.4,0.0,-0.0,13.4,-0.0,0.00538,13.4,0.012912
11.430029215,-0.03497,13.600000000000001,-0.083928,-0.61332,13.4,-1.471968,-0.83928,13.4,-2.014272,-0.08339,13.4,-0.200136,0.0,13.4,0.0,-0.0,13.4,-0.0,0.00538,13.4,0.012912
11.462657079,-0.03497,13.600000000000001,-0.083928,-0.62139,13.600000000000001,-1.491336,-0.83928,13.4,-2.014272,-0.08339,13.4,-0.200136,0.0,13.4,0.0,-0.0,13.4,-0.0,0.00538,13.4,0.012912
11.497386242,-0.048420000000000005,13.600000000000001,-0.116208,-0.62139,13.600000000000001,-1.491336,-0.82852,13.4,-1.988448,-0.08339,13.4,-0.200136,0.0,13.4,0.0,-0.0,13.4,-0.0,0.00538,13.4,0.012912
11.530524325,-0.03766,13.600000000000001,-0.09038399999999999,-0.62139,13.5,-1.491336,-0.82852,13.4,-1.988448,-0.08339,13.4,-0.200136,0.0,13.4,0.0,-0.0,13.4,-0.0,0.00538,13.4,0.012912
11.562883019,-0.0538,13.600000000000001,-0.12911999999999998,-0.62139,13.5,-1.491336,-0.83121,13.4,-1.994904,-0.08339,13.4,-0.200136,0.0,13.4,0.0,0.00269,13.4,0.006456,-0.0,13.4,-0.0
11.596919577,-0.040350000000000004,13.600000000000001,-0.09684000000000001,-0.6240800000000001,13.5,-1.4977920000000002,-0.8446600000000001,13.5,-2.027184,-0.08339,13.4,-0.200136,0.0,13.4,0.0,-0.0,13.4,-0.0,-0.0,13.4,-0.0
11.629585711,-0.05111,13.600000000000001,-0.122664,-0.6240800000000001,13.5,-1.4977920000000002,-0.8339000000000001,13.4,-2.00136,-0.08339,13.4,-0.200136,0.0,13.4,0.0,-0.0,13.4,-0.0,0.00269,13.4,0.006456
11.664000827,-0.048420000000000005,13.600000000000001,-0.116208,-0.6160100000000001,13.5,-1.4784240000000002,-0.8258300000000001,13.4,-1.981992,-0.08339,13.4,-0.200136,0.0,13.4,0.0,-0.0,13.4,-0.0,0.00269,13.4,0.006456
11.697000557,-0.03497,13.600000000000001,-0.083928,-0.6187,13.5,-1.48488,-0.82314,13.4,-1.975536,-0.08339,13.4,-0.200136,0.0,13.4,0.0,-0.0,13.4,-0.0,0.00269,13.4,0.006456
11.729934729,-0.03766,13.600000000000001,-0.09038399999999999,-0.6240800000000001,13.600000000000001,-1.4977920000000002,-0.82045,13.3,-1.96908,-0.08339,13.4,-0.200136,0.0,13.4,0.0,-0.0,13.4,-0.0,0.00269,13.4,0.006456
11.763487418,-0.03497,13.600000000000001,-0.083928,-0.62139,13.5,-1.491336,-0.82045,13.4,-1.96908,-0.08608,13.4,-0.206592,0.00538,13.4,0.012912,-0.0,13.4,-0.0,0.00269,13.4,0.006456
11.79645603,-0.03497,13.600000000000001,-0.083928,-0.6240800000000001,13.5,-1.4977920000000002,-0.83121,13.4,-1.994904,-0.08339,13.4,-0.200136,0.0,13.4,0.0,-0.0,13.4,-0.0,0.00269,13.4,0.006456
11.829497165,-0.048420000000000005,13.600000000000001,-0.116208,-0.62139,13.5,-1.491336,-0.8365900000000001,13.4,-2.007816,-0.08339,13.4,-0.200136,0.0,13.4,0.0,-0.0,13.4,-0.0,0.00269,13.4,0.006456
11.863746307,-0.03766,13.600000000000001,-0.09038399999999999,-0.6240800000000001,13.600000000000001,-1.4977920000000002,-0.82314,13.4,-1.975536,-0.08339,13.4,-0.200136,0.0,13.4,0.0,-0.0,13.4,-0.0,0.00269,13.4,0.006456
11.896594443,-0.03497,13.600000000000001,-0.083928,-0.6240800000000001,13.5,-1.4977920000000002,-0.8339000000000001,13.4,-2.00136,-0.08339,13.4,-0.200136,0.0,13.4,0.0,0.00269,13.4,0.006456,0.00269,13.4,0.006456
11.929579302,-0.03497,13.600000000000001,-0.083928,-0.62139,13.600000000000001,-1.491336,-0.82852,13.4,-1.988448,-0.08339,13.4,-0.200136,0.0,13.4,0.0,-0.0,13.4,-0.0,0.00269,13.4,0.006456
11.963470931,-0.03766,13.600000000000001,-0.09038399999999999,-0.61332,13.5,-1.471968,-0.8150700000000001,13.4,-1.9561680000000001,-0.08608,13.4,-0.206592,0.0,13.4,0.0,-0.0,13.4,-0.0,0.00269,13.4,0.006456
11.99641467,-0.03497,13.600000000000001,-0.083928,-0.6160100000000001,13.5,-1.4784240000000002,-0.8365900000000001,13.4,-2.007816,-0.08339,13.4,-0.200136,0.0,13.4,0.0,-0.0,13.4,-0.0,0.00269,13.4,0.006456
12.029468318,-0.04573,13.600000000000001,-0.109752,-0.6240800000000001,13.5,-1.4977920000000002,-0.83928,13.4,-2.014272,-0.08339,13.4,-0.200136,0.0,13.4,0.0,-0.0,13.4,-0.0,0.00269,13.4,0.006456
12.063449003,-0.03497,13.600000000000001,-0.083928,-0.61063,13.5,-1.465512,-0.8258300000000001,13.4,-1.981992,-0.08339,13.4,-0.200136,0.0,13.4,0.0,-0.0,13.4,-0.0,0.00269,13.4,0.006456
12.096392405,-0.03497,13.600000000000001,-0.083928,-0.6240800000000001,13.5,-1.4977920000000002,-0.8339000000000001,13.4,-2.00136,-0.08339,13.4,-0.200136,0.0,13.4,0.0,-0.0,13.4,-0.0,0.00269,13.4,0.006456
12.129605966,-0.04304,13.600000000000001,-0.103296,-0.62139,13.5,-1.491336,-0.8150700000000001,13.4,-1.9561680000000001,-0.08339,13.4,-0.200136,0.0,13.4,0.0,-0.0,13.4,-0.0,0.00269,13.4,0.006456
12.163458352,-0.03497,13.600000000000001,-0.083928,-0.62139,13.4,-1.491336,-0.82852,13.4,-1.988448,-0.08339,13.4,-0.200136,0.0,13.4,0.0,-0.0,13.4,-0.0,0.00269,13.4,0.006456
12.196252346,-0.03497,13.600000000000001,-0.083928,-0.62139,13.5,-1.491336,-0.82045,13.4,-1.96908,-0.08339,13.4,-0.200136,0.0,13.4,0.0,-0.0,13.4,-0.0,0.00269,13.4,0.006456
12.230605858,-0.040350000000000004,13.600000000000001,-0.09684000000000001,-0.6240800000000001,13.5,-1.4977920000000002,-0.8258300000000001,13.3,-1.981992,-0.08339,13.4,-0.200136,0.0,13.4,0.0,-0.0,13.4,-0.0,0.00269,13.4,0.006456
12.263350717,-0.048420000000000005,13.600000000000001,-0.116208,-0.62139,13.5,-1.491336,-0.8258300000000001,13.4,-1.981992,-0.08339,13.4,-0.200136,0.0,13.4,0.0,-0.0,13.4,-0.0,0.00269,13.4,0.006456
12.296743347,-0.03766,13.600000000000001,-0.09038399999999999,-0.6240800000000001,13.5,-1.4977920000000002,-0.8339000000000001,13.5,-2.00136,-0.08339,13.4,-0.200136,0.0,13.4,0.0,0.00269,13.4,0.006456,0.00269,13.4,0.006456
12.330365996,-0.03766,13.600000000000001,-0.09038399999999999,-0.61332,13.5,-1.471968,-0.8365900000000001,13.5,-2.007816,-0.08339,13.4,-0.200136,0.0,13.4,0.0,-0.0,13.4,-0.0,0.00269,13.4,0.006456
12.364243767,-0.04573,13.600000000000001,-0.109752,-0.6240800000000001,13.600000000000001,-1.4977920000000002,-0.81776,13.4,-1.962624,-0.08339,13.4,-0.200136,0.0,13.4,0.0,-0.0,13.4,-0.0,0.00269,13.4,0.006456
12.396916661,-0.048420000000000005,13.600000000000001,-0.116208,-0.62139,13.5,-1.491336,-0.83121,13.4,-1.994904,-0.08339,13.4,-0.200136,0.0,13.4,0.0,-0.0,13.4,-0.0,0.00269,13.4,0.006456
12.430306153,-0.03497,13.600000000000001,-0.083928,-0.6240800000000001,13.600000000000001,-1.4977920000000002,-0.82314,13.5,-1.975536,-0.08339,13.4,-0.200136,0.0,13.4,0.0,0.00269,13.4,0.006456,0.00269,13.4,0.006456
12.464223321,-0.03497,13.600000000000001,-0.083928,-0.62139,13.600000000000001,-1.491336,-0.8365900000000001,13.4,-2.007816,-0.08339,13.4,-0.200136,0.0,13.4,0.0,-0.0,13.4,-0.0,0.00269,13.4,0.006456
12.49726152,-0.04573,13.600000000000001,-0.109752,-0.62139,13.600000000000001,-1.491336,-0.82045,13.4,-1.96908,-0.08339,13.4,-0.200136,0.0,13.4,0.0,-0.0,13.4,-0.0,0.00269,13.4,0.006456
12.531176273,-0.04573,13.600000000000001,-0.109752,-0.62139,13.5,-1.491336,-0.8258300000000001,13.4,-1.981992,-0.08339,13.4,-0.200136,0.0,13.4,0.0,-0.0,13.4,-0.0,0.00269,13.4,0.006456
12.56352983,-0.040350000000000004,13.600000000000001,-0.09684000000000001,-0.6240800000000001,13.5,-1.4977920000000002,-0.83121,13.4,-1.994904,-0.08339,13.4,-0.200136,0.0,13.4,0.0,-0.0,13.4,-0.0,0.00269,13.4,0.006456
12.596156484,-0.03766,13.600000000000001,-0.09038399999999999,-0.62139,13.5,-1.491336,-0.82045,13.4,-1.96908,-0.08339,13.4,-0.200136,0.0,13.4,0.0,-0.0,13.4,-0.0,0.00269,13.4,0.006456
12.630143503,-0.03497,13.600000000000001,-0.083928,-0.6160100000000001,13.600000000000001,-1.4784240000000002,-0.8339000000000001,13.5,-2.00136,-0.08339,13.4,-0.200136,0.0,13.4,0.0,-0.0,13.4,-0.0,0.00269,13.4,0.006456
12.664176676,-0.03497,13.600000000000001,-0.083928,-0.62139,13.5,-1.491336,-0.82314,13.3,-1.975536,-0.08339,13.4,-0.200136,0.0,13.4,0.0,-0.0,13.4,-0.0,0.00269,13.4,0.006456
12.697122586,-0.04304,13.600000000000001,-0.103296,-0.6187,13.5,-1.48488,-0.8365900000000001,13.4,-2.007816,-0.08339,13.4,-0.200136,0.0,13.4,0.0,-0.0,13.4,-0.0,0.00269,13.4,0.006456
12.730912134,-0.04573,13.600000000000001,-0.109752,-0.61332,13.600000000000001,-1.471968,-0.82314,13.3,-1.975536,-0.08070000000000001,13.4,-0.19368000000000002,0.0,13.4,0.0,-0.0,13.4,-0.0,0.00269,13.4,0.006456
12.7656261,-0.04573,13.600000000000001,-0.109752,-0.6240800000000001,13.600000000000001,-1.4977920000000002,-0.82045,13.4,-1.96908,-0.08339,13.4,-0.200136,0.0,13.4,0.0,-0.0,13.4,-0.0,0.00269,13.4,0.006456
12.796417145,-0.03766,13.600000000000001,-0.09038399999999999,-0.6240800000000001,13.5,-1.4977920000000002,-0.83121,13.4,-1.994904,-0.08070000000000001,13.4,-0.19368000000000002,0.0,13.4,0.0,0.00269,13.4,0.006456,0.00269,13.4,0.006456
12.831033188,-0.03497,13.600000000000001,-0.083928,-0.62139,13.5,-1.491336,-0.8258300000000001,13.4,-1.981992,-0.08070000000000001,13.4,-0.19368000000000002,0.0,13.4,0.0,0.00269,13.4,0.006456,0.00269,13.4,0.006456
12.863016373,-0.05111,13.600000000000001,-0.122664,-0.6240800000000001,13.5,-1.4977920000000002,-0.8258300000000001,13.4,-1.981992,-0.08070000000000001,13.4,-0.19368000000000002,0.0,13.4,0.0,-0.0,13.4,-0.0,0.00269,13.4,0.006456
12.896410143,-0.04573,13.600000000000001,-0.109752,-0.62139,13.5,-1.491336,-0.82045,13.5,-1.96908,-0.08877,13.4,-0.213048,0.0,13.4,0.0,0.00269,13.4,0.006456,0.00269,13.4,0.006456
12.930733411,-0.04304,13.600000000000001,-0.103296,-0.6240800000000001,13.5,-1.4977920000000002,-0.82852,13.4,-1.988448,-0.08339,13.4,-0.200136,0.0,13.4,0.0,-0.0,13.4,-0.0,0.00269,13.4,0.006456
12.965184209,-0.03497,13.600000000000001,-0.083928,-0.62139,13.600000000000001,-1.491336,-0.82045,13.5,-1.96908,-0.08339,13.4,-0.200136,0.0,13.4,0.0,-0.0,13.4,-0.0,0.00269,13.4,0.006456
12.996296935,-0.03228,13.600000000000001,-0.077472,-0.61063,13.600000000000001,-1.465512,-0.8150700000000001,13.4,-1.9561680000000001,-0.08339,13.4,-0.200136,0.0,13.4,0.0,-0.0,13.4,-0.0,0.00269,13.4,0.006456
13.030428421,-0.05111,13.600000000000001,-0.122664,-0.62139,13.600000000000001,-1.491336,-0.82852,13.4,-1.988448,-0.08339,13.4,-0.200136,0.0,13.4,0.0,-0.0,13.4,-0.0,0.00269,13.4,0.006456
13.063326437,-0.03497,13.600000000000001,-0.083928,-0.61332,13.600000000000001,-1.471968,-0.8365900000000001,13.4,-2.007816,-0.08339,13.4,-0.200136,0.0,13.4,0.0,-0.0,13.4,-0.0,0.00269,13.4,0.006456
13.096299266,-0.03497,13.600000000000001,-0.083928,-0.62139,13.5,-1.491336,-0.83928,13.5,-2.014272,-0.08339,13.4,-0.200136,0.0,13.4,0.0,-0.0,13.4,-0.0,0.00269,13.4,0.006456
13.130457438,-0.03497,13.600000000000001,-0.083928,-0.62139,13.5,-1.491336,-0.8150700000000001,13.4,-1.9561680000000001,-0.08339,13.4,-0.200136,0.0,13.4,0.0,-0.0,13.4,-0.0,0.00269,13.4,0.006456
13.16324236,-0.03228,13.600000000000001,-0.077472,-0.6240800000000001,13.5,-1.4977920000000002,-0.82314,13.4,-1.975536,-0.08339,13.4,-0.200136,0.0,13.4,0.0,-0.0,13.4,-0.0,0.00269,13.4,0.006456
13.197736243,-0.03766,13.600000000000001,-0.09038399999999999,-0.6187,13.600000000000001,-1.48488,-0.82852,13.4,-1.988448,-0.08877,13.4,-0.213048,0.0,13.4,0.0,-0.0,13.4,-0.0,0.00269,13.4,0.006456
13.2305048,-0.03497,13.600000000000001,-0.083928,-0.62139,13.5,-1.491336,-0.81776,13.3,-1.962624,-0.08339,13.4,-0.200136,0.0,13.4,0.0,-0.0,13.4,-0.0,0.00269,13.4,0.006456
13.263089212,-0.040350000000000004,13.600000000000001,-0.09684000000000001,-0.62139,13.5,-1.491336,-0.8365900000000001,13.4,-2.007816,-0.08339,13.4,-0.200136,0.0,13.4,0.0,-0.0,13.4,-0.0,0.00269,13.4,0.006456
13.297214451,-0.03497,13.600000000000001,-0.083928,-0.62139,13.5,-1.491336,-0.8150700000000001,13.5,-1.9561680000000001,-0.08339,13.4,-0.200136,0.0,13.4,0.0,-0.0,13.4,-0.0,0.00269,13.4,0.006456
13.33021644,-0.048420000000000005,13.600000000000001,-0.116208,-0.6240800000000001,13.5,-1.4977920000000002,-0.8258300000000001,13.4,-1.981992,-0.08339,13.4,-0.200136,0.0,13.4,0.0,-0.0,13.4,-0.0,0.00269,13.4,0.006456
13.363938525,-0.03228,13.600000000000001,-0.077472,-0.6240800000000001,13.4,-1.4977920000000002,-0.8339000000000001,13.4,-2.00136,-0.08339,13.4,-0.200136,0.0,13.4,0.0,0.01076,13.4,0.025824,0.00269,13.4,0.006456
13.397801464,-0.040350000000000004,13.600000000000001,-0.09684000000000001,-0.6240800000000001,13.5,-1.4977920000000002,-0.8365900000000001,13.4,-2.007816,-0.08070000000000001,13.4,-0.19368000000000002,0.0,13.4,0.0,0.00269,13.4,0.006456,0.00269,13.4,0.006456
13.430362646,-0.03497,13.600000000000001,-0.083928,-0.61332,13.5,-1.471968,-0.8365900000000001,13.5,-2.007816,-0.08070000000000001,13.4,-0.19368000000000002,0.00538,13.4,0.012912,0.00269,13.4,0.006456,0.00269,13.4,0.006456
13.463336469,-0.03497,13.600000000000001,-0.083928,-0.6240800000000001,13.5,-1.4977920000000002,-0.8339000000000001,13.4,-2.00136,-0.08339,13.4,-0.200136,0.0,13.4,0.0,0.00269,13.4,0.006456,0.00269,13.4,0.006456
13.49740188,-0.03497,13.600000000000001,-0.083928,-0.6240800000000001,13.5,-1.4977920000000002,-0.82045,13.4,-1.96908,-0.08339,13.4,-0.200136,0.0,13.4,0.0,0.00269,13.4,0.006456,0.00269,13.4,0.006456
13.530437617,-0.03497,13.600000000000001,-0.083928,-0.6240800000000001,13.600000000000001,-1.4977920000000002,-0.82045,13.3,-1.96908,-0.08339,13.4,-0.200136,0.0,13.4,0.0,0.00269,13.4,0.006456,0.00269,13.4,0.006456
13.563674317,-0.03766,13.600000000000001,-0.09038399999999999,-0.6240800000000001,13.600000000000001,-1.4977920000000002,-0.82314,13.4,-1.975536,-0.08339,13.4,-0.200136,0.0,13.4,0.0,0.00269,13.4,0.006456,0.00269,13.4,0.006456
13.597750795,-0.03497,13.600000000000001,-0.083928,-0.62139,13.5,-1.491336,-0.82852,13.4,-1.988448,-0.08339,13.4,-0.200136,0.0,13.4,0.0,0.00269,13.4,0.006456,0.00269,13.4,0.006456
13.630643725,-0.040350000000000004,13.600000000000001,-0.09684000000000001,-0.6240800000000001,13.5,-1.4977920000000002,-0.8365900000000001,13.4,-2.007816,-0.08339,13.4,-0.200136,0.0,13.4,0.0,0.00269,13.4,0.006456,0.00269,13.4,0.006456
13.663457886,-0.03497,13.600000000000001,-0.083928,-0.6187,13.600000000000001,-1.48488,-0.82314,13.4,-1.975536,-0.08339,13.4,-0.200136,0.0,13.4,0.0,0.00269,13.4,0.006456,0.00269,13.4,0.006456
13.697396989,-0.04573,13.600000000000001,-0.109752,-0.62139,13.5,-1.491336,-0.83121,13.4,-1.994904,-0.08339,13.4,-0.200136,0.0,13.4,0.0,0.00269,13.4,0.006456,0.00269,13.4,0.006456
13.729978033,-0.05111,13.600000000000001,-0.122664,-0.6240800000000001,13.5,-1.4977920000000002,-0.81238,13.4,-1.949712,-0.08339,13.4,-0.200136,0.0,13.4,0.0,0.00269,13.4,0.006456,0.00269,13.4,0.006456
13.763088586,-0.03497,13.600000000000001,-0.083928,-0.62139,13.5,-1.491336,-0.82314,13.4,-1.975536,-0.08339,13.4,-0.200136,0.0,13.4,0.0,0.00269,13.4,0.006456,0.00269,13.4,0.006456
13.797034882,-0.048420000000000005,13.600000000000001,-0.116208,-0.6240800000000001,13.5,-1.4977920000000002,-0.82852,13.4,-1.988448,-0.08339,13.4,-0.200136,0.0,13.4,0.0,0.00269,13.4,0.006456,0.00269,13.4,0.006456
13.830844538,-0.03497,13.600000000000001,-0.083928,-0.62139,13.5,-1.491336,-0.8365900000000001,13.4,-2.007816,-0.09146,13.4,-0.219504,0.0,13.4,0.0,0.00269,13.4,0.006456,0.00269,13.4,0.006456
13.863261437,-0.040350000000000004,13.600000000000001,-0.09684000000000001,-0.62139,13.5,-1.491336,-0.84197,13.3,-2.020728,-0.08339,13.4,-0.200136,0.0,13.4,0.0,0.00269,13.4,0.006456,0.00269,13.4,0.006456
13.89762282,-0.04304,13.600000000000001,-0.103296,-0.62139,13.5,-1.491336,-0.82045,13.4,-1.96908,-0.08339,13.4,-0.200136,0.0,13.4,0.0,0.00269,13.4,0.006456,0.00269,13.4,0.006456
13.930319344,-0.04573,13.600000000000001,-0.109752,-0.6240800000000001,13.5,-1.4977920000000002,-0.8150700000000001,13.3,-1.9561680000000001,-0.08339,13.4,-0.200136,0.0,13.4,0.0,0.00269,13.4,0.006456,0.00269,13.4,0.006456
13.962956045,-0.03497,13.600000000000001,-0.083928,-0.6187,13.600000000000001,-1.48488,-0.8339000000000001,13.4,-2.00136,-0.08339,13.4,-0.200136,0.0,13.4,0.0,0.00269,13.4,0.006456,0.00269,13.4,0.006456
13.996778788,-0.03497,13.600000000000001,-0.083928,-0.6240800000000001,13.600000000000001,-1.4977920000000002,-0.8365900000000001,13.4,-2.007816,-0.08339,13.4,-0.200136,0.0,13.4,0.0,0.00269,13.4,0.006456,0.00269,13.4,0.006456
14.029611634,-0.040350000000000004,13.700000000000001,-0.09684000000000001,-0.6240800000000001,13.600000000000001,-1.4977920000000002,-0.82314,13.4,-1.975536,-0.08339,13.4,-0.200136,0.0,13.4,0.0,0.00269,13.4,0.006456,-0.0,13.4,-0.0
14.06253566,-0.040350000000000004,13.700000000000001,-0.09684000000000001,-0.62139,13.600000000000001,-1.491336,-0.8258300000000001,13.4,-1.981992,-0.08339,13.4,-0.200136,0.0,13.4,0.0,-0.0,13.4,-0.0,-0.0,13.4,-0.0
14.097230303,-0.03766,13.600000000000001,-0.09038399999999999,-0.6240800000000001,13.5,-1.4977920000000002,-0.83928,13.5,-2.014272,-0.08339,13.4,-0.200136,0.0,13.4,0.0,-0.0,13.4,-0.0,-0.0,13.4,-0.0
14.130698211,-0.04304,13.600000000000001,-0.103296,-0.62139,13.5,-1.491336,-0.8258300000000001,13.4,-1.981992,-0.08339,13.4,-0.200136,0.0,13.4,0.0,-0.0,13.4,-0.0,-0.0,13.4,-0.0
14.16477462,-0.03497,13.600000000000001,-0.083928,-0.62139,13.5,-1.491336,-0.8150700000000001,13.4,-1.9561680000000001,-0.08339,13.4,-0.200136,0.0,13.4,0.0,-0.0,13.4,-0.0,-0.0,13.4,-0.0
14.196741307,-0.03766,13.600000000000001,-0.09038399999999999,-0.62139,13.600000000000001,-1.491336,-0.83121,13.5,-1.994904,-0.08339,13.4,-0.200136,0.0,13.4,0.0,-0.0,13.4,-0.0,-0.0,13.4,-0.0
14.22980265,-0.03228,13.600000000000001,-0.077472,-0.62139,13.5,-1.491336,-0.82852,13.4,-1.988448,-0.08339,13.4,-0.200136,0.0,13.4,0.0,-0.0,13.4,-0.0,-0.0,13.4,-0.0
14.263569999,-0.040350000000000004,13.600000000000001,-0.09684000000000001,-0.6240800000000001,13.5,-1.4977920000000002,-0.8258300000000001,13.4,-1.981992,-0.08339,13.4,-0.200136,0.0,13.4,0.0,-0.0,13.4,-0.0,-0.0,13.4,-0.0
14.296707428,-0.03766,13.600000000000001,-0.09038399999999999,-0.6240800000000001,13.600000000000001,-1.4977920000000002,-0.85004,13.3,-2.040096,-0.08339,13.4,-0.200136,0.0,13.4,0.0,-0.0,13.4,-0.0,-0.0,13.4,-0.0
14.329551774,-0.03228,13.600000000000001,-0.077472,-0.62139,13.5,-1.491336,-0.82852,13.4,-1.988448,-0.08339,13.4,-0.200136,0.0,13.4,0.0,-0.0,13.4,-0.0,-0.0,13.4,-0.0
14.363637486,-0.040350000000000004,13.600000000000001,-0.09684000000000001,-0.6240800000000001,13.4,-1.4977920000000002,-0.8339000000000001,13.5,-2.00136,-0.08339,13.4,-0.200136,0.0,13.4,0.0,-0.0,13.4,-0.0,-0.0,13.4,-0.0
14.396503424,-0.03228,13.600000000000001,-0.077472,-0.6240800000000001,13.5,-1.4977920000000002,-0.83928,13.4,-2.014272,-0.08339,13.4,-0.200136,0.0,13.4,0.0,-0.0,13.4,-0.0,-0.0,13.4,-0.0
14.429301008,-0.03497,13.600000000000001,-0.083928,-0.61332,13.5,-1.471968,-0.83928,13.5,-2.014272,-0.08339,13.4,-0.200136,0.0,13.4,0.0,-0.0,13.4,-0.0,0.00269,13.4,0.006456
14.463383479,-0.03497,13.600000000000001,-0.083928,-0.62139,13.5,-1.491336,-0.83121,13.4,-1.994904,-0.08339,13.4,-0.200136,0.0,13.4,0.0,-0.0,13.4,-0.0,0.00269,13.4,0.006456
14.496580074,-0.03228,13.600000000000001,-0.077472,-0.6160100000000001,13.5,-1.4784240000000002,-0.82314,13.4,-1.975536,-0.08339,13.4,-0.200136,0.0,13.4,0.0,-0.0,13.4,-0.0,0.00269,13.4,0.006456
14.530071145,-0.048420000000000005,13.600000000000001,-0.116208,-0.61332,13.5,-1.471968,-0.82045,13.5,-1.96908,-0.08339,13.4,-0.200136,0.0,13.4,0.0,-0.0,13.4,-0.0,0.00269,13.4,0.006456
14.563754177,-0.03497,13.600000000000001,-0.083928,-0.6240800000000001,13.600000000000001,-1.4977920000000002,-0.8339000000000001,13.4,-2.00136,-0.08339,13.4,-0.200136,0.0,13.4,0.0,-0.0,13.4,-0.0,-0.0,13.4,-0.0
14.596532139,-0.03228,13.600000000000001,-0.077472,-0.59987,13.5,-1.439688,-0.81776,13.5,-1.962624,-0.08339,13.4,-0.200136,0.0,13.4,0.0,-0.0,13.4,-0.0,-0.0,13.4,-0.0
14.629718435,-0.040350000000000004,13.600000000000001,-0.09684000000000001,-0.62139,13.5,-1.491336,-0.83121,13.4,-1.994904,-0.08339,13.4,-0.200136,0.0,13.4,0.0,0.00538,13.4,0.012912,-0.0,13.4,-0.0
14.663955818,-0.040350000000000004,13.600000000000001,-0.09684000000000001,-0.62139,13.5,-1.491336,-0.8258300000000001,13.4,-1.981992,-0.08339,13.4,-0.200136,0.0,13.4,0.0,0.00269,13.4,0.006456,-0.0,13.4,-0.0
14.697002857,-0.03497,13.600000000000001,-0.083928,-0.6240800000000001,13.5,-1.4977920000000002,-0.82045,13.4,-1.96908,-0.08339,13.4,-0.200136,0.0,13.4,0.0,-0.0,13.4,-0.0,-0.0,13.4,-0.0
14.729530921,-0.03766,13.600000000000001,-0.09038399999999999,-0.6240800000000001,13.600000000000001,-1.4977920000000002,-0.81776,13.5,-1.962624,-0.08339,13.4,-0.200136,0.0,13.4,0.0,-0.0,13.4,-0.0,-0.0,13.4,-0.0
14.763747226,-0.04304,13.600000000000001,-0.103296,-0.6240800000000001,13.600000000000001,-1.4977920000000002,-0.8150700000000001,13.4,-1.9561680000000001,-0.08339,13.4,-0.200136,0.0,13.4,0.0,-0.0,13.4,-0.0,-0.0,13.4,-0.0
14.796884476,-0.03766,13.600000000000001,-0.09038399999999999,-0.6187,13.5,-1.48488,-0.8258300000000001,13.4,-1.981992,-0.08339,13.4,-0.200136,0.0,13.4,0.0,-0.0,13.4,-0.0,-0.0,13.4,-0.0
14.8298108,-0.03497,13.600000000000001,-0.083928,-0.61332,13.5,-1.471968,-0.82314,13.4,-1.975536,-0.08339,13.4,-0.200136,0.0,13.4,0.0,-0.0,13.4,-0.0,-0.0,13.4,-0.0
14.863308814,-0.04304,13.600000000000001,-0.103296,-0.62139,13.4,-1.491336,-0.8150700000000001,13.4,-1.9561680000000001,-0.08339,13.4,-0.200136,0.0,13.4,0.0,-0.0,13.4,-0.0,-0.0,13.4,-0.0
14.897237908,-0.03497,13.600000000000001,-0.083928,-0.62139,13.5,-1.491336,-0.82852,13.4,-1.988448,-0.08339,13.4,-0.200136,0.0,13.4,0.0,-0.0,13.4,-0.0,0.00269,13.4,0.006456
14.930474563,-0.03228,13.600000000000001,-0.077472,-0.6240800000000001,13.600000000000001,-1.4977920000000002,-0.8339000000000001,13.4,-2.00136,-0.08339,13.4,-0.200136,0.0,13.4,0.0,-0.0,13.4,-0.0,0.00269,13.4,0.006456
14.963329314,-0.040350000000000004,13.600000000000001,-0.09684000000000001,-0.6187,13.600000000000001,-1.48488,-0.82852,13.4,-1.988448,-0.08339,13.4,-0.200136,0.0,13.4,0.0,-0.0,13.4,-0.0,0.00269,13.4,0.006456
14.997207823,-0.048420000000000005,13.600000000000001,-0.116208,-0.6240800000000001,13.5,-1.4977920000000002,-0.82045,13.4,-1.96908,-0.08339,13.4,-0.200136,0.0,13.4,0.0,-0.0,13.4,-0.0,0.00269,13.4,0.006456
15.030419637,-0.04304,13.600000000000001,-0.103296,-0.62139,13.5,-1.491336,-0.8365900000000001,13.5,-2.007816,-0.08339,13.4,-0.200136,0.0,13.4,0.0,-0.0,13.4,-0.0,0.00269,13.4,0.006456
15.063087304,-0.03497,13.600000000000001,-0.083928,-0.6240800000000001,13.600000000000001,-1.4977920000000002,-0.82045,13.5,-1.96908,-0.08339,13.4,-0.200136,0.0,13.4,0.0,-0.0,13.4,-0.0,0.00269,13.4,0.006456
15.096106719,-0.03228,13.600000000000001,-0.077472,-0.62139,13.5,-1.491336,-0.8258300000000001,13.5,-1.981992,-0.08339,13.4,-0.200136,0.0,13.4,0.0,-0.0,13.4,-0.0,0.00269,13.4,0.006456
15.13038362,-0.05111,13.600000000000001,-0.122664,-0.6187,13.5,-1.48488,-0.83121,13.4,-1.994904,-0.08339,13.4,-0.200136,0.0,13.4,0.0,-0.0,13.4,-0.0,0.00269,13.4,0.006456
15.16306356,-0.04573,13.600000000000001,-0.109752,-0.62139,13.5,-1.491336,-0.82852,13.4,-1.988448,-0.08339,13.4,-0.200136,0.0,13.4,0.0,-0.0,13.4,-0.0,0.00269,13.4,0.006456
15.196096277,-0.040350000000000004,13.600000000000001,-0.09684000000000001,-0.6240800000000001,13.5,-1.4977920000000002,-0.82314,13.4,-1.975536,-0.08339,13.4,-0.200136,0.0,13.4,0.0,-0.0,13.4,-0.0,-0.0,13.4,-0.0
15.230540811,-0.04573,13.600000000000001,-0.109752,-0.6160100000000001,13.5,-1.4784240000000002,-0.8150700000000001,13.4,-1.9561680000000001,-0.08339,13.4,-0.200136,0.0,13.4,0.0,-0.0,13.4,-0.0,-0.0,13.4,-0.0
15.264434284,-0.03497,13.600000000000001,-0.083928,-0.6187,13.5,-1.48488,-0.84197,13.5,-2.020728,-0.08070000000000001,13.4,-0.19368000000000002,0.0,13.4,0.0,-0.0,13.4,-0.0,-0.0,13.4,-0.0
15.296491463,-0.03228,13.600000000000001,-0.077472,-0.6187,13.5,-1.48488,-0.82852,13.3,-1.988448,-0.08070000000000001,13.4,-0.19368000000000002,0.0,13.4,0.0,-0.0,13.4,-0.0,-0.0,13.4,-0.0
15.330324775,-0.03497,13.600000000000001,-0.083928,-0.6240800000000001,13.5,-1.4977920000000002,-0.83121,13.4,-1.994904,-0.08339,13.4,-0.200136,0.0,13.4,0.0,-0.0,13.4,-0.0,-0.0,13.4,-0.0
15.363104669,-0.048420000000000005,13.600000000000001,-0.116208,-0.6240800000000001,13.5,-1.4977920000000002,-0.8339000000000001,13.4,-2.00136,-0.08070000000000001,13.4,-0.19368000000000002,0.0,13.4,0.0,-0.0,13.4,-0.0,-0.0,13.4,-0.0
15.396117442,-0.03497,13.600000000000001,-0.083928,-0.62139,13.5,-1.491336,-0.83928,13.4,-2.014272,-0.08070000000000001,13.4,-0.19368000000000002,0.0,13.4,0.0,-0.0,13.4,-0.0,-0.0,13.4,-0.0
15.430590226,-0.03766,13.600000000000001,-0.09038399999999999,-0.6240800000000001,13.5,-1.4977920000000002,-0.8150700000000001,13.4,-1.9561680000000001,-0.09146,13.4,-0.219504,0.0,13.4,0.0,-0.0,13.4,-0.0,-0.0,13.4,-0.0
15.463350072,-0.03766,13.600000000000001,-0.09038399999999999,-0.6240800000000001,13.5,-1.4977920000000002,-0.84197,13.4,-2.020728,-0.08339,13.4,-0.200136,0.0,13.4,0.0,-0.0,13.4,-0.0,0.00269,13.4,0.006456
15.496919648,-0.03497,13.600000000000001,-0.083928,-0.62139,13.5,-1.491336,-0.83121,13.4,-1.994904,-0.08339,13.4,-0.200136,0.0,13.4,0.0,-0.0,13.4,-0.0,0.00269,13.4,0.006456
