RoboFEI-Work/manip_ws/pick_telemetry/pick_telemetry_20260626_152906.csv
time,manip_joint1/current,manip_joint1/voltage,manip_joint1/effort,manip_joint2/current,manip_joint2/voltage,manip_joint2/effort,manip_joint3/current,manip_joint3/voltage,manip_joint3/effort,manip_joint4/current,manip_joint4/voltage,manip_joint4/effort,manip_joint5/current,manip_joint5/voltage,manip_joint5/effort,manip_joint6/current,manip_joint6/voltage,manip_joint6/effort,manip_joint7/current,manip_joint7/voltage,manip_joint7/effort
0.001230018,-0.19637000000000002,13.600000000000001,-0.47128800000000004,-0.7801,13.5,-1.87224,-0.68326,13.4,-1.639824,-0.00538,13.4,-0.012912,0.02152,13.3,0.051648,-0.0,13.3,-0.0,-0.0,13.3,-0.0
0.001506091,-0.19637000000000002,13.600000000000001,-0.47128800000000004,-0.76665,13.4,-1.83996,-0.67788,13.4,-1.6269120000000001,-0.01076,13.4,-0.025824,0.01076,13.3,0.025824,-0.0,13.3,-0.0,-0.0,13.3,-0.0
0.001694893,-0.20444,13.600000000000001,-0.490656,-0.7747200000000001,13.5,-1.859328,-0.6725,13.4,-1.6139999999999999,-0.00538,13.4,-0.012912,0.01345,13.3,0.032279999999999996,-0.0,13.3,-0.0,-0.0,13.3,-0.0
0.001871298,-0.18292,13.600000000000001,-0.439008,-0.7801,13.5,-1.87224,-0.69133,13.4,-1.659192,-0.01076,13.4,-0.025824,0.01883,13.3,0.045191999999999996,-0.0,13.3,-0.0,-0.0,13.3,-0.0
0.002043699,-0.1883,13.600000000000001,-0.45192,-0.7639600000000001,13.5,-1.833504,-0.66981,13.4,-1.607544,-0.00807,13.4,-0.019368,0.02152,13.3,0.051648,-0.0,13.3,-0.0,-0.0,13.3,-0.0
0.002236409,-0.18561,13.600000000000001,-0.44546399999999997,-0.7801,13.4,-1.87224,-0.6859500000000001,13.3,-1.6462800000000002,-0.01345,13.4,-0.032279999999999996,0.01076,13.3,0.025824,-0.0,13.3,-0.0,-0.0,13.3,-0.0
0.002406095,-0.1883,13.600000000000001,-0.45192,-0.77741,13.5,-1.865784,-0.6994,13.4,-1.67856,-0.00807,13.4,-0.019368,0.01345,13.3,0.032279999999999996,-0.0,13.3,-0.0,-0.0,13.3,-0.0
0.002579606,-0.20982,13.600000000000001,-0.503568,-0.76665,13.5,-1.83996,-0.68864,13.4,-1.652736,-0.01076,13.4,-0.025824,0.02152,13.3,0.051648,-0.0,13.3,-0.0,-0.0,13.3,-0.0
0.002746287,-0.18561,13.600000000000001,-0.44546399999999997,-0.77203,13.5,-1.8528719999999999,-0.6859500000000001,13.4,-1.6462800000000002,-0.00538,13.4,-0.012912,0.01076,13.3,0.025824,-0.0,13.3,-0.0,-0.0,13.3,-0.0
0.002912243,-0.18561,13.600000000000001,-0.44546399999999997,-0.75858,13.5,-1.820592,-0.6859500000000001,13.4,-1.6462800000000002,-0.01883,13.4,-0.045191999999999996,0.01076,13.3,0.025824,-0.0,13.3,-0.0,-0.0,13.3,-0.0
0.003109034,-0.18561,13.600000000000001,-0.44546399999999997,-0.76127,13.5,-1.827048,-0.6940200000000001,13.4,-1.6656480000000002,-0.01076,13.4,-0.025824,0.0,13.3,0.0,-0.0,13.3,-0.0,-0.0,13.3,-0.0
0.003270795,-0.18561,13.600000000000001,-0.44546399999999997,-0.76665,13.5,-1.83996,-0.68864,13.4,-1.652736,-0.01076,13.4,-0.025824,0.01883,13.3,0.045191999999999996,-0.0,13.3,-0.0,-0.0,13.3,-0.0
0.003433075,-0.18292,13.600000000000001,-0.439008,-0.77203,13.5,-1.8528719999999999,-0.69133,13.4,-1.659192,-0.00538,13.4,-0.012912,0.01614,13.3,0.038736,-0.0,13.3,-0.0,-0.0,13.3,-0.0
0.011144051,-0.18561,13.600000000000001,-0.44546399999999997,-0.76127,13.5,-1.827048,-0.69671,13.4,-1.672104,-0.01345,13.4,-0.032279999999999996,0.01614,13.3,0.038736,-0.0,13.3,-0.0,-0.0,13.3,-0.0
0.045009119,-0.18561,13.600000000000001,-0.44546399999999997,-0.7747200000000001,13.5,-1.859328,-0.68864,13.4,-1.652736,-0.01345,13.4,-0.032279999999999996,0.01345,13.3,0.032279999999999996,-0.0,13.3,-0.0,-0.0,13.3,-0.0
0.07780929,-0.18561,13.600000000000001,-0.44546399999999997,-0.77741,13.5,-1.865784,-0.6859500000000001,13.4,-1.6462800000000002,-0.01614,13.4,-0.038736,0.01076,13.3,0.025824,-0.0,13.3,-0.0,-0.0,13.3,-0.0
0.111285515,-0.1883,13.600000000000001,-0.45192,-0.7639600000000001,13.4,-1.833504,-0.68864,13.4,-1.652736,-0.01076,13.4,-0.025824,0.01614,13.3,0.038736,-0.0,13.3,-0.0,-0.0,13.3,-0.0
0.14462115,-0.1883,13.600000000000001,-0.45192,-0.77741,13.5,-1.865784,-0.6751900000000001,13.4,-1.6204560000000001,-0.01614,13.4,-0.038736,0.01883,13.3,0.045191999999999996,-0.0,13.3,-0.0,-0.0,13.3,-0.0
0.178086171,-0.19368000000000002,13.600000000000001,-0.464832,-0.76934,13.5,-1.846416,-0.69671,13.4,-1.672104,-0.01614,13.4,-0.038736,0.0,13.3,0.0,-0.0,13.3,-0.0,-0.0,13.3,-0.0
0.211226489,-0.1883,13.600000000000001,-0.45192,-0.79086,13.5,-1.898064,-0.6859500000000001,13.4,-1.6462800000000002,-0.01614,13.4,-0.038736,0.0,13.3,0.0,-0.0,13.3,-0.0,-0.0,13.3,-0.0
0.245007339,-0.06994,13.700000000000001,-0.167856,-0.27976,13.600000000000001,-0.671424,-0.25824,13.5,-0.619776,-0.01614,13.5,-0.038736,0.0,13.5,0.0,-0.0,13.5,-0.0,-0.0,13.5,-0.0
0.277880585,-0.04573,13.700000000000001,-0.109752,-0.27438,13.600000000000001,-0.658512,-0.28245000000000003,13.5,-0.67788,-0.01614,13.5,-0.038736,-0.00269,13.5,-0.006456,-0.0,13.5,-0.0,-0.0,13.5,-0.0
0.310898089,-0.00269,13.700000000000001,-0.006456,-0.33356,13.600000000000001,-0.800544,-0.33087,13.5,-0.794088,-0.01614,13.5,-0.038736,-0.01076,13.5,-0.025824,-0.0,13.5,-0.0,-0.0,13.5,-0.0
0.344754493,0.00269,13.700000000000001,0.006456,-0.4035,13.600000000000001,-0.9684,-0.30128,13.5,-0.7230719999999999,-0.01345,13.5,-0.032279999999999996,0.0,13.5,0.0,-0.0,13.5,-0.0,-0.0,13.5,-0.0
0.377768609,0.04573,13.700000000000001,0.109752,-0.41426,13.600000000000001,-0.994224,-0.2959,13.5,-0.71016,-0.01614,13.5,-0.038736,-0.00538,13.5,-0.012912,-0.0,13.5,-0.0,-0.0,13.5,-0.0
0.410794302,0.0538,13.700000000000001,0.12911999999999998,-0.36853,13.600000000000001,-0.884472,-0.27707000000000004,13.5,-0.6649680000000001,-0.01883,13.5,-0.045191999999999996,-0.00807,13.4,-0.019368,-0.0,13.5,-0.0,-0.0,13.5,-0.0
0.444861443,0.05918,13.700000000000001,0.142032,-0.36046,13.600000000000001,-0.865104,-0.27438,13.5,-0.658512,-0.01076,13.5,-0.025824,-0.024210000000000002,13.4,-0.058104,-0.0,13.5,-0.0,-0.0,13.5,-0.0
0.477498258,0.11298000000000001,13.700000000000001,0.271152,-0.36046,13.600000000000001,-0.865104,-0.31742000000000004,13.5,-0.761808,-0.01076,13.5,-0.025824,-0.024210000000000002,13.4,-0.058104,-0.0,13.5,-0.0,-0.0,13.5,-0.0
0.51055897,0.16140000000000002,13.600000000000001,0.38736000000000004,-0.36046,13.600000000000001,-0.865104,-0.31742000000000004,13.5,-0.761808,0.0,13.5,0.0,-0.01345,13.4,-0.032279999999999996,-0.0,13.5,-0.0,-0.0,13.5,-0.0
0.544579093,0.2421,13.700000000000001,0.58104,-0.36315000000000003,13.600000000000001,-0.87156,-0.32280000000000003,13.5,-0.7747200000000001,-0.00269,13.5,-0.006456,-0.03766,13.4,-0.09038399999999999,-0.0,13.5,-0.0,-0.0,13.4,-0.0
0.577465978,0.29052,13.600000000000001,0.697248,-0.36315000000000003,13.5,-0.87156,-0.36853,13.5,-0.884472,0.0,13.5,0.0,-0.05918,13.4,-0.142032,-0.0,13.4,-0.0,-0.0,13.200000000000001,-0.0
0.611712586,0.32011,13.600000000000001,0.768264,-0.32818,13.5,-0.787632,-0.36584,13.5,-0.878016,0.0,13.4,0.0,-0.04304,13.4,-0.103296,-0.0,13.4,-0.0,-0.0,13.4,-0.0
0.644887765,0.30397,13.5,0.7295280000000001,-0.31742000000000004,13.5,-0.761808,-0.36584,13.4,-0.878016,0.0,13.4,0.0,-0.056490000000000005,13.4,-0.135576,-0.0,13.4,-0.0,-0.0,13.3,-0.0
0.677737576,0.28245000000000003,13.600000000000001,0.67788,-0.31742000000000004,13.5,-0.761808,-0.41426,13.4,-0.994224,-0.00538,13.4,-0.012912,-0.06456,13.3,-0.154944,-0.0,13.4,-0.0,-0.0,13.3,-0.0
0.711865123,0.28245000000000003,13.5,0.67788,-0.31742000000000004,13.5,-0.761808,-0.41695000000000004,13.4,-1.00068,0.0,13.4,0.0,-0.05111,13.3,-0.122664,-0.0,13.3,-0.0,-0.0,13.3,-0.0
0.745188914,0.30397,13.600000000000001,0.7295280000000001,-0.31473,13.5,-0.755352,-0.45999,13.4,-1.103976,-0.01076,13.4,-0.025824,-0.09146,13.3,-0.219504,-0.0,13.3,-0.0,-0.0,13.3,-0.0
0.777943648,0.33087,13.600000000000001,0.794088,-0.29859,13.5,-0.716616,-0.46268000000000004,13.4,-1.110432,-0.00269,13.3,-0.006456,-0.08339,13.3,-0.200136,-0.0,13.3,-0.0,-0.0,13.3,-0.0
0.811682081,0.32818,13.5,0.787632,-0.31742000000000004,13.5,-0.761808,-0.50034,13.4,-1.2008159999999999,-0.00538,13.3,-0.012912,-0.08070000000000001,13.200000000000001,-0.19368000000000002,-0.0,13.3,-0.0,-0.0,13.200000000000001,-0.0
0.84523486,0.35239000000000004,13.600000000000001,0.845736,-0.29859,13.4,-0.716616,-0.538,13.4,-1.2912000000000001,-0.00807,13.3,-0.019368,-0.09146,13.200000000000001,-0.219504,-0.0,13.200000000000001,-0.0,-0.0,13.200000000000001,-0.0
0.877763478,0.35239000000000004,13.5,0.845736,-0.29321,13.4,-0.703704,-0.5541400000000001,13.4,-1.3299360000000002,-0.01076,13.3,-0.025824,-0.11567000000000001,13.200000000000001,-0.277608,-0.0,13.200000000000001,-0.0,-0.0,13.200000000000001,-0.0
0.911729484,0.37391,13.5,0.8973840000000001,-0.25286000000000003,13.4,-0.6068640000000001,-0.58911,13.3,-1.413864,-0.00807,13.200000000000001,-0.019368,-0.08877,13.100000000000001,-0.213048,-0.0,13.200000000000001,-0.0,-0.0,13.200000000000001,-0.0
0.944876322,0.37929,13.5,0.910296,-0.27438,13.4,-0.658512,-0.62677,13.3,-1.504248,-0.01345,13.200000000000001,-0.032279999999999996,-0.11029,13.100000000000001,-0.264696,-0.0,13.200000000000001,-0.0,-0.0,13.200000000000001,-0.0
0.977772447,0.37391,13.5,0.8973840000000001,-0.30128,13.4,-0.7230719999999999,-0.64829,13.3,-1.555896,-0.00269,13.200000000000001,-0.006456,-0.12643000000000001,13.200000000000001,-0.30343200000000004,-0.0,13.100000000000001,-0.0,-0.0,13.200000000000001,-0.0
1.011840761,0.36853,13.4,0.884472,-0.31473,13.3,-0.755352,-0.68326,13.3,-1.639824,0.00269,13.200000000000001,0.006456,-0.09146,13.0,-0.219504,-0.0,13.100000000000001,-0.0,-0.0,13.100000000000001,-0.0
1.044774485,0.39274000000000003,13.5,0.9425760000000001,-0.3497,13.3,-0.83928,-0.72092,13.200000000000001,-1.730208,-0.024210000000000002,13.100000000000001,-0.058104,-0.11298000000000001,13.100000000000001,-0.271152,-0.0,13.100000000000001,-0.0,-0.0,13.100000000000001,-0.0
1.077856573,0.37391,13.4,0.8973840000000001,-0.32011,13.3,-0.768264,-0.7639600000000001,13.200000000000001,-1.833504,0.0,13.100000000000001,0.0,-0.09684000000000001,13.100000000000001,-0.232416,-0.0,13.0,-0.0,-0.0,13.0,-0.0
1.111690499,0.40619,13.4,0.974856,-0.30666,13.3,-0.735984,-0.76934,13.100000000000001,-1.846416,0.0,13.100000000000001,0.0,-0.08339,13.0,-0.200136,-0.0,13.0,-0.0,-0.0,13.0,-0.0
1.144706325,0.46806000000000003,13.3,1.1233440000000001,-0.33087,13.200000000000001,-0.794088,-0.7263000000000001,13.100000000000001,-1.74312,0.0,13.100000000000001,0.0,-0.14795,13.0,-0.35508,-0.0,13.0,-0.0,-0.0,12.9,-0.0
1.177517232,0.43309000000000003,13.5,1.0394160000000001,-0.29859,13.200000000000001,-0.716616,-0.6751900000000001,13.100000000000001,-1.6204560000000001,-0.01883,13.0,-0.045191999999999996,-0.11298000000000001,13.0,-0.271152,-0.0,12.9,-0.0,-0.0,13.0,-0.0
1.211492607,0.42233000000000004,13.3,1.013592,-0.30397,13.200000000000001,-0.7295280000000001,-0.62139,13.100000000000001,-1.491336,0.0,13.0,0.0,-0.11567000000000001,13.0,-0.277608,-0.0,12.9,-0.0,-0.0,13.0,-0.0
1.244580855,0.4304,13.3,1.0329599999999999,-0.30935,13.200000000000001,-0.74244,-0.64291,13.0,-1.542984,0.00269,13.0,0.006456,-0.12643000000000001,12.9,-0.30343200000000004,-0.0,13.0,-0.0,-0.0,13.0,-0.0
1.277713031,0.37929,13.3,0.910296,-0.30935,13.200000000000001,-0.74244,-0.6751900000000001,13.100000000000001,-1.6204560000000001,0.0,13.100000000000001,0.0,-0.09953000000000001,12.9,-0.238872,-0.0,12.9,-0.0,-0.0,12.9,-0.0
1.311629955,0.37122,13.3,0.8909279999999999,-0.30935,13.3,-0.74244,-0.65636,13.100000000000001,-1.575264,0.0,13.100000000000001,0.0,-0.09684000000000001,12.9,-0.232416,-0.0,12.9,-0.0,-0.0,12.9,-0.0
1.3446884,0.42233000000000004,13.4,1.013592,-0.25286000000000003,13.3,-0.6068640000000001,-0.6751900000000001,13.100000000000001,-1.6204560000000001,0.0,13.0,0.0,-0.14526,13.0,-0.348624,-0.0,13.0,-0.0,-0.0,12.9,-0.0
1.377383506,0.41426,13.3,0.994224,-0.30128,13.200000000000001,-0.7230719999999999,-0.63753,13.100000000000001,-1.530072,0.0,13.100000000000001,0.0,-0.11029,12.9,-0.264696,-0.0,12.9,-0.0,-0.0,13.0,-0.0
1.411349699,0.40619,13.4,0.974856,-0.27976,13.200000000000001,-0.671424,-0.63215,13.200000000000001,-1.5171599999999998,-0.01614,13.100000000000001,-0.038736,-0.10222,13.0,-0.245328,-0.0,13.0,-0.0,-0.0,12.9,-0.0
1.444698147,0.43309000000000003,13.3,1.0394160000000001,-0.31204000000000004,13.200000000000001,-0.7488960000000001,-0.63753,13.100000000000001,-1.530072,-0.00538,13.100000000000001,-0.012912,-0.13181,12.9,-0.316344,-0.0,13.0,-0.0,-0.0,13.0,-0.0
1.477638145,0.41426,13.4,0.994224,-0.31473,13.200000000000001,-0.755352,-0.64291,13.100000000000001,-1.542984,-0.00269,13.100000000000001,-0.006456,-0.12912,12.9,-0.309888,-0.0,12.9,-0.0,-0.0,12.9,-0.0
1.511488563,0.4035,13.4,0.9684,-0.29859,13.200000000000001,-0.716616,-0.6160100000000001,13.100000000000001,-1.4784240000000002,-0.00269,13.100000000000001,-0.006456,-0.09146,12.9,-0.219504,-0.0,13.0,-0.0,-0.0,12.9,-0.0
1.544503268,0.45730000000000004,13.4,1.09752,-0.39812000000000003,13.200000000000001,-0.955488,-0.6348400000000001,13.100000000000001,-1.523616,0.0,13.0,0.0,-0.12105,12.9,-0.29052,-0.0,13.0,-0.0,-0.0,12.9,-0.0
1.577532317,0.43578,13.4,1.045872,-0.33894,13.200000000000001,-0.8134560000000001,-0.65367,13.100000000000001,-1.568808,0.0,13.100000000000001,0.0,-0.09684000000000001,13.0,-0.232416,-0.0,12.9,-0.0,-0.0,13.0,-0.0
1.611623713,0.43847,13.3,1.052328,-0.32549,13.3,-0.781176,-0.64291,13.100000000000001,-1.542984,0.0,13.100000000000001,0.0,-0.12105,12.9,-0.29052,-0.0,12.9,-0.0,-0.0,13.0,-0.0
1.644553415,0.47344,13.3,1.136256,-0.29859,13.200000000000001,-0.716616,-0.65636,13.100000000000001,-1.575264,-0.02152,13.0,-0.051648,-0.16947,13.0,-0.40672800000000003,-0.0,13.0,-0.0,-0.0,12.9,-0.0
1.677440608,0.44923,13.3,1.078152,-0.31742000000000004,13.200000000000001,-0.761808,-0.73706,13.0,-1.768944,-0.00538,13.100000000000001,-0.012912,-0.08070000000000001,12.9,-0.19368000000000002,-0.0,12.9,-0.0,-0.0,13.0,-0.0
1.711457171,0.44385,13.3,1.06524,-0.30666,13.200000000000001,-0.735984,-0.6644300000000001,13.100000000000001,-1.594632,0.0,13.100000000000001,0.0,-0.11836,12.9,-0.284064,-0.0,12.9,-0.0,-0.0,12.9,-0.0
1.744777937,0.44116,13.3,1.058784,-0.30666,13.200000000000001,-0.735984,-0.68326,13.0,-1.639824,0.0,13.0,0.0,-0.14257,12.9,-0.34216799999999997,-0.0,12.9,-0.0,-0.0,13.0,-0.0
1.777550558,0.44116,13.3,1.058784,-0.31204000000000004,13.200000000000001,-0.7488960000000001,-0.70747,13.100000000000001,-1.697928,-0.01614,13.0,-0.038736,-0.12912,12.9,-0.309888,-0.0,12.9,-0.0,-0.0,12.9,-0.0
1.811530421,0.43578,13.3,1.045872,-0.28514,13.200000000000001,-0.6843359999999999,-0.6644300000000001,13.0,-1.594632,-0.00269,13.100000000000001,-0.006456,-0.10222,12.9,-0.245328,-0.0,12.9,-0.0,-0.0,12.9,-0.0
1.844357853,0.45730000000000004,13.3,1.09752,-0.33894,13.3,-0.8134560000000001,-0.66981,13.100000000000001,-1.607544,0.0,13.0,0.0,-0.11298000000000001,12.9,-0.271152,-0.0,12.9,-0.0,-0.0,12.9,-0.0
1.877654004,0.47613,13.3,1.142712,-0.30128,13.200000000000001,-0.7230719999999999,-0.68326,13.100000000000001,-1.639824,-0.03497,13.0,-0.083928,-0.11836,12.8,-0.284064,-0.0,12.9,-0.0,-0.0,13.0,-0.0
1.91146409,0.45461,13.4,1.091064,-0.33356,13.3,-0.800544,-0.6725,13.100000000000001,-1.6139999999999999,-0.01345,13.100000000000001,-0.032279999999999996,-0.08608,13.0,-0.206592,-0.0,12.9,-0.0,-0.0,12.9,-0.0
1.944578541,0.47613,13.3,1.142712,-0.34163,13.200000000000001,-0.819912,-0.66981,13.100000000000001,-1.607544,-0.01345,13.0,-0.032279999999999996,-0.15064,12.9,-0.36153599999999997,-0.0,12.9,-0.0,-0.0,12.9,-0.0
1.977480925,0.45192000000000004,13.3,1.084608,-0.42771000000000003,13.200000000000001,-1.026504,-0.66712,13.100000000000001,-1.601088,0.0,13.0,0.0,-0.1076,12.9,-0.25823999999999997,-0.0,12.9,-0.0,-0.0,12.9,-0.0
2.011407972,0.45192000000000004,13.3,1.084608,-0.39005,13.200000000000001,-0.93612,-0.6751900000000001,13.0,-1.6204560000000001,-0.01614,13.0,-0.038736,-0.09146,12.9,-0.219504,-0.0,12.9,-0.0,-0.0,12.9,-0.0
2.044435548,0.48151,13.3,1.155624,-0.37929,13.200000000000001,-0.910296,-0.7532,13.0,-1.80768,0.0,13.0,0.0,-0.16409,12.9,-0.393816,-0.0,12.9,-0.0,-0.0,12.9,-0.0
2.077437238,0.45999,13.3,1.103976,-0.3497,13.100000000000001,-0.83928,-0.7155400000000001,13.0,-1.7172960000000002,-0.00538,13.0,-0.012912,-0.15064,12.9,-0.36153599999999997,-0.0,12.9,-0.0,-0.0,12.9,-0.0
2.111296503,0.41964,13.3,1.007136,-0.31204000000000004,13.200000000000001,-0.7488960000000001,-0.65367,13.100000000000001,-1.568808,-0.01883,13.0,-0.045191999999999996,-0.10222,12.9,-0.245328,-0.0,12.9,-0.0,-0.0,13.0,-0.0
2.144394254,0.45999,13.3,1.103976,-0.30935,13.200000000000001,-0.74244,-0.64829,13.100000000000001,-1.555896,-0.01345,13.0,-0.032279999999999996,-0.15602000000000002,12.9,-0.37444800000000006,-0.0,12.9,-0.0,-0.0,12.9,-0.0
2.177330359,0.46268000000000004,13.3,1.110432,-0.2959,13.200000000000001,-0.71016,-0.63215,13.100000000000001,-1.5171599999999998,-0.01614,13.0,-0.038736,-0.1076,13.0,-0.25823999999999997,-0.0,12.9,-0.0,-0.0,12.9,-0.0
2.211446997,0.40619,13.3,0.974856,-0.34163,13.200000000000001,-0.819912,-0.62677,13.100000000000001,-1.504248,0.0,13.100000000000001,0.0,-0.11567000000000001,12.9,-0.277608,-0.0,12.9,-0.0,-0.0,12.9,-0.0
2.244539337,0.46268000000000004,13.3,1.110432,-0.34432,13.200000000000001,-0.826368,-0.6725,13.100000000000001,-1.6139999999999999,-0.01614,13.0,-0.038736,-0.16140000000000002,13.0,-0.38736000000000004,-0.0,12.9,-0.0,-0.0,12.9,-0.0
2.277239037,0.47075,13.3,1.1298,-0.33087,13.3,-0.794088,-0.70747,13.100000000000001,-1.697928,0.0,13.100000000000001,0.0,-0.10491,12.9,-0.251784,-0.0,12.9,-0.0,-0.0,12.9,-0.0
2.311327721,0.41964,13.3,1.007136,-0.36853,13.100000000000001,-0.884472,-0.6751900000000001,13.0,-1.6204560000000001,-0.01614,13.100000000000001,-0.038736,-0.09146,12.9,-0.219504,-0.0,12.9,-0.0,0.00269,13.0,0.006456
2.344770106,0.48958,13.3,1.174992,-0.36584,13.100000000000001,-0.878016,-0.72092,13.100000000000001,-1.730208,-0.04304,13.0,-0.103296,-0.14526,12.9,-0.348624,-0.0,12.9,-0.0,-0.0,12.9,-0.0
2.377294689,0.45461,13.200000000000001,1.091064,-0.3766,13.200000000000001,-0.90384,-0.63215,13.100000000000001,-1.5171599999999998,-0.01614,13.0,-0.038736,-0.12643000000000001,12.9,-0.30343200000000004,-0.0,12.9,-0.0,-0.0,12.9,-0.0
2.411156594,0.43578,13.4,1.045872,-0.33356,13.3,-0.800544,-0.6240800000000001,13.100000000000001,-1.4977920000000002,0.0,13.0,0.0,-0.08877,13.0,-0.213048,-0.0,12.9,-0.0,-0.0,13.0,-0.0
2.444526934,0.47075,13.3,1.1298,-0.37929,13.100000000000001,-0.910296,-0.7155400000000001,13.100000000000001,-1.7172960000000002,-0.00538,13.0,-0.012912,-0.14795,12.8,-0.35508,-0.0,12.8,-0.0,-0.0,12.9,-0.0
2.47712053,0.45461,13.5,1.091064,-0.32818,13.200000000000001,-0.787632,-0.72092,13.0,-1.730208,-0.01614,13.0,-0.038736,-0.09415,12.9,-0.22596,-0.0,12.9,-0.0,-0.0,12.9,-0.0
2.51103705,0.41426,13.200000000000001,0.994224,-0.32280000000000003,13.200000000000001,-0.7747200000000001,-0.73975,13.100000000000001,-1.7754,-0.00538,13.0,-0.012912,-0.12643000000000001,13.0,-0.30343200000000004,-0.0,12.9,-0.0,-0.0,12.9,-0.0
2.544450924,0.49496,13.3,1.187904,-0.32549,13.200000000000001,-0.781176,-0.76665,13.100000000000001,-1.83996,-0.040350000000000004,13.0,-0.09684000000000001,-0.15064,12.8,-0.36153599999999997,-0.0,12.9,-0.0,-0.0,12.9,-0.0
2.578203163,0.44385,13.200000000000001,1.06524,-0.31742000000000004,13.200000000000001,-0.761808,-0.7532,13.100000000000001,-1.80768,-0.01883,13.0,-0.045191999999999996,-0.12643000000000001,12.8,-0.30343200000000004,-0.0,12.9,-0.0,-0.0,12.9,-0.0
2.611435029,0.46268000000000004,13.3,1.110432,-0.31473,13.200000000000001,-0.755352,-0.67788,13.100000000000001,-1.6269120000000001,-0.01345,13.0,-0.032279999999999996,-0.16678,12.9,-0.400272,-0.0,12.9,-0.0,-0.0,12.9,-0.0
2.64436044,0.48151,13.3,1.155624,-0.30666,13.200000000000001,-0.735984,-0.7155400000000001,13.100000000000001,-1.7172960000000002,-0.03228,13.0,-0.077472,-0.15064,12.9,-0.36153599999999997,-0.0,12.9,-0.0,-0.0,12.9,-0.0
2.678165984,0.42502,13.3,1.020048,-0.32280000000000003,13.200000000000001,-0.7747200000000001,-0.71285,13.100000000000001,-1.71084,0.0,13.0,0.0,-0.13181,12.9,-0.316344,-0.0,12.9,-0.0,-0.0,12.9,-0.0
2.711157898,0.45461,13.3,1.091064,-0.30666,13.200000000000001,-0.735984,-0.71823,13.100000000000001,-1.723752,-0.01883,13.0,-0.045191999999999996,-0.20175,12.9,-0.4842,-0.0,13.0,-0.0,0.00269,12.9,0.006456
2.744382863,0.40888,13.3,0.981312,-0.33625,13.100000000000001,-0.8069999999999999,-0.68864,13.100000000000001,-1.652736,-0.03228,13.0,-0.077472,-0.12374,12.8,-0.296976,-0.0,12.9,-0.0,0.00269,12.9,0.006456
2.778213808,0.3766,13.3,0.90384,-0.36853,13.3,-0.884472,-0.66712,13.100000000000001,-1.601088,-0.03497,13.0,-0.083928,-0.11298000000000001,13.0,-0.271152,-0.0,12.9,-0.0,0.00269,12.9,0.006456
2.810893512,0.41695000000000004,13.3,1.00068,-0.33625,13.100000000000001,-0.8069999999999999,-0.71823,13.0,-1.723752,-0.01883,13.0,-0.045191999999999996,-0.17216,12.8,-0.413184,-0.0,12.9,-0.0,0.00269,12.9,0.006456
2.844304729,0.41426,13.4,0.994224,-0.39005,13.200000000000001,-0.93612,-0.70209,13.100000000000001,-1.6850159999999998,-0.02152,13.0,-0.051648,-0.14795,12.9,-0.35508,-0.0,12.9,-0.0,0.00269,12.9,0.006456
2.878402527,0.35508,13.3,0.852192,-0.33894,13.200000000000001,-0.8134560000000001,-0.71016,13.100000000000001,-1.704384,-0.01614,13.0,-0.038736,-0.12105,12.9,-0.29052,-0.0,12.9,-0.0,0.00269,12.9,0.006456
2.911039379,0.45999,13.3,1.103976,-0.32549,13.200000000000001,-0.781176,-0.71823,13.100000000000001,-1.723752,-0.01345,13.0,-0.032279999999999996,-0.18023,12.9,-0.432552,-0.0,13.0,-0.0,0.00269,12.9,0.006456
2.944009723,0.39543,13.3,0.949032,-0.32011,13.200000000000001,-0.768264,-0.65905,13.100000000000001,-1.58172,-0.01614,13.100000000000001,-0.038736,-0.13719,12.9,-0.329256,-0.0,12.9,-0.0,0.00269,12.9,0.006456
2.977858709,0.3766,13.4,0.90384,-0.36315000000000003,13.200000000000001,-0.87156,-0.65636,13.100000000000001,-1.575264,-0.03497,13.100000000000001,-0.083928,-0.11567000000000001,13.0,-0.277608,-0.0,12.9,-0.0,0.00269,13.0,0.006456
3.011276949,0.41695000000000004,13.3,1.00068,-0.35239000000000004,13.200000000000001,-0.845736,-0.71016,13.100000000000001,-1.704384,-0.03766,13.0,-0.09038399999999999,-0.1883,12.8,-0.45192,-0.0,12.9,-0.0,0.00269,12.9,0.006456
3.04459651,0.39274000000000003,13.3,0.9425760000000001,-0.34163,13.200000000000001,-0.819912,-0.6859500000000001,13.100000000000001,-1.6462800000000002,-0.02152,13.0,-0.051648,-0.11836,12.9,-0.284064,-0.0,12.9,-0.0,0.00269,12.9,0.006456
3.07811639,0.3766,13.200000000000001,0.90384,-0.31742000000000004,13.3,-0.761808,-0.7236100000000001,13.100000000000001,-1.7366640000000002,-0.01345,13.0,-0.032279999999999996,-0.11567000000000001,12.9,-0.277608,-0.0,12.9,-0.0,0.00269,12.9,0.006456
3.111073909,0.39543,13.3,0.949032,-0.30666,13.200000000000001,-0.735984,-0.7155400000000001,13.100000000000001,-1.7172960000000002,-0.02152,13.0,-0.051648,-0.16140000000000002,12.9,-0.38736000000000004,-0.0,12.9,-0.0,0.00269,12.9,0.006456
3.144103832,0.36046,13.3,0.865104,-0.33894,13.200000000000001,-0.8134560000000001,-0.66981,13.100000000000001,-1.607544,-0.0269,13.0,-0.06455999999999999,-0.14526,12.9,-0.348624,-0.0,12.9,-0.0,0.00269,12.9,0.006456
3.178025451,0.34163,13.4,0.819912,-0.35777000000000003,13.200000000000001,-0.8586480000000001,-0.65636,13.200000000000001,-1.575264,-0.01614,13.100000000000001,-0.038736,-0.12912,12.9,-0.309888,-0.0,12.9,-0.0,0.00269,12.9,0.006456
3.210660169,0.3766,13.3,0.90384,-0.36584,13.200000000000001,-0.878016,-0.6859500000000001,13.0,-1.6462800000000002,-0.03497,13.0,-0.083928,-0.16947,12.9,-0.40672800000000003,-0.0,12.9,-0.0,0.00269,12.9,0.006456
3.244460331,0.3766,13.3,0.90384,-0.36853,13.200000000000001,-0.884472,-0.7155400000000001,13.100000000000001,-1.7172960000000002,-0.03766,13.0,-0.09038399999999999,-0.13181,12.8,-0.316344,-0.0,12.9,-0.0,0.00269,12.9,0.006456
3.278382417,0.36046,13.3,0.865104,-0.35508,13.3,-0.852192,-0.74782,13.100000000000001,-1.7947680000000001,-0.024210000000000002,13.100000000000001,-0.058104,-0.10491,12.9,-0.251784,-0.0,12.9,-0.0,0.00269,12.9,0.006456
3.310959656,0.39812000000000003,13.3,0.955488,-0.3766,13.200000000000001,-0.90384,-0.8043100000000001,13.100000000000001,-1.930344,-0.024210000000000002,13.0,-0.058104,-0.16409,12.9,-0.393816,-0.0,12.9,-0.0,0.00269,12.9,0.006456
3.344213775,0.36315000000000003,13.4,0.87156,-0.34432,13.200000000000001,-0.826368,-0.7155400000000001,13.100000000000001,-1.7172960000000002,-0.03766,13.0,-0.09038399999999999,-0.12912,12.9,-0.309888,-0.0,12.9,-0.0,0.00269,12.9,0.006456
3.377937063,0.33894,13.3,0.8134560000000001,-0.37122,13.200000000000001,-0.8909279999999999,-0.7155400000000001,13.0,-1.7172960000000002,-0.03228,13.0,-0.077472,-0.1345,12.9,-0.32280000000000003,-0.0,12.9,-0.0,0.00269,12.9,0.006456
3.411190616,0.38467,13.4,0.923208,-0.36315000000000003,13.100000000000001,-0.87156,-0.73168,13.100000000000001,-1.756032,-0.03228,13.100000000000001,-0.077472,-0.15871000000000002,12.9,-0.380904,-0.0,12.9,-0.0,0.00269,13.0,0.006456
3.444140726,0.31204000000000004,13.3,0.7488960000000001,-0.36315000000000003,13.200000000000001,-0.87156,-0.72899,13.200000000000001,-1.749576,-0.03228,13.100000000000001,-0.077472,-0.1345,13.0,-0.32280000000000003,-0.0,12.9,-0.0,0.00269,12.9,0.006456
3.477729035,0.29859,13.4,0.716616,-0.35239000000000004,13.200000000000001,-0.845736,-0.73975,13.200000000000001,-1.7754,-0.01883,13.100000000000001,-0.045191999999999996,-0.1076,13.0,-0.25823999999999997,-0.0,13.0,-0.0,0.00269,13.0,0.006456
3.511010097,0.34163,13.3,0.819912,-0.34163,13.3,-0.819912,-0.74782,13.100000000000001,-1.7947680000000001,-0.01883,13.100000000000001,-0.045191999999999996,-0.14526,12.9,-0.348624,-0.0,13.0,-0.0,-0.0,13.0,-0.0
3.543868758,0.28514,13.4,0.6843359999999999,-0.37122,13.3,-0.8909279999999999,-0.7558900000000001,13.200000000000001,-1.814136,-0.024210000000000002,13.200000000000001,-0.058104,-0.1076,13.0,-0.25823999999999997,-0.0,13.0,-0.0,-0.0,13.0,-0.0
3.577941121,0.26631,13.4,0.6391439999999999,-0.37391,13.3,-0.8973840000000001,-0.7558900000000001,13.200000000000001,-1.814136,-0.0269,13.200000000000001,-0.06455999999999999,-0.08877,13.0,-0.213048,-0.0,13.0,-0.0,-0.0,13.0,-0.0
3.610924363,0.29859,13.4,0.716616,-0.3497,13.3,-0.83928,-0.71823,13.100000000000001,-1.723752,-0.02152,13.200000000000001,-0.051648,-0.1345,13.0,-0.32280000000000003,-0.0,13.0,-0.0,-0.0,13.100000000000001,-0.0
3.64386276,0.28783000000000003,13.5,0.6907920000000001,-0.34701000000000004,13.3,-0.8328240000000001,-0.68864,13.200000000000001,-1.652736,-0.0269,13.200000000000001,-0.06455999999999999,-0.08877,13.100000000000001,-0.213048,-0.0,13.100000000000001,-0.0,-0.0,13.100000000000001,-0.0
3.67796493,0.25286000000000003,13.4,0.6068640000000001,-0.36584,13.3,-0.878016,-0.71016,13.3,-1.704384,-0.01614,13.100000000000001,-0.038736,-0.08877,13.0,-0.213048,-0.0,13.100000000000001,-0.0,-0.0,13.100000000000001,-0.0
3.710691219,0.29321,13.5,0.703704,-0.35777000000000003,13.3,-0.8586480000000001,-0.71823,13.3,-1.723752,-0.02152,13.200000000000001,-0.051648,-0.11298000000000001,13.100000000000001,-0.271152,-0.0,13.100000000000001,-0.0,-0.0,13.100000000000001,-0.0
3.743904933,0.26093,13.5,0.626232,-0.36853,13.3,-0.884472,-0.75858,13.200000000000001,-1.820592,-0.024210000000000002,13.200000000000001,-0.058104,-0.08339,13.100000000000001,-0.200136,-0.0,13.100000000000001,-0.0,-0.0,13.100000000000001,-0.0
3.777826806,0.22865000000000002,13.4,0.54876,-0.39812000000000003,13.3,-0.955488,-0.74782,13.200000000000001,-1.7947680000000001,-0.024210000000000002,13.200000000000001,-0.058104,-0.08070000000000001,13.100000000000001,-0.19368000000000002,-0.0,13.100000000000001,-0.0,-0.0,13.100000000000001,-0.0
3.81066296,0.24479,13.4,0.587496,-0.38736000000000004,13.4,-0.929664,-0.71285,13.3,-1.71084,-0.024210000000000002,13.200000000000001,-0.058104,-0.1076,13.100000000000001,-0.25823999999999997,-0.0,13.200000000000001,-0.0,-0.0,13.100000000000001,-0.0
3.844036397,0.22058,13.5,0.529392,-0.37391,13.4,-0.8973840000000001,-0.74244,13.3,-1.7818559999999999,-0.02959,13.3,-0.071016,-0.06725,13.200000000000001,-0.16140000000000002,-0.0,13.100000000000001,-0.0,-0.0,13.200000000000001,-0.0
3.877866004,0.20175,13.5,0.4842,-0.36584,13.5,-0.878016,-0.70747,13.3,-1.697928,-0.03766,13.3,-0.09038399999999999,-0.05918,13.200000000000001,-0.142032,-0.0,13.200000000000001,-0.0,-0.0,13.200000000000001,-0.0
3.910836929,0.23672,13.5,0.568128,-0.36046,13.4,-0.865104,-0.75858,13.4,-1.820592,-0.024210000000000002,13.200000000000001,-0.058104,-0.07532,13.200000000000001,-0.18076799999999998,-0.0,13.200000000000001,-0.0,-0.0,13.200000000000001,-0.0
3.94379079,0.20444,13.5,0.490656,-0.35777000000000003,13.5,-0.8586480000000001,-0.66981,13.3,-1.607544,-0.024210000000000002,13.3,-0.058104,-0.04573,13.200000000000001,-0.109752,-0.0,13.200000000000001,-0.0,-0.0,13.200000000000001,-0.0
3.977671355,0.19099000000000002,13.600000000000001,0.458376,-0.34163,13.4,-0.819912,-0.71016,13.3,-1.704384,-0.024210000000000002,13.3,-0.058104,-0.03497,13.200000000000001,-0.083928,-0.0,13.3,-0.0,-0.0,13.3,-0.0
4.010597553,0.20713,13.5,0.497112,-0.32549,13.4,-0.781176,-0.7047800000000001,13.3,-1.691472,-0.03228,13.4,-0.077472,-0.05111,13.200000000000001,-0.122664,-0.0,13.3,-0.0,-0.0,13.3,-0.0
4.043813676,0.18292,13.600000000000001,0.439008,-0.36853,13.4,-0.884472,-0.72092,13.3,-1.730208,-0.024210000000000002,13.3,-0.058104,-0.05111,13.3,-0.122664,-0.0,13.3,-0.0,-0.0,13.3,-0.0
4.077622466,0.18023,13.5,0.432552,-0.35777000000000003,13.4,-0.8586480000000001,-0.74244,13.4,-1.7818559999999999,-0.024210000000000002,13.3,-0.058104,-0.02959,13.3,-0.071016,-0.0,13.3,-0.0,-0.0,13.3,-0.0
4.110688294,0.16409,13.600000000000001,0.393816,-0.35777000000000003,13.5,-0.8586480000000001,-0.7747200000000001,13.3,-1.859328,-0.024210000000000002,13.4,-0.058104,-0.01345,13.3,-0.032279999999999996,-0.0,13.3,-0.0,-0.0,13.3,-0.0
4.143654758,0.16678,13.600000000000001,0.400272,-0.35777000000000003,13.5,-0.8586480000000001,-0.7962400000000001,13.3,-1.910976,-0.0269,13.4,-0.06455999999999999,-0.01883,13.3,-0.045191999999999996,-0.0,13.3,-0.0,-0.0,13.3,-0.0
4.177884109,0.14526,13.600000000000001,0.348624,-0.35508,13.5,-0.852192,-0.79893,13.3,-1.917432,-0.024210000000000002,13.4,-0.058104,-0.01076,13.3,-0.025824,-0.0,13.3,-0.0,-0.0,13.3,-0.0
4.211293555,0.13719,13.600000000000001,0.329256,-0.35777000000000003,13.5,-0.8586480000000001,-0.7854800000000001,13.5,-1.8851520000000002,-0.0269,13.4,-0.06455999999999999,-0.01076,13.3,-0.025824,-0.0,13.3,-0.0,-0.0,13.3,-0.0
4.24351983,0.14795,13.600000000000001,0.35508,-0.35239000000000004,13.5,-0.845736,-0.78279,13.4,-1.878696,-0.0269,13.4,-0.06455999999999999,0.0,13.3,0.0,-0.0,13.3,-0.0,-0.0,13.3,-0.0
4.277615565,0.12912,13.600000000000001,0.309888,-0.35777000000000003,13.5,-0.8586480000000001,-0.76934,13.4,-1.846416,-0.024210000000000002,13.4,-0.058104,-0.00538,13.3,-0.012912,-0.0,13.3,-0.0,-0.0,13.3,-0.0
4.310755377,0.1345,13.600000000000001,0.32280000000000003,-0.35777000000000003,13.5,-0.8586480000000001,-0.81238,13.4,-1.949712,-0.02959,13.4,-0.071016,0.0,13.3,0.0,-0.0,13.4,-0.0,-0.0,13.4,-0.0
4.343691356,0.13719,13.600000000000001,0.329256,-0.36046,13.5,-0.865104,-0.8150700000000001,13.4,-1.9561680000000001,-0.03497,13.4,-0.083928,0.0,13.3,0.0,-0.0,13.4,-0.0,-0.0,13.4,-0.0
4.378310911,0.12374,13.600000000000001,0.296976,-0.35777000000000003,13.5,-0.8586480000000001,-0.81238,13.4,-1.949712,-0.03228,13.4,-0.077472,0.0,13.3,0.0,-0.0,13.4,-0.0,-0.0,13.4,-0.0
4.411804647,0.1345,13.600000000000001,0.32280000000000003,-0.35777000000000003,13.5,-0.8586480000000001,-0.81776,13.4,-1.962624,-0.0269,13.4,-0.06455999999999999,0.0,13.3,0.0,-0.0,13.4,-0.0,-0.0,13.4,-0.0
4.443811248,0.11836,13.600000000000001,0.284064,-0.36046,13.5,-0.865104,-0.81238,13.3,-1.949712,-0.04304,13.4,-0.103296,-0.00269,13.3,-0.006456,-0.0,13.4,-0.0,-0.0,13.4,-0.0
4.477635389,0.12643000000000001,13.600000000000001,0.30343200000000004,-0.35777000000000003,13.5,-0.8586480000000001,-0.807,13.4,-1.9368,-0.0269,13.4,-0.06455999999999999,-0.00269,13.3,-0.006456,-0.0,13.4,-0.0,-0.0,13.4,-0.0
4.510582579,0.12643000000000001,13.600000000000001,0.30343200000000004,-0.36853,13.5,-0.884472,-0.7935500000000001,13.4,-1.9045200000000002,-0.03497,13.4,-0.083928,-0.00269,13.4,-0.006456,-0.0,13.4,-0.0,-0.0,13.4,-0.0
4.543635796,0.13181,13.600000000000001,0.316344,-0.35239000000000004,13.5,-0.845736,-0.74244,13.4,-1.7818559999999999,-0.024210000000000002,13.4,-0.058104,-0.00269,13.4,-0.006456,-0.0,13.4,-0.0,-0.0,13.4,-0.0
4.577627286,0.13181,13.600000000000001,0.316344,-0.36046,13.5,-0.865104,-0.77203,13.4,-1.8528719999999999,-0.0269,13.4,-0.06455999999999999,-0.00807,13.4,-0.019368,-0.0,13.4,-0.0,-0.0,13.4,-0.0
4.610759441,0.13181,13.600000000000001,0.316344,-0.36046,13.5,-0.865104,-0.76127,13.4,-1.827048,-0.0269,13.4,-0.06455999999999999,-0.00269,13.4,-0.006456,-0.0,13.4,-0.0,-0.0,13.4,-0.0
4.644325453,0.12374,13.600000000000001,0.296976,-0.36046,13.5,-0.865104,-0.7532,13.4,-1.80768,-0.02959,13.4,-0.071016,-0.00538,13.4,-0.012912,-0.0,13.4,-0.0,-0.0,13.4,-0.0
4.677530549,0.12105,13.600000000000001,0.29052,-0.36046,13.5,-0.865104,-0.7532,13.5,-1.80768,-0.024210000000000002,13.4,-0.058104,-0.00269,13.4,-0.006456,-0.0,13.4,-0.0,-0.0,13.4,-0.0
4.710599477,0.12105,13.600000000000001,0.29052,-0.36046,13.600000000000001,-0.865104,-0.7639600000000001,13.4,-1.833504,-0.03228,13.4,-0.077472,-0.00538,13.4,-0.012912,-0.0,13.4,-0.0,0.00269,13.4,0.006456
4.744267146,0.12643000000000001,13.600000000000001,0.30343200000000004,-0.36046,13.5,-0.865104,-0.7747200000000001,13.4,-1.859328,-0.03497,13.4,-0.083928,-0.00269,13.4,-0.006456,-0.00269,13.4,-0.006456,0.00269,13.4,0.006456
4.777992438,0.12374,13.600000000000001,0.296976,-0.36046,13.5,-0.865104,-0.76665,13.4,-1.83996,-0.03228,13.4,-0.077472,0.0,13.4,0.0,-0.0,13.4,-0.0,0.00269,13.4,0.006456
4.810692053,0.12643000000000001,13.600000000000001,0.30343200000000004,-0.35508,13.5,-0.852192,-0.7639600000000001,13.5,-1.833504,-0.0269,13.4,-0.06455999999999999,-0.00269,13.4,-0.006456,-0.0,13.4,-0.0,0.00269,13.4,0.006456
4.843405285,0.12105,13.600000000000001,0.29052,-0.36046,13.5,-0.865104,-0.7558900000000001,13.4,-1.814136,-0.0269,13.4,-0.06455999999999999,0.0,13.4,0.0,-0.0,13.4,-0.0,0.00269,13.4,0.006456
4.877681085,0.12105,13.600000000000001,0.29052,-0.36046,13.5,-0.865104,-0.7532,13.3,-1.80768,-0.0269,13.4,-0.06455999999999999,-0.00269,13.4,-0.006456,-0.0,13.4,-0.0,0.00269,13.4,0.006456
4.91073605,0.13988,13.600000000000001,0.335712,-0.35508,13.5,-0.852192,-0.75858,13.4,-1.820592,-0.024210000000000002,13.4,-0.058104,-0.00538,13.4,-0.012912,-0.0,13.4,-0.0,0.00269,13.4,0.006456
4.943708227,0.12105,13.600000000000001,0.29052,-0.36046,13.5,-0.865104,-0.7558900000000001,13.4,-1.814136,-0.04304,13.4,-0.103296,0.0,13.4,0.0,-0.0,13.4,-0.0,0.00269,13.4,0.006456
4.977691767,0.12105,13.600000000000001,0.29052,-0.36046,13.5,-0.865104,-0.7558900000000001,13.4,-1.814136,-0.0269,13.4,-0.06455999999999999,0.0,13.4,0.0,-0.0,13.4,-0.0,-0.0,13.4,-0.0
5.01073592,0.12105,13.600000000000001,0.29052,-0.36046,13.5,-0.865104,-0.76127,13.4,-1.827048,-0.03766,13.4,-0.09038399999999999,0.0,13.4,0.0,-0.0,13.4,-0.0,-0.0,13.4,-0.0
5.044651481,0.12105,13.600000000000001,0.29052,-0.36315000000000003,13.5,-0.87156,-0.7532,13.4,-1.80768,-0.0269,13.4,-0.06455999999999999,0.0,13.4,0.0,-0.0,13.4,-0.0,-0.0,13.4,-0.0
5.077707279,0.12643000000000001,13.600000000000001,0.30343200000000004,-0.36046,13.5,-0.865104,-0.7532,13.4,-1.80768,-0.0269,13.4,-0.06455999999999999,-0.00538,13.4,-0.012912,-0.0,13.4,-0.0,-0.0,13.4,-0.0
5.110486141,0.12643000000000001,13.600000000000001,0.30343200000000004,-0.36315000000000003,13.5,-0.87156,-0.7558900000000001,13.5,-1.814136,-0.03497,13.4,-0.083928,-0.00269,13.4,-0.006456,-0.0,13.4,-0.0,-0.0,13.4,-0.0
5.143395202,0.12912,13.600000000000001,0.309888,-0.36315000000000003,13.5,-0.87156,-0.7558900000000001,13.5,-1.814136,-0.0269,13.4,-0.06455999999999999,0.0,13.4,0.0,-0.0,13.4,-0.0,-0.0,13.4,-0.0
5.1774413,0.12105,13.600000000000001,0.29052,-0.36315000000000003,13.5,-0.87156,-0.76665,13.4,-1.83996,-0.0269,13.4,-0.06455999999999999,-0.00269,13.4,-0.006456,-0.0,13.4,-0.0,-0.0,13.4,-0.0
5.21057681,0.12105,13.600000000000001,0.29052,-0.36315000000000003,13.5,-0.87156,-0.7558900000000001,13.4,-1.814136,-0.02959,13.4,-0.071016,-0.00269,13.4,-0.006456,-0.0,13.4,-0.0,-0.0,13.4,-0.0
5.244540687,0.12912,13.600000000000001,0.309888,-0.36046,13.5,-0.865104,-0.7558900000000001,13.5,-1.814136,-0.03228,13.4,-0.077472,0.0,13.4,0.0,-0.0,13.4,-0.0,-0.0,13.4,-0.0
5.277245928,0.1345,13.600000000000001,0.32280000000000003,-0.36315000000000003,13.5,-0.87156,-0.7639600000000001,13.4,-1.833504,-0.03228,13.4,-0.077472,-0.00269,13.4,-0.006456,-0.0,13.3,-0.0,-0.0,13.4,-0.0
5.310279013,0.1345,13.600000000000001,0.32280000000000003,-0.36315000000000003,13.5,-0.87156,-0.7532,13.4,-1.80768,-0.040350000000000004,13.4,-0.09684000000000001,0.0,13.4,0.0,-0.0,13.4,-0.0,-0.0,13.4,-0.0
5.344689555,0.13719,13.600000000000001,0.329256,-0.35777000000000003,13.5,-0.8586480000000001,-0.76665,13.5,-1.83996,-0.02959,13.4,-0.071016,-0.00269,13.4,-0.006456,-0.0,13.4,-0.0,-0.0,13.4,-0.0
5.377277916,0.1345,13.600000000000001,0.32280000000000003,-0.36315000000000003,13.5,-0.87156,-0.7558900000000001,13.4,-1.814136,-0.03497,13.4,-0.083928,-0.00269,13.4,-0.006456,-0.0,13.4,-0.0,-0.0,13.4,-0.0
5.410161008,0.14526,13.600000000000001,0.348624,-0.36315000000000003,13.5,-0.87156,-0.77203,13.4,-1.8528719999999999,-0.03497,13.4,-0.083928,-0.00269,13.4,-0.006456,-0.0,13.4,-0.0,-0.0,13.4,-0.0
5.44485397,0.1345,13.600000000000001,0.32280000000000003,-0.36315000000000003,13.5,-0.87156,-0.7639600000000001,13.4,-1.833504,-0.0269,13.4,-0.06455999999999999,-0.00269,13.4,-0.006456,-0.0,13.4,-0.0,-0.0,13.4,-0.0
5.477325051,0.1345,13.600000000000001,0.32280000000000003,-0.36046,13.5,-0.865104,-0.7558900000000001,13.4,-1.814136,-0.048420000000000005,13.4,-0.116208,0.0,13.4,0.0,-0.0,13.4,-0.0,-0.0,13.4,-0.0
5.510222247,0.13719,13.600000000000001,0.329256,-0.36584,13.5,-0.878016,-0.76127,13.4,-1.827048,-0.03228,13.4,-0.077472,-0.00538,13.4,-0.012912,-0.0,13.4,-0.0,-0.0,13.4,-0.0
5.547524047,0.1345,13.600000000000001,0.32280000000000003,-0.36584,13.5,-0.878016,-0.76665,13.5,-1.83996,-0.0269,13.4,-0.06455999999999999,-0.00807,13.4,-0.019368,-0.0,13.4,-0.0,-0.0,13.4,-0.0
5.5770843,0.13719,13.600000000000001,0.329256,-0.36315000000000003,13.5,-0.87156,-0.7558900000000001,13.4,-1.814136,-0.0269,13.4,-0.06455999999999999,-0.00269,13.4,-0.006456,-0.0,13.4,-0.0,-0.0,13.4,-0.0
5.610564276,0.1345,13.600000000000001,0.32280000000000003,-0.35239000000000004,13.5,-0.845736,-0.75858,13.4,-1.820592,-0.03497,13.4,-0.083928,-0.00538,13.4,-0.012912,-0.0,13.4,-0.0,-0.0,13.4,-0.0
5.644148178,0.1345,13.600000000000001,0.32280000000000003,-0.36315000000000003,13.5,-0.87156,-0.7558900000000001,13.5,-1.814136,-0.03766,13.4,-0.09038399999999999,0.0,13.4,0.0,-0.0,13.4,-0.0,-0.0,13.4,-0.0
5.677396208,0.1345,13.600000000000001,0.32280000000000003,-0.36315000000000003,13.5,-0.87156,-0.76127,13.4,-1.827048,-0.0269,13.4,-0.06455999999999999,-0.00538,13.4,-0.012912,-0.0,13.4,-0.0,-0.0,13.4,-0.0
5.710735351,0.1345,13.600000000000001,0.32280000000000003,-0.35777000000000003,13.5,-0.8586480000000001,-0.7801,13.4,-1.87224,-0.03228,13.4,-0.077472,0.0,13.4,0.0,-0.0,13.4,-0.0,-0.0,13.4,-0.0
5.744321752,0.1345,13.600000000000001,0.32280000000000003,-0.36315000000000003,13.5,-0.87156,-0.75858,13.4,-1.820592,-0.040350000000000004,13.4,-0.09684000000000001,0.0,13.4,0.0,-0.0,13.4,-0.0,-0.0,13.4,-0.0
5.777157459,0.13719,13.600000000000001,0.329256,-0.36046,13.5,-0.865104,-0.7558900000000001,13.5,-1.814136,-0.03497,13.4,-0.083928,-0.00269,13.4,-0.006456,-0.0,13.4,-0.0,-0.0,13.4,-0.0
5.810320209,0.1345,13.600000000000001,0.32280000000000003,-0.36046,13.5,-0.865104,-0.7639600000000001,13.4,-1.833504,-0.02959,13.4,-0.071016,-0.00269,13.4,-0.006456,-0.0,13.4,-0.0,-0.0,13.4,-0.0
5.844214192,0.14526,13.600000000000001,0.348624,-0.35777000000000003,13.5,-0.8586480000000001,-0.7747200000000001,13.4,-1.859328,-0.040350000000000004,13.4,-0.09684000000000001,0.0,13.4,0.0,-0.0,13.4,-0.0,-0.0,13.4,-0.0
5.877546392,0.13719,13.600000000000001,0.329256,-0.35777000000000003,13.5,-0.8586480000000001,-0.76127,13.5,-1.827048,-0.03497,13.4,-0.083928,-0.00269,13.4,-0.006456,-0.0,13.4,-0.0,-0.0,13.4,-0.0
5.910264448,0.12912,13.600000000000001,0.309888,-0.36315000000000003,13.5,-0.87156,-0.7558900000000001,13.4,-1.814136,-0.0269,13.4,-0.06455999999999999,-0.00538,13.4,-0.012912,-0.0,13.4,-0.0,-0.0,13.4,-0.0
5.944092714,0.13988,13.600000000000001,0.335712,-0.35508,13.5,-0.852192,-0.76934,13.4,-1.846416,-0.0269,13.4,-0.06455999999999999,-0.00538,13.4,-0.012912,-0.0,13.4,-0.0,-0.0,13.4,-0.0
5.977227273,0.13719,13.600000000000001,0.329256,-0.36315000000000003,13.5,-0.87156,-0.7532,13.4,-1.80768,-0.0269,13.4,-0.06455999999999999,0.0,13.4,0.0,-0.0,13.4,-0.0,-0.0,13.4,-0.0
6.010250029,0.12105,13.600000000000001,0.29052,-0.36046,13.5,-0.865104,-0.7639600000000001,13.4,-1.833504,-0.0269,13.4,-0.06455999999999999,0.0,13.4,0.0,-0.0,13.4,-0.0,-0.0,13.4,-0.0
6.044259643,0.12105,13.600000000000001,0.29052,-0.35777000000000003,13.5,-0.8586480000000001,-0.7558900000000001,13.4,-1.814136,-0.02959,13.4,-0.071016,0.0,13.4,0.0,-0.0,13.4,-0.0,-0.0,13.4,-0.0
6.077365242,0.12105,13.600000000000001,0.29052,-0.36315000000000003,13.5,-0.87156,-0.7639600000000001,13.4,-1.833504,-0.0269,13.4,-0.06455999999999999,-0.00269,13.4,-0.006456,-0.0,13.4,-0.0,-0.0,13.4,-0.0
6.110018063,0.12105,13.600000000000001,0.29052,-0.35777000000000003,13.5,-0.8586480000000001,-0.7558900000000001,13.4,-1.814136,-0.0269,13.4,-0.06455999999999999,0.0,13.4,0.0,-0.0,13.4,-0.0,-0.0,13.4,-0.0
6.144187792,0.12105,13.600000000000001,0.29052,-0.36046,13.5,-0.865104,-0.7639600000000001,13.4,-1.833504,-0.02959,13.4,-0.071016,0.0,13.4,0.0,-0.0,13.4,-0.0,-0.0,13.4,-0.0
6.177098242,0.12105,13.600000000000001,0.29052,-0.36315000000000003,13.5,-0.87156,-0.76127,13.5,-1.827048,-0.0269,13.4,-0.06455999999999999,0.0,13.4,0.0,-0.0,13.4,-0.0,-0.0,13.4,-0.0
6.209943884,0.12374,13.600000000000001,0.296976,-0.36315000000000003,13.5,-0.87156,-0.7558900000000001,13.4,-1.814136,-0.02959,13.4,-0.071016,0.0,13.4,0.0,-0.0,13.4,-0.0,-0.0,13.4,-0.0
6.244215569,0.12105,13.600000000000001,0.29052,-0.36046,13.600000000000001,-0.865104,-0.76665,13.3,-1.83996,-0.02959,13.4,-0.071016,-0.00538,13.4,-0.012912,-0.0,13.4,-0.0,-0.0,13.4,-0.0
6.277023664,0.12374,13.600000000000001,0.296976,-0.36046,13.600000000000001,-0.865104,-0.7801,13.4,-1.87224,-0.03228,13.4,-0.077472,0.0,13.4,0.0,-0.0,13.4,-0.0,-0.0,13.4,-0.0
6.310184204,0.12374,13.600000000000001,0.296976,-0.36315000000000003,13.600000000000001,-0.87156,-0.7558900000000001,13.4,-1.814136,-0.024210000000000002,13.4,-0.058104,0.0,13.4,0.0,-0.0,13.4,-0.0,-0.0,13.4,-0.0
6.344252992,0.12105,13.600000000000001,0.29052,-0.36315000000000003,13.5,-0.87156,-0.7558900000000001,13.5,-1.814136,-0.03766,13.4,-0.09038399999999999,0.0,13.4,0.0,-0.0,13.4,-0.0,-0.0,13.4,-0.0
6.376814989,0.12105,13.600000000000001,0.29052,-0.36315000000000003,13.5,-0.87156,-0.7558900000000001,13.4,-1.814136,-0.03228,13.4,-0.077472,-0.00269,13.4,-0.006456,-0.0,13.4,-0.0,-0.0,13.4,-0.0
6.410220949,0.12105,13.600000000000001,0.29052,-0.35508,13.5,-0.852192,-0.76934,13.5,-1.846416,-0.040350000000000004,13.4,-0.09684000000000001,0.0,13.4,0.0,-0.0,13.4,-0.0,-0.0,13.4,-0.0
6.444238812,0.12374,13.600000000000001,0.296976,-0.36046,13.5,-0.865104,-0.75858,13.5,-1.820592,-0.040350000000000004,13.4,-0.09684000000000001,0.0,13.4,0.0,-0.0,13.4,-0.0,-0.0,13.4,-0.0
6.477216423,0.12105,13.600000000000001,0.29052,-0.36046,13.5,-0.865104,-0.7639600000000001,13.4,-1.833504,-0.0269,13.4,-0.06455999999999999,0.0,13.4,0.0,-0.0,13.4,-0.0,-0.0,13.4,-0.0
6.510042047,0.12105,13.600000000000001,0.29052,-0.36046,13.5,-0.865104,-0.7558900000000001,13.4,-1.814136,-0.03766,13.4,-0.09038399999999999,-0.00269,13.4,-0.006456,-0.0,13.4,-0.0,-0.0,13.4,-0.0
6.544369278,0.12105,13.600000000000001,0.29052,-0.36315000000000003,13.5,-0.87156,-0.7532,13.5,-1.80768,-0.04304,13.4,-0.103296,0.0,13.4,0.0,-0.0,13.4,-0.0,-0.0,13.4,-0.0
6.577086455,0.12105,13.600000000000001,0.29052,-0.36046,13.5,-0.865104,-0.75858,13.5,-1.820592,-0.0269,13.4,-0.06455999999999999,0.0,13.4,0.0,-0.0,13.4,-0.0,-0.0,13.4,-0.0
6.610072033,0.12105,13.600000000000001,0.29052,-0.36315000000000003,13.5,-0.87156,-0.76127,13.4,-1.827048,-0.04573,13.4,-0.109752,-0.00269,13.4,-0.006456,-0.0,13.4,-0.0,-0.0,13.4,-0.0
6.644733368,0.12105,13.600000000000001,0.29052,-0.35777000000000003,13.5,-0.8586480000000001,-0.76127,13.4,-1.827048,-0.0269,13.4,-0.06455999999999999,-0.00538,13.4,-0.012912,-0.0,13.4,-0.0,-0.0,13.4,-0.0
6.677488743,0.12105,13.600000000000001,0.29052,-0.36046,13.5,-0.865104,-0.76665,13.4,-1.83996,-0.03497,13.4,-0.083928,0.0,13.4,0.0,-0.0,13.4,-0.0,-0.0,13.4,-0.0
6.710148663,0.12374,13.600000000000001,0.296976,-0.36315000000000003,13.5,-0.87156,-0.76665,13.4,-1.83996,-0.040350000000000004,13.4,-0.09684000000000001,-0.00538,13.4,-0.012912,-0.0,13.4,-0.0,-0.0,13.4,-0.0
6.743991272,0.12105,13.600000000000001,0.29052,-0.35777000000000003,13.5,-0.8586480000000001,-0.7558900000000001,13.4,-1.814136,-0.03766,13.4,-0.09038399999999999,0.0,13.4,0.0,-0.0,13.4,-0.0,-0.0,13.4,-0.0
6.777022791,0.12105,13.600000000000001,0.29052,-0.36315000000000003,13.5,-0.87156,-0.7558900000000001,13.4,-1.814136,-0.03766,13.4,-0.09038399999999999,0.0,13.4,0.0,-0.00538,13.4,-0.012912,-0.0,13.4,-0.0
6.809904314,0.12374,13.600000000000001,0.296976,-0.36046,13.600000000000001,-0.865104,-0.7558900000000001,13.4,-1.814136,-0.02959,13.4,-0.071016,0.0,13.4,0.0,-0.0,13.4,-0.0,-0.0,13.4,-0.0
6.84391004,0.12105,13.600000000000001,0.29052,-0.36046,13.600000000000001,-0.865104,-0.7801,13.5,-1.87224,-0.03766,13.4,-0.09038399999999999,0.0,13.4,0.0,-0.0,13.4,-0.0,-0.0,13.4,-0.0
6.876844496,0.12643000000000001,13.600000000000001,0.30343200000000004,-0.35508,13.5,-0.852192,-0.76127,13.4,-1.827048,-0.04573,13.4,-0.109752,0.0,13.4,0.0,-0.0,13.4,-0.0,-0.0,13.4,-0.0
6.909957274,0.12105,13.600000000000001,0.29052,-0.36315000000000003,13.5,-0.87156,-0.7558900000000001,13.4,-1.814136,-0.04304,13.4,-0.103296,0.0,13.4,0.0,-0.0,13.4,-0.0,-0.0,13.4,-0.0
6.944175115,0.12105,13.600000000000001,0.29052,-0.36315000000000003,13.5,-0.87156,-0.77203,13.4,-1.8528719999999999,-0.03228,13.4,-0.077472,-0.00269,13.4,-0.006456,-0.0,13.4,-0.0,-0.0,13.4,-0.0
6.976952618,0.12105,13.600000000000001,0.29052,-0.36315000000000003,13.5,-0.87156,-0.7558900000000001,13.4,-1.814136,-0.0269,13.4,-0.06455999999999999,-0.00269,13.4,-0.006456,-0.0,13.4,-0.0,-0.0,13.4,-0.0
7.009959203,0.12105,13.600000000000001,0.29052,-0.36315000000000003,13.5,-0.87156,-0.76665,13.4,-1.83996,-0.0269,13.4,-0.06455999999999999,0.0,13.4,0.0,-0.0,13.4,-0.0,-0.0,13.4,-0.0
7.044156821,0.12105,13.600000000000001,0.29052,-0.36315000000000003,13.5,-0.87156,-0.76665,13.4,-1.83996,-0.0269,13.4,-0.06455999999999999,0.0,13.4,0.0,-0.0,13.4,-0.0,-0.0,13.4,-0.0
7.078413275,0.12105,13.600000000000001,0.29052,-0.36315000000000003,13.600000000000001,-0.87156,-0.76665,13.5,-1.83996,-0.0269,13.4,-0.06455999999999999,0.0,13.4,0.0,-0.0,13.4,-0.0,-0.0,13.4,-0.0
7.110008177,0.12105,13.600000000000001,0.29052,-0.36315000000000003,13.600000000000001,-0.87156,-0.76665,13.4,-1.83996,-0.03228,13.4,-0.077472,0.0,13.4,0.0,-0.0,13.4,-0.0,-0.0,13.4,-0.0
7.143795635,0.12105,13.600000000000001,0.29052,-0.36046,13.5,-0.865104,-0.7558900000000001,13.4,-1.814136,-0.0269,13.4,-0.06455999999999999,-0.00269,13.4,-0.006456,-0.00269,13.4,-0.006456,-0.0,13.4,-0.0
7.177261133,0.12912,13.600000000000001,0.309888,-0.36046,13.600000000000001,-0.865104,-0.7639600000000001,13.4,-1.833504,-0.0269,13.4,-0.06455999999999999,-0.00269,13.4,-0.006456,-0.0,13.4,-0.0,-0.0,13.4,-0.0
7.210088637,0.12105,13.600000000000001,0.29052,-0.36315000000000003,13.5,-0.87156,-0.7639600000000001,13.4,-1.833504,-0.0269,13.4,-0.06455999999999999,0.0,13.4,0.0,-0.0,13.4,-0.0,-0.0,13.4,-0.0
7.24391546,0.12105,13.600000000000001,0.29052,-0.36046,13.600000000000001,-0.865104,-0.7558900000000001,13.4,-1.814136,-0.04304,13.4,-0.103296,0.0,13.4,0.0,-0.0,13.4,-0.0,-0.0,13.4,-0.0
7.277256496,0.12105,13.600000000000001,0.29052,-0.35239000000000004,13.600000000000001,-0.845736,-0.7801,13.4,-1.87224,-0.03766,13.4,-0.09038399999999999,0.0,13.4,0.0,-0.0,13.4,-0.0,-0.0,13.4,-0.0
7.311338894,0.12105,13.600000000000001,0.29052,-0.36315000000000003,13.600000000000001,-0.87156,-0.75858,13.5,-1.820592,-0.0269,13.4,-0.06455999999999999,-0.00269,13.4,-0.006456,-0.0,13.4,-0.0,-0.0,13.4,-0.0
7.344974544,0.12105,13.600000000000001,0.29052,-0.36046,13.600000000000001,-0.865104,-0.7639600000000001,13.5,-1.833504,-0.03766,13.4,-0.09038399999999999,0.0,13.4,0.0,-0.0,13.4,-0.0,-0.0,13.4,-0.0
7.377102339,0.12105,13.600000000000001,0.29052,-0.36315000000000003,13.600000000000001,-0.87156,-0.7558900000000001,13.5,-1.814136,-0.0538,13.4,-0.12911999999999998,0.0,13.4,0.0,-0.0,13.3,-0.0,-0.0,13.4,-0.0
7.410766373,0.12105,13.600000000000001,0.29052,-0.36315000000000003,13.5,-0.87156,-0.7532,13.4,-1.80768,-0.03766,13.4,-0.09038399999999999,0.0,13.4,0.0,-0.0,13.4,-0.0,-0.0,13.4,-0.0
7.443981125,0.12105,13.600000000000001,0.29052,-0.36315000000000003,13.5,-0.87156,-0.77203,13.4,-1.8528719999999999,-0.04304,13.4,-0.103296,0.0,13.4,0.0,-0.0,13.4,-0.0,-0.0,13.4,-0.0
7.476852362,0.12374,13.600000000000001,0.296976,-0.36315000000000003,13.5,-0.87156,-0.7558900000000001,13.4,-1.814136,-0.02959,13.4,-0.071016,0.0,13.4,0.0,-0.00269,13.4,-0.006456,-0.0,13.4,-0.0
7.510874875,0.12105,13.600000000000001,0.29052,-0.36046,13.5,-0.865104,-0.7639600000000001,13.4,-1.833504,-0.04304,13.4,-0.103296,0.0,13.4,0.0,-0.0,13.4,-0.0,-0.0,13.4,-0.0
7.543954573,0.12105,13.600000000000001,0.29052,-0.36315000000000003,13.5,-0.87156,-0.75858,13.4,-1.820592,-0.03497,13.4,-0.083928,-0.00538,13.4,-0.012912,-0.0,13.4,-0.0,-0.0,13.4,-0.0
7.576467552,0.12105,13.600000000000001,0.29052,-0.36315000000000003,13.5,-0.87156,-0.76127,13.4,-1.827048,-0.05918,13.4,-0.142032,0.0,13.4,0.0,-0.0,13.4,-0.0,-0.0,13.4,-0.0
7.610817614,0.13181,13.600000000000001,0.316344,-0.36315000000000003,13.600000000000001,-0.87156,-0.7532,13.5,-1.80768,-0.0269,13.4,-0.06455999999999999,0.0,13.4,0.0,-0.0,13.4,-0.0,-0.0,13.4,-0.0
7.645539742,0.12105,13.600000000000001,0.29052,-0.36046,13.5,-0.865104,-0.7532,13.4,-1.80768,-0.04573,13.4,-0.109752,0.0,13.4,0.0,-0.0,13.4,-0.0,-0.0,13.4,-0.0
7.67702577,0.12105,13.600000000000001,0.29052,-0.36315000000000003,13.5,-0.87156,-0.7558900000000001,13.4,-1.814136,-0.024210000000000002,13.4,-0.058104,-0.00538,13.4,-0.012912,-0.0,13.4,-0.0,-0.0,13.4,-0.0
7.710614156,0.02959,13.700000000000001,0.071016,-0.25017,13.600000000000001,-0.6004079999999999,-0.28514,13.5,-0.6843359999999999,-0.03228,13.5,-0.077472,0.0,13.5,0.0,-0.0,13.5,-0.0,-0.0,13.5,-0.0
7.747771844,0.02152,13.700000000000001,0.051648,-0.34163,13.600000000000001,-0.819912,-0.30128,13.5,-0.7230719999999999,-0.03497,13.5,-0.083928,0.0,13.5,0.0,-0.0,13.5,-0.0,-0.0,13.5,-0.0
7.777327797,0.01076,13.700000000000001,0.025824,-0.32011,13.600000000000001,-0.768264,-0.29321,13.5,-0.703704,-0.09684000000000001,13.5,-0.232416,0.0,13.5,0.0,-0.0,13.5,-0.0,-0.0,13.5,-0.0
7.811882061,0.01614,13.700000000000001,0.038736,-0.39812000000000003,13.600000000000001,-0.955488,-0.36584,13.600000000000001,-0.878016,-0.10491,13.5,-0.251784,0.0,13.5,0.0,-0.0,13.5,-0.0,-0.0,13.5,-0.0
7.844305581,0.01883,13.700000000000001,0.045191999999999996,-0.45192000000000004,13.600000000000001,-1.084608,-0.42233000000000004,13.5,-1.013592,-0.11836,13.5,-0.284064,0.0,13.5,0.0,-0.0,13.5,-0.0,-0.0,13.5,-0.0
7.877269362,0.01345,13.700000000000001,0.032279999999999996,-0.4842,13.600000000000001,-1.16208,-0.46268000000000004,13.5,-1.110432,-0.10222,13.5,-0.245328,0.0,13.5,0.0,-0.0,13.5,-0.0,-0.0,13.5,-0.0
7.910617798,0.01076,13.700000000000001,0.025824,-0.41426,13.600000000000001,-0.994224,-0.47075,13.5,-1.1298,-0.11298000000000001,13.5,-0.271152,0.0,13.5,0.0,-0.0,13.5,-0.0,-0.0,13.5,-0.0
7.94354514,0.00807,13.700000000000001,0.019368,-0.42233000000000004,13.600000000000001,-1.013592,-0.538,13.5,-1.2912000000000001,-0.11029,13.4,-0.264696,0.0,13.5,0.0,-0.0,13.5,-0.0,-0.0,13.5,-0.0
7.976676656,0.00807,13.700000000000001,0.019368,-0.31742000000000004,13.600000000000001,-0.761808,-0.61332,13.5,-1.471968,-0.12374,13.5,-0.296976,0.0,13.5,0.0,-0.0,13.5,-0.0,-0.0,13.5,-0.0
8.010580013,0.00807,13.700000000000001,0.019368,-0.32280000000000003,13.600000000000001,-0.7747200000000001,-0.63215,13.5,-1.5171599999999998,-0.11029,13.4,-0.264696,0.0,13.5,0.0,-0.0,13.5,-0.0,-0.0,13.5,-0.0
8.043627901,0.01076,13.700000000000001,0.025824,-0.35777000000000003,13.600000000000001,-0.8586480000000001,-0.6644300000000001,13.4,-1.594632,-0.1345,13.4,-0.32280000000000003,0.0,13.4,0.0,-0.0,13.5,-0.0,-0.0,13.4,-0.0
8.076563216,0.01076,13.700000000000001,0.025824,-0.39274000000000003,13.600000000000001,-0.9425760000000001,-0.7236100000000001,13.4,-1.7366640000000002,-0.11836,13.4,-0.284064,0.0,13.4,0.0,-0.0,13.4,-0.0,-0.0,13.4,-0.0
8.110785475,0.01076,13.700000000000001,0.025824,-0.41157,13.600000000000001,-0.987768,-0.73168,13.4,-1.756032,-0.13181,13.4,-0.316344,0.0,13.4,0.0,-0.0,13.4,-0.0,-0.0,13.4,-0.0
8.143545477,0.00807,13.700000000000001,0.019368,-0.41426,13.600000000000001,-0.994224,-0.71823,13.4,-1.723752,-0.14795,13.4,-0.35508,0.0,13.4,0.0,-0.0,13.4,-0.0,-0.0,13.4,-0.0
8.17648296,0.00538,13.700000000000001,0.012912,-0.44116,13.600000000000001,-1.058784,-0.65905,13.3,-1.58172,-0.13719,13.4,-0.329256,0.0,13.4,0.0,-0.0,13.3,-0.0,-0.0,13.4,-0.0
8.210340808,0.05111,13.700000000000001,0.122664,-0.39005,13.600000000000001,-0.93612,-0.66712,13.4,-1.601088,-0.12105,13.3,-0.29052,0.0,13.4,0.0,-0.0,13.4,-0.0,-0.0,13.3,-0.0
8.243487751,0.06456,13.600000000000001,0.154944,-0.4304,13.600000000000001,-1.0329599999999999,-0.6725,13.4,-1.6139999999999999,-0.13181,13.4,-0.316344,0.0,13.4,0.0,-0.0,13.4,-0.0,-0.0,13.4,-0.0
8.276824806,0.07263,13.600000000000001,0.174312,-0.42233000000000004,13.5,-1.013592,-0.65636,13.4,-1.575264,-0.13181,13.3,-0.316344,-0.00269,13.3,-0.006456,-0.0,13.4,-0.0,-0.0,13.3,-0.0
8.310481288,0.07263,13.600000000000001,0.174312,-0.48958,13.5,-1.174992,-0.6456000000000001,13.3,-1.5494400000000002,-0.14526,13.4,-0.348624,0.0,13.4,0.0,-0.0,13.4,-0.0,-0.0,13.4,-0.0
8.343367895,0.07263,13.600000000000001,0.174312,-0.42771000000000003,13.5,-1.026504,-0.64291,13.4,-1.542984,-0.15602000000000002,13.3,-0.37444800000000006,0.0,13.3,0.0,-0.0,13.4,-0.0,-0.0,13.3,-0.0
8.376557551,0.06994,13.600000000000001,0.167856,-0.48689000000000004,13.5,-1.168536,-0.65098,13.4,-1.562352,-0.13181,13.3,-0.316344,0.0,13.3,0.0,-0.0,13.3,-0.0,-0.0,13.3,-0.0
8.410426877,0.06994,13.600000000000001,0.167856,-0.47882,13.5,-1.149168,-0.63215,13.4,-1.5171599999999998,-0.13719,13.3,-0.329256,0.0,13.4,0.0,-0.0,13.3,-0.0,-0.0,13.4,-0.0
8.444094792,0.08877,13.600000000000001,0.213048,-0.48151,13.5,-1.155624,-0.6859500000000001,13.4,-1.6462800000000002,-0.13988,13.3,-0.335712,0.0,13.3,0.0,-0.0,13.3,-0.0,-0.0,13.3,-0.0
8.476296025,0.10491,13.600000000000001,0.251784,-0.5353100000000001,13.5,-1.284744,-0.6751900000000001,13.4,-1.6204560000000001,-0.1345,13.3,-0.32280000000000003,0.0,13.3,0.0,-0.0,13.4,-0.0,-0.0,13.3,-0.0
8.510172937,0.11567000000000001,13.600000000000001,0.277608,-0.58373,13.5,-1.400952,-0.64829,13.4,-1.555896,-0.12643000000000001,13.4,-0.30343200000000004,0.0,13.3,0.0,-0.0,13.3,-0.0,-0.0,13.3,-0.0
8.543239171,0.11567000000000001,13.600000000000001,0.277608,-0.5649000000000001,13.5,-1.35576,-0.6725,13.3,-1.6139999999999999,-0.12105,13.4,-0.29052,0.0,13.3,0.0,-0.0,13.4,-0.0,-0.0,13.3,-0.0
8.576162065,0.11567000000000001,13.600000000000001,0.277608,-0.58104,13.5,-1.394496,-0.68864,13.4,-1.652736,-0.12374,13.4,-0.296976,0.0,13.3,0.0,-0.0,13.4,-0.0,-0.0,13.4,-0.0
8.610265072,0.11567000000000001,13.600000000000001,0.277608,-0.56759,13.5,-1.362216,-0.69671,13.4,-1.672104,-0.08877,13.4,-0.213048,0.0,13.3,0.0,-0.0,13.4,-0.0,-0.0,13.4,-0.0
8.643286108,0.11567000000000001,13.600000000000001,0.277608,-0.52993,13.5,-1.271832,-0.7747200000000001,13.5,-1.859328,-0.09415,13.3,-0.22596,0.0,13.3,0.0,-0.0,13.4,-0.0,-0.0,13.4,-0.0
8.676305385,0.13719,13.600000000000001,0.329256,-0.52724,13.5,-1.265376,-0.70209,13.3,-1.6850159999999998,-0.10491,13.4,-0.251784,-0.00269,13.3,-0.006456,-0.0,13.4,-0.0,-0.0,13.4,-0.0
8.710423589,0.15602000000000002,13.600000000000001,0.37444800000000006,-0.53262,13.5,-1.2782879999999999,-0.7558900000000001,13.4,-1.814136,-0.08339,13.3,-0.200136,0.0,13.3,0.0,-0.0,13.4,-0.0,-0.0,13.3,-0.0
8.743572035,0.15602000000000002,13.600000000000001,0.37444800000000006,-0.54876,13.5,-1.317024,-0.7451300000000001,13.4,-1.7883120000000001,-0.11836,13.4,-0.284064,0.0,13.3,0.0,-0.0,13.4,-0.0,-0.0,13.3,-0.0
8.776090507,0.15602000000000002,13.600000000000001,0.37444800000000006,-0.60256,13.5,-1.4461439999999999,-0.7343700000000001,13.4,-1.762488,-0.09953000000000001,13.4,-0.238872,0.0,13.3,0.0,-0.0,13.4,-0.0,-0.0,13.3,-0.0
8.810328364,0.16140000000000002,13.600000000000001,0.38736000000000004,-0.5353100000000001,13.5,-1.284744,-0.70209,13.3,-1.6850159999999998,-0.08608,13.4,-0.206592,0.0,13.3,0.0,-0.0,13.4,-0.0,-0.0,13.3,-0.0
8.843449149,0.14795,13.600000000000001,0.35508,-0.65636,13.5,-1.575264,-0.70747,13.4,-1.697928,-0.09953000000000001,13.4,-0.238872,0.0,13.3,0.0,-0.0,13.4,-0.0,-0.0,13.3,-0.0
8.876684775,0.14257,13.600000000000001,0.34216799999999997,-0.6187,13.5,-1.48488,-0.6940200000000001,13.4,-1.6656480000000002,-0.09146,13.4,-0.219504,0.0,13.3,0.0,-0.0,13.4,-0.0,-0.0,13.4,-0.0
8.910380613,0.15064,13.600000000000001,0.36153599999999997,-0.62946,13.5,-1.510704,-0.7236100000000001,13.4,-1.7366640000000002,-0.08339,13.4,-0.200136,-0.00269,13.3,-0.006456,-0.0,13.4,-0.0,-0.0,13.4,-0.0
8.943137253,0.13988,13.600000000000001,0.335712,-0.6160100000000001,13.5,-1.4784240000000002,-0.76127,13.4,-1.827048,-0.06725,13.4,-0.16140000000000002,0.0,13.3,0.0,-0.00269,13.4,-0.006456,-0.0,13.4,-0.0
8.975935695,0.14795,13.600000000000001,0.35508,-0.61332,13.5,-1.471968,-0.77741,13.4,-1.865784,-0.07532,13.4,-0.18076799999999998,0.0,13.3,0.0,-0.0,13.4,-0.0,-0.0,13.4,-0.0
9.01032994,0.14257,13.600000000000001,0.34216799999999997,-0.61063,13.5,-1.465512,-0.76127,13.4,-1.827048,-0.08877,13.4,-0.213048,-0.00269,13.3,-0.006456,-0.0,13.4,-0.0,-0.0,13.4,-0.0
9.043035485,0.13988,13.600000000000001,0.335712,-0.6456000000000001,13.5,-1.5494400000000002,-0.7558900000000001,13.4,-1.814136,-0.06187,13.4,-0.148488,0.0,13.3,0.0,-0.0,13.4,-0.0,-0.0,13.4,-0.0
9.076280917,0.15602000000000002,13.600000000000001,0.37444800000000006,-0.6725,13.5,-1.6139999999999999,-0.83121,13.4,-1.994904,-0.06187,13.4,-0.148488,0.0,13.3,0.0,-0.0,13.4,-0.0,-0.0,13.4,-0.0
9.109905203,0.13719,13.600000000000001,0.329256,-0.62946,13.4,-1.510704,-0.85004,13.3,-2.040096,-0.07263,13.3,-0.174312,-0.00269,13.3,-0.006456,-0.0,13.4,-0.0,-0.0,13.4,-0.0
9.14302468,0.15333,13.600000000000001,0.367992,-0.61063,13.5,-1.465512,-0.85004,13.4,-2.040096,-0.07263,13.4,-0.174312,-0.00538,13.3,-0.012912,-0.0,13.4,-0.0,-0.0,13.4,-0.0
9.176237625,0.14257,13.600000000000001,0.34216799999999997,-0.6187,13.5,-1.48488,-0.85004,13.4,-2.040096,-0.08070000000000001,13.4,-0.19368000000000002,0.0,13.3,0.0,-0.0,13.4,-0.0,-0.0,13.3,-0.0
9.210069224,0.12643000000000001,13.600000000000001,0.30343200000000004,-0.66981,13.5,-1.607544,-0.8446600000000001,13.4,-2.027184,-0.06456,13.3,-0.154944,0.0,13.3,0.0,-0.0,13.4,-0.0,-0.0,13.3,-0.0
9.243015472,0.12912,13.600000000000001,0.309888,-0.66712,13.5,-1.601088,-0.8446600000000001,13.3,-2.027184,-0.07801000000000001,13.3,-0.18722400000000003,0.0,13.3,0.0,-0.0,13.3,-0.0,-0.0,13.3,-0.0
9.276181421,0.14257,13.600000000000001,0.34216799999999997,-0.66981,13.5,-1.607544,-0.84197,13.4,-2.020728,-0.08070000000000001,13.3,-0.19368000000000002,-0.00269,13.3,-0.006456,-0.0,13.3,-0.0,-0.0,13.3,-0.0
9.310045397,0.13988,13.600000000000001,0.335712,-0.6725,13.5,-1.6139999999999999,-0.8446600000000001,13.5,-2.027184,-0.08070000000000001,13.4,-0.19368000000000002,-0.00269,13.3,-0.006456,-0.0,13.3,-0.0,-0.0,13.3,-0.0
9.342941938,0.14257,13.600000000000001,0.34216799999999997,-0.66981,13.5,-1.607544,-0.8446600000000001,13.4,-2.027184,-0.08070000000000001,13.3,-0.19368000000000002,0.0,13.3,0.0,-0.0,13.3,-0.0,-0.0,13.3,-0.0
9.376017407,0.12374,13.600000000000001,0.296976,-0.6725,13.4,-1.6139999999999999,-0.8446600000000001,13.4,-2.027184,-0.08070000000000001,13.3,-0.19368000000000002,0.0,13.3,0.0,-0.0,13.3,-0.0,-0.0,13.3,-0.0
9.410130031,0.13181,13.600000000000001,0.316344,-0.6725,13.5,-1.6139999999999999,-0.8446600000000001,13.4,-2.027184,-0.08339,13.4,-0.200136,0.0,13.3,0.0,-0.0,13.3,-0.0,-0.0,13.3,-0.0
9.443259869,0.12912,13.600000000000001,0.309888,-0.6725,13.5,-1.6139999999999999,-0.8446600000000001,13.4,-2.027184,-0.08339,13.4,-0.200136,-0.00269,13.3,-0.006456,-0.0,13.3,-0.0,-0.0,13.3,-0.0
9.476404117,0.12374,13.600000000000001,0.296976,-0.6725,13.5,-1.6139999999999999,-0.8446600000000001,13.4,-2.027184,-0.08339,13.3,-0.200136,0.0,13.3,0.0,-0.0,13.3,-0.0,-0.0,13.3,-0.0
9.509812532,0.14257,13.5,0.34216799999999997,-0.65905,13.5,-1.58172,-0.8446600000000001,13.4,-2.027184,-0.08608,13.3,-0.206592,0.0,13.3,0.0,-0.0,13.3,-0.0,-0.0,13.3,-0.0
9.543095731,0.1345,13.600000000000001,0.32280000000000003,-0.6725,13.5,-1.6139999999999999,-0.8446600000000001,13.4,-2.027184,-0.08070000000000001,13.4,-0.19368000000000002,0.0,13.3,0.0,-0.0,13.3,-0.0,-0.0,13.3,-0.0
9.575981649,0.13988,13.600000000000001,0.335712,-0.66174,13.5,-1.588176,-0.8446600000000001,13.4,-2.027184,-0.08070000000000001,13.4,-0.19368000000000002,0.0,13.3,0.0,-0.0,13.3,-0.0,-0.0,13.3,-0.0
9.610044345,0.13988,13.600000000000001,0.335712,-0.66981,13.5,-1.607544,-0.85004,13.3,-2.040096,-0.08339,13.4,-0.200136,0.0,13.3,0.0,-0.0,13.3,-0.0,-0.0,13.3,-0.0
9.643007212,0.14257,13.600000000000001,0.34216799999999997,-0.66712,13.4,-1.601088,-0.85004,13.4,-2.040096,-0.08070000000000001,13.4,-0.19368000000000002,-0.00269,13.3,-0.006456,-0.0,13.3,-0.0,0.00269,13.3,0.006456
9.676096915,0.12912,13.600000000000001,0.309888,-0.6725,13.5,-1.6139999999999999,-0.85004,13.4,-2.040096,-0.08070000000000001,13.3,-0.19368000000000002,-0.00269,13.3,-0.006456,-0.0,13.3,-0.0,0.00269,13.3,0.006456
9.709968556,0.14795,13.600000000000001,0.35508,-0.65636,13.5,-1.575264,-0.85004,13.4,-2.040096,-0.08070000000000001,13.4,-0.19368000000000002,0.0,13.3,0.0,-0.0,13.3,-0.0,-0.0,13.3,-0.0
9.742920443,0.14795,13.600000000000001,0.35508,-0.6725,13.5,-1.6139999999999999,-0.8446600000000001,13.4,-2.027184,-0.08070000000000001,13.3,-0.19368000000000002,0.0,13.3,0.0,-0.0,13.3,-0.0,-0.0,13.3,-0.0
9.776155873,0.14257,13.600000000000001,0.34216799999999997,-0.6725,13.5,-1.6139999999999999,-0.8446600000000001,13.4,-2.027184,-0.08339,13.4,-0.200136,-0.00269,13.3,-0.006456,-0.0,13.3,-0.0,-0.0,13.3,-0.0
9.810054705,0.13719,13.600000000000001,0.329256,-0.6725,13.5,-1.6139999999999999,-0.8446600000000001,13.4,-2.027184,-0.08877,13.3,-0.213048,0.0,13.3,0.0,-0.0,13.3,-0.0,-0.0,13.3,-0.0
9.843081724,0.13719,13.600000000000001,0.329256,-0.6644300000000001,13.5,-1.594632,-0.85004,13.4,-2.040096,-0.08608,13.3,-0.206592,-0.00269,13.3,-0.006456,-0.0,13.3,-0.0,-0.0,13.3,-0.0
9.876925294,0.12374,13.600000000000001,0.296976,-0.6725,13.5,-1.6139999999999999,-0.85004,13.4,-2.040096,-0.08070000000000001,13.4,-0.19368000000000002,0.0,13.3,0.0,-0.0,13.3,-0.0,-0.0,13.3,-0.0
9.910091487,0.13988,13.600000000000001,0.335712,-0.6725,13.5,-1.6139999999999999,-0.85004,13.4,-2.040096,-0.08339,13.4,-0.200136,0.0,13.3,0.0,-0.0,13.3,-0.0,-0.0,13.3,-0.0
9.942844099,0.13988,13.600000000000001,0.335712,-0.6725,13.5,-1.6139999999999999,-0.85004,13.4,-2.040096,-0.08070000000000001,13.3,-0.19368000000000002,0.0,13.3,0.0,-0.0,13.3,-0.0,-0.0,13.3,-0.0
9.976765897,0.13988,13.600000000000001,0.335712,-0.6644300000000001,13.5,-1.594632,-0.85004,13.4,-2.040096,-0.08339,13.3,-0.200136,0.0,13.3,0.0,-0.0,13.3,-0.0,-0.0,13.3,-0.0
10.009966217,0.14257,13.600000000000001,0.34216799999999997,-0.6725,13.5,-1.6139999999999999,-0.84735,13.4,-2.03364,-0.08070000000000001,13.4,-0.19368000000000002,0.0,13.3,0.0,-0.0,13.3,-0.0,-0.0,13.3,-0.0
10.042965945,0.12912,13.600000000000001,0.309888,-0.66981,13.5,-1.607544,-0.84735,13.4,-2.03364,-0.08070000000000001,13.4,-0.19368000000000002,-0.00269,13.3,-0.006456,-0.0,13.3,-0.0,-0.0,13.3,-0.0
10.077082656,0.12912,13.600000000000001,0.309888,-0.6644300000000001,13.5,-1.594632,-0.84735,13.4,-2.03364,-0.08070000000000001,13.3,-0.19368000000000002,-0.00269,13.3,-0.006456,-0.0,13.3,-0.0,-0.0,13.3,-0.0
10.10985718,0.13719,13.600000000000001,0.329256,-0.65905,13.4,-1.58172,-0.84735,13.3,-2.03364,-0.08070000000000001,13.3,-0.19368000000000002,-0.00269,13.3,-0.006456,-0.0,13.3,-0.0,-0.0,13.3,-0.0
10.143081154,0.14257,13.600000000000001,0.34216799999999997,-0.6725,13.5,-1.6139999999999999,-0.84735,13.4,-2.03364,-0.08070000000000001,13.3,-0.19368000000000002,0.0,13.3,0.0,-0.0,13.3,-0.0,-0.0,13.3,-0.0
10.17687741,0.12374,13.600000000000001,0.296976,-0.66174,13.4,-1.588176,-0.84735,13.3,-2.03364,-0.08070000000000001,13.4,-0.19368000000000002,0.0,13.3,0.0,-0.0,13.3,-0.0,-0.0,13.3,-0.0
10.209844738,0.13719,13.600000000000001,0.329256,-0.6725,13.5,-1.6139999999999999,-0.84735,13.4,-2.03364,-0.08608,13.3,-0.206592,0.0,13.3,0.0,-0.0,13.3,-0.0,-0.0,13.3,-0.0
10.242877119,0.13719,13.600000000000001,0.329256,-0.66174,13.5,-1.588176,-0.84735,13.4,-2.03364,-0.09146,13.4,-0.219504,0.0,13.3,0.0,-0.0,13.3,-0.0,-0.0,13.3,-0.0
10.276779531,0.13181,13.600000000000001,0.316344,-0.6725,13.5,-1.6139999999999999,-0.84197,13.4,-2.020728,-0.08070000000000001,13.4,-0.19368000000000002,0.0,13.3,0.0,-0.0,13.3,-0.0,-0.0,13.3,-0.0
10.309864469,0.13181,13.600000000000001,0.316344,-0.6644300000000001,13.5,-1.594632,-0.8446600000000001,13.5,-2.027184,-0.08070000000000001,13.4,-0.19368000000000002,0.0,13.3,0.0,-0.0,13.3,-0.0,-0.0,13.3,-0.0
10.342847484,0.13988,13.600000000000001,0.335712,-0.66712,13.5,-1.601088,-0.8446600000000001,13.4,-2.027184,-0.08070000000000001,13.4,-0.19368000000000002,0.0,13.3,0.0,-0.0,13.3,-0.0,-0.0,13.3,-0.0
10.376808636,0.1345,13.600000000000001,0.32280000000000003,-0.6725,13.5,-1.6139999999999999,-0.8446600000000001,13.4,-2.027184,-0.08339,13.4,-0.200136,0.0,13.3,0.0,-0.0,13.3,-0.0,-0.0,13.3,-0.0
10.409771413,0.13181,13.600000000000001,0.316344,-0.65367,13.5,-1.568808,-0.8446600000000001,13.4,-2.027184,-0.08339,13.4,-0.200136,0.0,13.3,0.0,-0.0,13.3,-0.0,-0.0,13.3,-0.0
10.442744416,0.13181,13.600000000000001,0.316344,-0.6725,13.5,-1.6139999999999999,-0.8446600000000001,13.3,-2.027184,-0.08070000000000001,13.4,-0.19368000000000002,0.0,13.3,0.0,-0.0,13.3,-0.0,-0.0,13.3,-0.0
10.476792054,0.14795,13.600000000000001,0.35508,-0.6725,13.4,-1.6139999999999999,-0.8446600000000001,13.4,-2.027184,-0.08070000000000001,13.4,-0.19368000000000002,0.0,13.3,0.0,-0.0,13.3,-0.0,-0.0,13.3,-0.0
10.509591228,0.13181,13.600000000000001,0.316344,-0.6725,13.5,-1.6139999999999999,-0.8446600000000001,13.4,-2.027184,-0.08070000000000001,13.4,-0.19368000000000002,-0.00269,13.3,-0.006456,-0.0,13.3,-0.0,-0.0,13.3,-0.0
10.543102479,0.13988,13.600000000000001,0.335712,-0.65905,13.5,-1.58172,-0.8446600000000001,13.4,-2.027184,-0.08339,13.3,-0.200136,0.0,13.3,0.0,-0.0,13.3,-0.0,-0.0,13.3,-0.0
10.576784498,0.12912,13.600000000000001,0.309888,-0.6751900000000001,13.5,-1.6204560000000001,-0.8446600000000001,13.4,-2.027184,-0.07532,13.3,-0.18076799999999998,-0.00269,13.3,-0.006456,-0.0,13.3,-0.0,-0.0,13.3,-0.0
10.60988537,0.13719,13.600000000000001,0.329256,-0.6725,13.4,-1.6139999999999999,-0.8446600000000001,13.4,-2.027184,-0.07532,13.4,-0.18076799999999998,0.0,13.3,0.0,-0.0,13.3,-0.0,-0.0,13.3,-0.0
10.642780256,0.13719,13.600000000000001,0.329256,-0.66981,13.5,-1.607544,-0.8446600000000001,13.4,-2.027184,-0.07532,13.4,-0.18076799999999998,0.0,13.3,0.0,-0.0,13.3,-0.0,-0.0,13.3,-0.0
10.676790953,0.15064,13.600000000000001,0.36153599999999997,-0.6644300000000001,13.4,-1.594632,-0.8446600000000001,13.4,-2.027184,-0.07532,13.3,-0.18076799999999998,0.0,13.3,0.0,-0.0,13.3,-0.0,-0.0,13.3,-0.0
10.7098578,0.12105,13.600000000000001,0.29052,-0.66981,13.5,-1.607544,-0.85004,13.4,-2.040096,-0.08339,13.3,-0.200136,0.0,13.3,0.0,-0.0,13.3,-0.0,-0.0,13.3,-0.0
10.742809562,0.12374,13.600000000000001,0.296976,-0.6725,13.5,-1.6139999999999999,-0.85004,13.4,-2.040096,-0.08070000000000001,13.4,-0.19368000000000002,0.0,13.3,0.0,-0.0,13.3,-0.0,-0.0,13.3,-0.0
10.776696081,0.14257,13.600000000000001,0.34216799999999997,-0.66981,13.4,-1.607544,-0.85004,13.4,-2.040096,-0.08339,13.4,-0.200136,0.0,13.3,0.0,-0.0,13.3,-0.0,-0.0,13.3,-0.0
10.809543486,0.1345,13.600000000000001,0.32280000000000003,-0.6751900000000001,13.5,-1.6204560000000001,-0.8446600000000001,13.4,-2.027184,-0.08339,13.3,-0.200136,0.0,13.3,0.0,-0.0,13.3,-0.0,-0.0,13.3,-0.0
10.84265366,0.13181,13.600000000000001,0.316344,-0.6725,13.5,-1.6139999999999999,-0.85004,13.4,-2.040096,-0.08070000000000001,13.4,-0.19368000000000002,0.0,13.3,0.0,-0.0,13.3,-0.0,-0.0,13.3,-0.0
10.876691095,0.14795,13.5,0.35508,-0.66174,13.5,-1.588176,-0.85004,13.4,-2.040096,-0.08339,13.4,-0.200136,0.0,13.3,0.0,-0.0,13.3,-0.0,-0.0,13.3,-0.0
10.909777143,0.1345,13.600000000000001,0.32280000000000003,-0.6751900000000001,13.5,-1.6204560000000001,-0.8446600000000001,13.4,-2.027184,-0.08070000000000001,13.3,-0.19368000000000002,-0.00269,13.3,-0.006456,-0.0,13.3,-0.0,-0.0,13.3,-0.0
10.94261848,0.12374,13.600000000000001,0.296976,-0.6751900000000001,13.5,-1.6204560000000001,-0.8446600000000001,13.4,-2.027184,-0.08070000000000001,13.3,-0.19368000000000002,0.0,13.3,0.0,-0.0,13.3,-0.0,-0.0,13.3,-0.0
10.976684501,0.14257,13.600000000000001,0.34216799999999997,-0.6751900000000001,13.5,-1.6204560000000001,-0.85004,13.4,-2.040096,-0.08070000000000001,13.3,-0.19368000000000002,0.0,13.3,0.0,-0.0,13.3,-0.0,-0.0,13.3,-0.0
11.010019812,0.14526,13.600000000000001,0.348624,-0.6751900000000001,13.5,-1.6204560000000001,-0.85004,13.4,-2.040096,-0.08070000000000001,13.4,-0.19368000000000002,0.0,13.3,0.0,-0.0,13.3,-0.0,-0.0,13.3,-0.0
11.042653012,0.14257,13.600000000000001,0.34216799999999997,-0.6725,13.4,-1.6139999999999999,-0.85004,13.3,-2.040096,-0.08070000000000001,13.4,-0.19368000000000002,-0.00269,13.3,-0.006456,-0.0,13.3,-0.0,-0.0,13.3,-0.0
11.076706181,0.12374,13.600000000000001,0.296976,-0.66174,13.5,-1.588176,-0.85004,13.4,-2.040096,-0.08339,13.4,-0.200136,0.0,13.3,0.0,-0.0,13.3,-0.0,-0.0,13.3,-0.0
11.10966939,0.13719,13.600000000000001,0.329256,-0.6725,13.5,-1.6139999999999999,-0.8446600000000001,13.4,-2.027184,-0.08339,13.4,-0.200136,0.0,13.3,0.0,-0.0,13.3,-0.0,-0.0,13.3,-0.0
11.142667243,0.13181,13.600000000000001,0.316344,-0.6725,13.5,-1.6139999999999999,-0.8446600000000001,13.4,-2.027184,-0.08070000000000001,13.4,-0.19368000000000002,-0.00269,13.3,-0.006456,-0.0,13.3,-0.0,-0.0,13.3,-0.0
11.176620702,0.14257,13.600000000000001,0.34216799999999997,-0.6725,13.4,-1.6139999999999999,-0.85004,13.3,-2.040096,-0.08070000000000001,13.4,-0.19368000000000002,0.0,13.3,0.0,-0.0,13.3,-0.0,-0.0,13.3,-0.0
11.209571397,0.1345,13.600000000000001,0.32280000000000003,-0.66174,13.5,-1.588176,-0.85004,13.4,-2.040096,-0.08339,13.3,-0.200136,-0.00269,13.3,-0.006456,-0.0,13.3,-0.0,-0.0,13.3,-0.0
11.242620994,0.14795,13.600000000000001,0.35508,-0.6725,13.5,-1.6139999999999999,-0.85004,13.4,-2.040096,-0.08339,13.4,-0.200136,0.0,13.3,0.0,-0.0,13.3,-0.0,-0.0,13.3,-0.0
11.27659013,0.13988,13.600000000000001,0.335712,-0.6725,13.5,-1.6139999999999999,-0.85004,13.4,-2.040096,-0.08339,13.3,-0.200136,-0.00538,13.3,-0.012912,-0.0,13.3,-0.0,-0.0,13.3,-0.0
11.309618504,0.13181,13.600000000000001,0.316344,-0.66981,13.5,-1.607544,-0.85004,13.4,-2.040096,-0.08070000000000001,13.3,-0.19368000000000002,0.0,13.3,0.0,-0.0,13.3,-0.0,-0.0,13.3,-0.0
11.34251793,0.13988,13.600000000000001,0.335712,-0.6751900000000001,13.4,-1.6204560000000001,-0.85004,13.4,-2.040096,-0.08070000000000001,13.4,-0.19368000000000002,-0.00538,13.3,-0.012912,-0.0,13.3,-0.0,-0.0,13.3,-0.0
11.376681338,0.15064,13.600000000000001,0.36153599999999997,-0.66981,13.5,-1.607544,-0.85004,13.3,-2.040096,-0.08070000000000001,13.3,-0.19368000000000002,0.0,13.3,0.0,-0.0,13.3,-0.0,-0.0,13.3,-0.0
11.409518662,0.1345,13.600000000000001,0.32280000000000003,-0.6751900000000001,13.4,-1.6204560000000001,-0.85004,13.4,-2.040096,-0.08070000000000001,13.3,-0.19368000000000002,-0.00269,13.3,-0.006456,-0.0,13.3,-0.0,-0.0,13.3,-0.0
11.442532451,0.16140000000000002,13.600000000000001,0.38736000000000004,-0.6725,13.5,-1.6139999999999999,-0.85004,13.3,-2.040096,-0.07532,13.3,-0.18076799999999998,0.0,13.3,0.0,-0.0,13.3,-0.0,-0.0,13.3,-0.0
11.47650135,0.13988,13.600000000000001,0.335712,-0.6751900000000001,13.5,-1.6204560000000001,-0.84735,13.4,-2.03364,-0.08070000000000001,13.4,-0.19368000000000002,0.0,13.3,0.0,-0.0,13.3,-0.0,-0.0,13.3,-0.0
11.509623715,0.1345,13.600000000000001,0.32280000000000003,-0.65905,13.5,-1.58172,-0.84735,13.4,-2.03364,-0.08070000000000001,13.4,-0.19368000000000002,0.0,13.3,0.0,-0.0,13.3,-0.0,-0.0,13.3,-0.0
11.542514285,0.12643000000000001,13.600000000000001,0.30343200000000004,-0.6725,13.5,-1.6139999999999999,-0.84735,13.3,-2.03364,-0.08070000000000001,13.3,-0.19368000000000002,0.0,13.3,0.0,-0.0,13.3,-0.0,-0.0,13.3,-0.0
11.576449336,0.1345,13.600000000000001,0.32280000000000003,-0.6751900000000001,13.5,-1.6204560000000001,-0.84735,13.4,-2.03364,-0.08070000000000001,13.4,-0.19368000000000002,0.0,13.3,0.0,-0.0,13.3,-0.0,-0.0,13.3,-0.0
11.609460694,0.13988,13.600000000000001,0.335712,-0.66174,13.5,-1.588176,-0.84735,13.4,-2.03364,-0.08070000000000001,13.4,-0.19368000000000002,0.0,13.3,0.0,-0.0,13.3,-0.0,-0.0,13.3,-0.0
11.642566744,0.1345,13.600000000000001,0.32280000000000003,-0.6725,13.5,-1.6139999999999999,-0.84735,13.4,-2.03364,-0.08070000000000001,13.3,-0.19368000000000002,0.0,13.3,0.0,-0.0,13.3,-0.0,-0.0,13.3,-0.0
11.676347589,0.14795,13.5,0.35508,-0.6644300000000001,13.4,-1.594632,-0.84735,13.5,-2.03364,-0.08070000000000001,13.3,-0.19368000000000002,0.0,13.3,0.0,-0.0,13.3,-0.0,-0.0,13.3,-0.0
11.709433434,0.12912,13.600000000000001,0.309888,-0.6725,13.5,-1.6139999999999999,-0.84735,13.4,-2.03364,-0.08339,13.3,-0.200136,0.0,13.3,0.0,-0.0,13.3,-0.0,-0.0,13.3,-0.0
11.7424406,0.13181,13.600000000000001,0.316344,-0.6725,13.5,-1.6139999999999999,-0.84735,13.4,-2.03364,-0.08070000000000001,13.3,-0.19368000000000002,-0.00269,13.3,-0.006456,-0.0,13.3,-0.0,-0.0,13.3,-0.0
11.776428036,0.13988,13.600000000000001,0.335712,-0.66174,13.5,-1.588176,-0.84197,13.4,-2.020728,-0.08070000000000001,13.4,-0.19368000000000002,0.0,13.3,0.0,-0.0,13.3,-0.0,-0.0,13.3,-0.0
11.809407431,0.13181,13.600000000000001,0.316344,-0.6725,13.5,-1.6139999999999999,-0.85004,13.4,-2.040096,-0.08070000000000001,13.3,-0.19368000000000002,-0.00269,13.3,-0.006456,-0.0,13.3,-0.0,-0.0,13.3,-0.0
11.843337482,0.15064,13.600000000000001,0.36153599999999997,-0.6725,13.5,-1.6139999999999999,-0.84735,13.4,-2.03364,-0.08070000000000001,13.3,-0.19368000000000002,0.0,13.3,0.0,-0.0,13.3,-0.0,-0.0,13.3,-0.0
11.876541985,0.13988,13.600000000000001,0.335712,-0.6644300000000001,13.5,-1.594632,-0.85811,13.4,-2.059464,-0.08070000000000001,13.3,-0.19368000000000002,0.0,13.3,0.0,-0.0,13.3,-0.0,-0.0,13.3,-0.0
11.909525076,0.1345,13.600000000000001,0.32280000000000003,-0.66174,13.5,-1.588176,-0.85004,13.4,-2.040096,-0.08339,13.3,-0.200136,-0.00269,13.3,-0.006456,-0.0,13.3,-0.0,-0.0,13.3,-0.0
11.942531043,0.14526,13.600000000000001,0.348624,-0.66174,13.4,-1.588176,-0.85004,13.4,-2.040096,-0.08339,13.4,-0.200136,0.0,13.3,0.0,-0.0,13.3,-0.0,-0.0,13.3,-0.0
11.976555959,0.12912,13.600000000000001,0.309888,-0.66981,13.5,-1.607544,-0.84735,13.5,-2.03364,-0.08070000000000001,13.3,-0.19368000000000002,-0.00269,13.3,-0.006456,-0.0,13.3,-0.0,-0.0,13.3,-0.0
12.009804708,0.14795,13.600000000000001,0.35508,-0.66174,13.5,-1.588176,-0.84735,13.4,-2.03364,-0.08339,13.3,-0.200136,0.0,13.3,0.0,-0.0,13.3,-0.0,-0.0,13.3,-0.0
12.043619575,0.12643000000000001,13.600000000000001,0.30343200000000004,-0.66174,13.5,-1.588176,-0.8446600000000001,13.4,-2.027184,-0.08608,13.3,-0.206592,-0.00269,13.3,-0.006456,-0.0,13.3,-0.0,-0.0,13.3,-0.0
12.076355723,0.13988,13.600000000000001,0.335712,-0.6644300000000001,13.5,-1.594632,-0.8446600000000001,13.4,-2.027184,-0.08070000000000001,13.4,-0.19368000000000002,-0.00269,13.3,-0.006456,-0.0,13.3,-0.0,-0.0,13.3,-0.0
12.109490646,0.14526,13.600000000000001,0.348624,-0.6644300000000001,13.5,-1.594632,-0.8446600000000001,13.4,-2.027184,-0.08070000000000001,13.3,-0.19368000000000002,0.0,13.3,0.0,-0.0,13.3,-0.0,-0.0,13.3,-0.0
12.143307488,0.13988,13.600000000000001,0.335712,-0.6725,13.5,-1.6139999999999999,-0.84197,13.4,-2.020728,-0.08070000000000001,13.3,-0.19368000000000002,0.0,13.3,0.0,-0.0,13.3,-0.0,-0.0,13.3,-0.0
12.176351179,0.1345,13.600000000000001,0.32280000000000003,-0.6751900000000001,13.4,-1.6204560000000001,-0.8446600000000001,13.3,-2.027184,-0.08070000000000001,13.3,-0.19368000000000002,0.0,13.3,0.0,-0.0,13.3,-0.0,-0.0,13.3,-0.0
12.209212466,0.13719,13.600000000000001,0.329256,-0.66981,13.5,-1.607544,-0.85004,13.4,-2.040096,-0.08070000000000001,13.3,-0.19368000000000002,0.0,13.3,0.0,-0.0,13.3,-0.0,-0.0,13.3,-0.0
12.2432978,0.13181,13.600000000000001,0.316344,-0.6751900000000001,13.5,-1.6204560000000001,-0.8446600000000001,13.3,-2.027184,-0.08070000000000001,13.3,-0.19368000000000002,0.0,13.3,0.0,-0.0,13.3,-0.0,-0.0,13.3,-0.0
12.277203268,0.14257,13.600000000000001,0.34216799999999997,-0.6725,13.5,-1.6139999999999999,-0.8446600000000001,13.4,-2.027184,-0.08070000000000001,13.3,-0.19368000000000002,0.0,13.3,0.0,-0.0,13.3,-0.0,-0.0,13.3,-0.0
12.309513519,0.13719,13.600000000000001,0.329256,-0.6725,13.4,-1.6139999999999999,-0.8446600000000001,13.4,-2.027184,-0.08339,13.4,-0.200136,-0.00269,13.3,-0.006456,-0.0,13.3,-0.0,-0.0,13.3,-0.0
12.343406405,0.13988,13.600000000000001,0.335712,-0.66174,13.5,-1.588176,-0.85004,13.4,-2.040096,-0.08339,13.4,-0.200136,0.0,13.3,0.0,-0.0,13.3,-0.0,-0.0,13.3,-0.0
12.376492365,0.12374,13.600000000000001,0.296976,-0.6725,13.5,-1.6139999999999999,-0.8446600000000001,13.4,-2.027184,-0.08070000000000001,13.4,-0.19368000000000002,0.0,13.3,0.0,-0.0,13.3,-0.0,-0.0,13.3,-0.0
12.409188912,0.15333,13.600000000000001,0.367992,-0.6725,13.5,-1.6139999999999999,-0.8446600000000001,13.4,-2.027184,-0.08070000000000001,13.4,-0.19368000000000002,0.0,13.3,0.0,-0.0,13.3,-0.0,-0.0,13.3,-0.0
12.443311993,0.14257,13.600000000000001,0.34216799999999997,-0.65905,13.5,-1.58172,-0.8446600000000001,13.4,-2.027184,-0.08070000000000001,13.4,-0.19368000000000002,0.0,13.3,0.0,-0.0,13.3,-0.0,-0.0,13.3,-0.0
12.476301192,0.13988,13.600000000000001,0.335712,-0.6644300000000001,13.5,-1.594632,-0.8446600000000001,13.4,-2.027184,-0.08070000000000001,13.4,-0.19368000000000002,0.0,13.3,0.0,-0.0,13.3,-0.0,-0.0,13.3,-0.0
12.509274426,0.12912,13.600000000000001,0.309888,-0.6725,13.4,-1.6139999999999999,-0.8446600000000001,13.4,-2.027184,-0.08070000000000001,13.3,-0.19368000000000002,0.0,13.3,0.0,-0.0,13.3,-0.0,-0.0,13.3,-0.0
12.543118626,0.1345,13.600000000000001,0.32280000000000003,-0.6725,13.5,-1.6139999999999999,-0.8446600000000001,13.4,-2.027184,-0.08070000000000001,13.3,-0.19368000000000002,0.0,13.3,0.0,-0.0,13.3,-0.0,-0.0,13.3,-0.0
12.576285853,0.14257,13.600000000000001,0.34216799999999997,-0.66981,13.4,-1.607544,-0.84197,13.4,-2.020728,-0.08339,13.3,-0.200136,-0.00269,13.3,-0.006456,-0.0,13.3,-0.0,-0.0,13.3,-0.0
12.60928382,0.14257,13.600000000000001,0.34216799999999997,-0.66712,13.4,-1.601088,-0.8446600000000001,13.3,-2.027184,-0.08339,13.4,-0.200136,0.0,13.3,0.0,-0.0,13.3,-0.0,-0.0,13.3,-0.0
12.643316119,0.14257,13.600000000000001,0.34216799999999997,-0.66981,13.5,-1.607544,-0.8446600000000001,13.4,-2.027184,-0.08070000000000001,13.4,-0.19368000000000002,0.0,13.3,0.0,-0.0,13.3,-0.0,-0.0,13.3,-0.0
12.676265305,0.1345,13.600000000000001,0.32280000000000003,-0.6725,13.5,-1.6139999999999999,-0.84735,13.4,-2.03364,-0.08070000000000001,13.4,-0.19368000000000002,0.0,13.3,0.0,-0.0,13.3,-0.0,-0.0,13.3,-0.0
12.709186386,0.13719,13.600000000000001,0.329256,-0.6725,13.5,-1.6139999999999999,-0.84735,13.4,-2.03364,-0.08070000000000001,13.3,-0.19368000000000002,0.0,13.3,0.0,-0.0,13.3,-0.0,-0.0,13.3,-0.0
12.743414321,0.12643000000000001,13.600000000000001,0.30343200000000004,-0.66712,13.4,-1.601088,-0.84735,13.3,-2.03364,-0.08070000000000001,13.4,-0.19368000000000002,0.0,13.3,0.0,-0.0,13.3,-0.0,-0.0,13.3,-0.0
12.776355233,0.14257,13.600000000000001,0.34216799999999997,-0.66174,13.5,-1.588176,-0.84735,13.4,-2.03364,-0.08070000000000001,13.4,-0.19368000000000002,0.0,13.3,0.0,-0.0,13.3,-0.0,-0.0,13.3,-0.0
12.809404989,0.13988,13.600000000000001,0.335712,-0.66174,13.5,-1.588176,-0.84735,13.4,-2.03364,-0.08070000000000001,13.3,-0.19368000000000002,0.0,13.3,0.0,-0.0,13.3,-0.0,-0.0,13.3,-0.0
12.843450055,0.13719,13.600000000000001,0.329256,-0.6725,13.4,-1.6139999999999999,-0.84197,13.4,-2.020728,-0.08070000000000001,13.4,-0.19368000000000002,0.0,13.3,0.0,-0.0,13.3,-0.0,-0.0,13.3,-0.0
12.875933377,0.12643000000000001,13.600000000000001,0.30343200000000004,-0.6751900000000001,13.5,-1.6204560000000001,-0.84197,13.4,-2.020728,-0.08070000000000001,13.4,-0.19368000000000002,0.0,13.3,0.0,-0.0,13.3,-0.0,-0.0,13.3,-0.0
12.908816316,0.14526,13.600000000000001,0.348624,-0.66712,13.5,-1.601088,-0.84197,13.4,-2.020728,-0.08070000000000001,13.4,-0.19368000000000002,0.0,13.3,0.0,-0.0,13.3,-0.0,-0.0,13.3,-0.0
12.943143999,0.13719,13.600000000000001,0.329256,-0.66981,13.5,-1.607544,-0.84197,13.4,-2.020728,-0.08339,13.3,-0.200136,-0.00538,13.3,-0.012912,-0.0,13.3,-0.0,-0.0,13.3,-0.0
12.975920698,0.15064,13.600000000000001,0.36153599999999997,-0.65636,13.5,-1.575264,-0.84197,13.4,-2.020728,-0.08070000000000001,13.3,-0.19368000000000002,0.0,13.3,0.0,-0.0,13.3,-0.0,-0.0,13.3,-0.0
13.009108769,0.14526,13.600000000000001,0.348624,-0.66174,13.5,-1.588176,-0.8446600000000001,13.4,-2.027184,-0.08070000000000001,13.3,-0.19368000000000002,0.0,13.3,0.0,-0.0,13.3,-0.0,-0.0,13.3,-0.0
13.043117813,0.12643000000000001,13.600000000000001,0.30343200000000004,-0.6725,13.5,-1.6139999999999999,-0.8446600000000001,13.4,-2.027184,-0.08339,13.4,-0.200136,0.0,13.3,0.0,-0.0,13.3,-0.0,-0.0,13.3,-0.0
13.075905689,0.15602000000000002,13.600000000000001,0.37444800000000006,-0.6725,13.5,-1.6139999999999999,-0.8446600000000001,13.4,-2.027184,-0.08339,13.4,-0.200136,0.0,13.3,0.0,-0.0,13.3,-0.0,-0.0,13.3,-0.0
13.109033805,0.13988,13.600000000000001,0.335712,-0.6725,13.5,-1.6139999999999999,-0.84735,13.4,-2.03364,-0.08070000000000001,13.3,-0.19368000000000002,-0.00269,13.3,-0.006456,-0.0,13.3,-0.0,-0.0,13.3,-0.0
13.142637613,0.13988,13.5,0.335712,-0.6725,13.5,-1.6139999999999999,-0.84735,13.4,-2.03364,-0.08070000000000001,13.3,-0.19368000000000002,0.0,13.3,0.0,-0.00269,13.3,-0.006456,-0.0,13.3,-0.0
13.176162676,0.12374,13.600000000000001,0.296976,-0.6725,13.5,-1.6139999999999999,-0.84735,13.4,-2.03364,-0.08070000000000001,13.3,-0.19368000000000002,0.0,13.3,0.0,-0.0,13.3,-0.0,-0.0,13.3,-0.0
13.20924882,0.15064,13.600000000000001,0.36153599999999997,-0.6725,13.5,-1.6139999999999999,-0.84735,13.4,-2.03364,-0.08070000000000001,13.4,-0.19368000000000002,0.0,13.3,0.0,-0.0,13.3,-0.0,-0.0,13.3,-0.0
13.243185013,0.14257,13.600000000000001,0.34216799999999997,-0.6725,13.5,-1.6139999999999999,-0.84735,13.3,-2.03364,-0.08339,13.4,-0.200136,0.0,13.3,0.0,-0.0,13.3,-0.0,-0.0,13.3,-0.0
13.276086048,0.12374,13.600000000000001,0.296976,-0.6751900000000001,13.4,-1.6204560000000001,-0.84735,13.4,-2.03364,-0.08070000000000001,13.3,-0.19368000000000002,0.0,13.3,0.0,-0.0,13.3,-0.0,-0.0,13.3,-0.0
13.308972382,0.12105,13.600000000000001,0.29052,-0.6751900000000001,13.4,-1.6204560000000001,-0.84735,13.3,-2.03364,-0.08070000000000001,13.4,-0.19368000000000002,0.0,13.3,0.0,-0.0,13.3,-0.0,-0.0,13.3,-0.0
13.342916987,0.14795,13.600000000000001,0.35508,-0.6725,13.4,-1.6139999999999999,-0.84735,13.3,-2.03364,-0.08070000000000001,13.4,-0.19368000000000002,0.0,13.3,0.0,-0.0,13.3,-0.0,-0.0,13.3,-0.0
13.376236602,0.13988,13.600000000000001,0.335712,-0.66174,13.5,-1.588176,-0.84735,13.4,-2.03364,-0.08070000000000001,13.4,-0.19368000000000002,0.0,13.3,0.0,-0.0,13.3,-0.0,-0.0,13.3,-0.0
13.408968584,0.1345,13.600000000000001,0.32280000000000003,-0.6725,13.5,-1.6139999999999999,-0.84735,13.4,-2.03364,-0.08070000000000001,13.4,-0.19368000000000002,0.0,13.3,0.0,-0.0,13.3,-0.0,-0.0,13.3,-0.0
13.442861471,0.14795,13.600000000000001,0.35508,-0.6725,13.5,-1.6139999999999999,-0.85004,13.5,-2.040096,-0.08070000000000001,13.3,-0.19368000000000002,0.0,13.3,0.0,-0.0,13.3,-0.0,-0.0,13.3,-0.0
13.475962622,0.14257,13.600000000000001,0.34216799999999997,-0.6725,13.5,-1.6139999999999999,-0.84735,13.4,-2.03364,-0.08070000000000001,13.4,-0.19368000000000002,0.0,13.3,0.0,-0.0,13.3,-0.0,-0.0,13.3,-0.0
13.508952769,0.15064,13.600000000000001,0.36153599999999997,-0.6751900000000001,13.5,-1.6204560000000001,-0.84735,13.4,-2.03364,-0.08070000000000001,13.4,-0.19368000000000002,-0.00269,13.3,-0.006456,-0.0,13.3,-0.0,-0.0,13.3,-0.0
13.542950641,0.14526,13.600000000000001,0.348624,-0.6725,13.4,-1.6139999999999999,-0.84197,13.3,-2.020728,-0.08070000000000001,13.4,-0.19368000000000002,0.0,13.3,0.0,-0.0,13.3,-0.0,-0.0,13.3,-0.0
13.575957843,0.15333,13.600000000000001,0.367992,-0.6644300000000001,13.4,-1.594632,-0.84197,13.4,-2.020728,-0.08070000000000001,13.4,-0.19368000000000002,0.0,13.3,0.0,-0.0,13.3,-0.0,-0.0,13.3,-0.0
13.609128875,0.13181,13.600000000000001,0.316344,-0.6644300000000001,13.5,-1.594632,-0.84197,13.4,-2.020728,-0.08070000000000001,13.3,-0.19368000000000002,-0.00538,13.3,-0.012912,-0.0,13.3,-0.0,-0.0,13.3,-0.0
13.642787073,0.14795,13.600000000000001,0.35508,-0.6751900000000001,13.5,-1.6204560000000001,-0.84735,13.4,-2.03364,-0.08070000000000001,13.4,-0.19368000000000002,0.0,13.3,0.0,-0.0,13.3,-0.0,-0.0,13.3,-0.0
13.675824618,0.14526,13.600000000000001,0.348624,-0.6751900000000001,13.5,-1.6204560000000001,-0.84197,13.4,-2.020728,-0.08070000000000001,13.4,-0.19368000000000002,0.0,13.3,0.0,-0.0,13.3,-0.0,-0.0,13.3,-0.0
13.708680733,0.12912,13.600000000000001,0.309888,-0.66174,13.5,-1.588176,-0.84197,13.4,-2.020728,-0.08070000000000001,13.3,-0.19368000000000002,0.0,13.3,0.0,-0.0,13.3,-0.0,-0.0,13.3,-0.0
13.742980149,0.12374,13.600000000000001,0.296976,-0.6725,13.4,-1.6139999999999999,-0.84197,13.3,-2.020728,-0.08070000000000001,13.4,-0.19368000000000002,0.0,13.3,0.0,-0.0,13.3,-0.0,-0.0,13.3,-0.0
13.775896724,0.13719,13.600000000000001,0.329256,-0.65905,13.4,-1.58172,-0.8365900000000001,13.3,-2.007816,-0.08070000000000001,13.4,-0.19368000000000002,0.0,13.3,0.0,-0.0,13.3,-0.0,-0.0,13.3,-0.0
13.808791013,0.1345,13.600000000000001,0.32280000000000003,-0.6751900000000001,13.4,-1.6204560000000001,-0.84197,13.3,-2.020728,-0.08070000000000001,13.4,-0.19368000000000002,-0.00269,13.3,-0.006456,-0.0,13.3,-0.0,-0.0,13.3,-0.0
13.842816305,0.13988,13.600000000000001,0.335712,-0.6644300000000001,13.5,-1.594632,-0.84197,13.3,-2.020728,-0.08070000000000001,13.4,-0.19368000000000002,0.0,13.3,0.0,-0.0,13.3,-0.0,0.00269,13.3,0.006456
13.875759027,0.1345,13.600000000000001,0.32280000000000003,-0.6751900000000001,13.5,-1.6204560000000001,-0.84197,13.4,-2.020728,-0.08070000000000001,13.3,-0.19368000000000002,-0.00269,13.3,-0.006456,-0.0,13.3,-0.0,-0.0,13.3,-0.0
13.90867983,0.14257,13.600000000000001,0.34216799999999997,-0.6751900000000001,13.5,-1.6204560000000001,-0.8446600000000001,13.4,-2.027184,-0.08070000000000001,13.4,-0.19368000000000002,-0.00269,13.3,-0.006456,-0.0,13.3,-0.0,-0.0,13.3,-0.0
13.942725704,0.12643000000000001,13.600000000000001,0.30343200000000004,-0.6725,13.5,-1.6139999999999999,-0.8446600000000001,13.4,-2.027184,-0.08070000000000001,13.3,-0.19368000000000002,-0.00269,13.3,-0.006456,-0.0,13.3,-0.0,-0.0,13.3,-0.0
13.975694378,0.13988,13.600000000000001,0.335712,-0.6725,13.5,-1.6139999999999999,-0.8446600000000001,13.4,-2.027184,-0.08070000000000001,13.3,-0.19368000000000002,0.0,13.3,0.0,-0.0,13.3,-0.0,-0.0,13.3,-0.0
14.008750389,0.12912,13.600000000000001,0.309888,-0.66981,13.5,-1.607544,-0.83928,13.4,-2.014272,-0.08070000000000001,13.3,-0.19368000000000002,-0.00269,13.3,-0.006456,-0.0,13.3,-0.0,-0.0,13.3,-0.0
14.0428367,0.12374,13.600000000000001,0.296976,-0.66981,13.5,-1.607544,-0.84735,13.4,-2.03364,-0.08608,13.3,-0.206592,-0.00269,13.3,-0.006456,-0.0,13.3,-0.0,-0.0,13.3,-0.0
14.076129579,0.14257,13.600000000000001,0.34216799999999997,-0.6725,13.5,-1.6139999999999999,-0.84197,13.5,-2.020728,-0.08339,13.3,-0.200136,0.0,13.3,0.0,-0.0,13.3,-0.0,-0.0,13.3,-0.0
14.108890013,0.1345,13.600000000000001,0.32280000000000003,-0.6751900000000001,13.5,-1.6204560000000001,-0.84197,13.4,-2.020728,-0.08070000000000001,13.4,-0.19368000000000002,-0.00269,13.3,-0.006456,-0.0,13.3,-0.0,-0.0,13.3,-0.0
14.14282079,0.13719,13.600000000000001,0.329256,-0.6751900000000001,13.4,-1.6204560000000001,-0.8446600000000001,13.4,-2.027184,-0.07532,13.3,-0.18076799999999998,-0.00269,13.3,-0.006456,-0.0,13.3,-0.0,-0.0,13.3,-0.0
14.175869466,0.13988,13.600000000000001,0.335712,-0.6751900000000001,13.5,-1.6204560000000001,-0.8446600000000001,13.4,-2.027184,-0.07532,13.3,-0.18076799999999998,0.0,13.3,0.0,-0.0,13.3,-0.0,-0.0,13.3,-0.0
14.209147086,0.1345,13.600000000000001,0.32280000000000003,-0.66712,13.5,-1.601088,-0.84735,13.4,-2.03364,-0.08608,13.3,-0.206592,0.0,13.3,0.0,-0.0,13.3,-0.0,-0.0,13.3,-0.0
14.242672951,0.13181,13.600000000000001,0.316344,-0.6751900000000001,13.4,-1.6204560000000001,-0.84735,13.3,-2.03364,-0.08070000000000001,13.4,-0.19368000000000002,-0.00538,13.3,-0.012912,-0.0,13.3,-0.0,-0.0,13.3,-0.0
14.275871088,0.1345,13.600000000000001,0.32280000000000003,-0.6725,13.5,-1.6139999999999999,-0.84735,13.3,-2.03364,-0.08070000000000001,13.4,-0.19368000000000002,0.0,13.3,0.0,-0.0,13.3,-0.0,-0.0,13.3,-0.0
14.308826404,0.15064,13.600000000000001,0.36153599999999997,-0.66174,13.5,-1.588176,-0.84735,13.3,-2.03364,-0.08070000000000001,13.4,-0.19368000000000002,-0.00269,13.3,-0.006456,-0.0,13.3,-0.0,-0.0,13.3,-0.0
14.342746351,0.1345,13.600000000000001,0.32280000000000003,-0.6644300000000001,13.5,-1.594632,-0.84735,13.3,-2.03364,-0.08070000000000001,13.3,-0.19368000000000002,0.0,13.3,0.0,-0.0,13.3,-0.0,-0.0,13.3,-0.0
14.375805468,0.12912,13.600000000000001,0.309888,-0.6751900000000001,13.5,-1.6204560000000001,-0.84197,13.4,-2.020728,-0.08070000000000001,13.3,-0.19368000000000002,0.0,13.3,0.0,-0.0,13.3,-0.0,-0.0,13.3,-0.0
14.408864684,0.14795,13.600000000000001,0.35508,-0.6725,13.5,-1.6139999999999999,-0.84197,13.4,-2.020728,-0.08070000000000001,13.3,-0.19368000000000002,0.0,13.3,0.0,-0.0,13.3,-0.0,-0.0,13.3,-0.0
14.443388474,0.13181,13.600000000000001,0.316344,-0.66981,13.5,-1.607544,-0.84197,13.5,-2.020728,-0.08070000000000001,13.3,-0.19368000000000002,0.0,13.3,0.0,-0.0,13.3,-0.0,-0.0,13.3,-0.0
14.476029607,0.13988,13.600000000000001,0.335712,-0.6751900000000001,13.5,-1.6204560000000001,-0.84197,13.4,-2.020728,-0.08070000000000001,13.3,-0.19368000000000002,0.0,13.3,0.0,-0.0,13.3,-0.0,-0.0,13.3,-0.0
14.509602223,0.14526,13.600000000000001,0.348624,-0.6725,13.5,-1.6139999999999999,-0.83928,13.4,-2.014272,-0.07532,13.3,-0.18076799999999998,0.0,13.3,0.0,-0.0,13.3,-0.0,-0.0,13.3,-0.0
14.542487389,0.13181,13.600000000000001,0.316344,-0.66981,13.5,-1.607544,-0.84197,13.4,-2.020728,-0.08877,13.4,-0.213048,0.0,13.3,0.0,-0.0,13.3,-0.0,-0.0,13.3,-0.0
14.575586736,0.14257,13.600000000000001,0.34216799999999997,-0.6751900000000001,13.5,-1.6204560000000001,-0.84197,13.4,-2.020728,-0.08070000000000001,13.3,-0.19368000000000002,0.0,13.3,0.0,-0.0,13.3,-0.0,-0.0,13.3,-0.0
14.609544777,0.1345,13.600000000000001,0.32280000000000003,-0.6751900000000001,13.5,-1.6204560000000001,-0.84197,13.4,-2.020728,-0.08339,13.3,-0.200136,0.0,13.3,0.0,-0.0,13.3,-0.0,-0.0,13.3,-0.0
14.642509353,0.1345,13.600000000000001,0.32280000000000003,-0.6751900000000001,13.5,-1.6204560000000001,-0.84197,13.4,-2.020728,-0.08070000000000001,13.3,-0.19368000000000002,-0.00538,13.3,-0.012912,-0.0,13.3,-0.0,-0.0,13.3,-0.0
14.675488229,0.14257,13.600000000000001,0.34216799999999997,-0.6725,13.4,-1.6139999999999999,-0.84735,13.3,-2.03364,-0.08339,13.3,-0.200136,-0.00269,13.3,-0.006456,-0.0,13.3,-0.0,-0.0,13.3,-0.0
14.709377436,0.14257,13.600000000000001,0.34216799999999997,-0.6725,13.5,-1.6139999999999999,-0.84735,13.3,-2.03364,-0.08070000000000001,13.3,-0.19368000000000002,-0.00269,13.3,-0.006456,-0.0,13.3,-0.0,-0.0,13.3,-0.0
14.742612438,0.15064,13.600000000000001,0.36153599999999997,-0.65367,13.5,-1.568808,-0.84735,13.4,-2.03364,-0.08070000000000001,13.3,-0.19368000000000002,0.0,13.3,0.0,-0.0,13.3,-0.0,-0.0,13.3,-0.0
14.77549298,0.1345,13.600000000000001,0.32280000000000003,-0.6725,13.5,-1.6139999999999999,-0.84735,13.4,-2.03364,-0.08070000000000001,13.3,-0.19368000000000002,0.0,13.3,0.0,-0.0,13.3,-0.0,-0.0,13.3,-0.0
14.80933792,0.15871000000000002,13.600000000000001,0.380904,-0.65905,13.5,-1.58172,-0.84735,13.4,-2.03364,-0.08070000000000001,13.4,-0.19368000000000002,0.0,13.3,0.0,-0.0,13.3,-0.0,-0.0,13.3,-0.0
14.842521716,0.15602000000000002,13.600000000000001,0.37444800000000006,-0.6725,13.5,-1.6139999999999999,-0.84735,13.3,-2.03364,-0.08070000000000001,13.3,-0.19368000000000002,-0.00269,13.3,-0.006456,-0.0,13.3,-0.0,-0.0,13.3,-0.0
14.875912093,0.15333,13.600000000000001,0.367992,-0.64829,13.5,-1.555896,-0.84735,13.4,-2.03364,-0.08070000000000001,13.4,-0.19368000000000002,-0.00538,13.3,-0.012912,-0.0,13.3,-0.0,-0.0,13.3,-0.0
14.909396908,0.13181,13.600000000000001,0.316344,-0.6751900000000001,13.5,-1.6204560000000001,-0.84735,13.4,-2.03364,-0.08070000000000001,13.4,-0.19368000000000002,0.0,13.3,0.0,-0.0,13.3,-0.0,-0.0,13.3,-0.0
14.942526485,0.12374,13.600000000000001,0.296976,-0.6751900000000001,13.5,-1.6204560000000001,-0.84735,13.4,-2.03364,-0.08070000000000001,13.3,-0.19368000000000002,0.0,13.3,0.0,-0.0,13.3,-0.0,-0.0,13.3,-0.0
14.975965459,0.13719,13.600000000000001,0.329256,-0.6725,13.5,-1.6139999999999999,-0.84735,13.4,-2.03364,-0.08070000000000001,13.4,-0.19368000000000002,-0.00269,13.3,-0.006456,-0.0,13.3,-0.0,-0.0,13.3,-0.0
15.009693833,0.14795,13.600000000000001,0.35508,-0.6725,13.5,-1.6139999999999999,-0.84735,13.4,-2.03364,-0.08070000000000001,13.4,-0.19368000000000002,-0.00269,13.3,-0.006456,-0.0,13.3,-0.0,-0.0,13.3,-0.0
15.042361656,0.14795,13.600000000000001,0.35508,-0.6725,13.5,-1.6139999999999999,-0.84735,13.4,-2.03364,-0.08070000000000001,13.3,-0.19368000000000002,-0.00538,13.3,-0.012912,-0.0,13.3,-0.0,-0.0,13.3,-0.0
15.075125515,0.1345,13.600000000000001,0.32280000000000003,-0.6751900000000001,13.5,-1.6204560000000001,-0.84735,13.4,-2.03364,-0.08070000000000001,13.3,-0.19368000000000002,0.0,13.3,0.0,-0.0,13.3,-0.0,-0.0,13.3,-0.0
15.109339558,0.15602000000000002,13.600000000000001,0.37444800000000006,-0.6751900000000001,13.5,-1.6204560000000001,-0.84735,13.3,-2.03364,-0.08070000000000001,13.4,-0.19368000000000002,-0.00269,13.3,-0.006456,-0.0,13.3,-0.0,-0.0,13.3,-0.0
15.142384704,0.12374,13.600000000000001,0.296976,-0.66981,13.5,-1.607544,-0.84735,13.4,-2.03364,-0.08070000000000001,13.3,-0.19368000000000002,0.0,13.3,0.0,-0.0,13.3,-0.0,-0.0,13.3,-0.0
15.175349886,0.13181,13.600000000000001,0.316344,-0.6751900000000001,13.5,-1.6204560000000001,-0.84197,13.3,-2.020728,-0.08070000000000001,13.4,-0.19368000000000002,0.0,13.3,0.0,-0.0,13.3,-0.0,-0.0,13.3,-0.0
15.209080262,0.14526,13.600000000000001,0.348624,-0.6751900000000001,13.5,-1.6204560000000001,-0.84197,13.4,-2.020728,-0.08070000000000001,13.4,-0.19368000000000002,0.0,13.3,0.0,-0.0,13.3,-0.0,-0.0,13.3,-0.0
15.242494578,0.12374,13.600000000000001,0.296976,-0.6751900000000001,13.5,-1.6204560000000001,-0.84197,13.4,-2.020728,-0.08070000000000001,13.3,-0.19368000000000002,-0.00269,13.3,-0.006456,-0.0,13.3,-0.0,-0.0,13.3,-0.0
15.275264878,0.13181,13.600000000000001,0.316344,-0.6725,13.5,-1.6139999999999999,-0.84197,13.4,-2.020728,-0.08070000000000001,13.3,-0.19368000000000002,-0.00538,13.3,-0.012912,-0.0,13.3,-0.0,-0.0,13.3,-0.0
15.309473221,0.14526,13.600000000000001,0.348624,-0.6751900000000001,13.5,-1.6204560000000001,-0.84197,13.4,-2.020728,-0.08070000000000001,13.3,-0.19368000000000002,0.0,13.3,0.0,-0.0,13.3,-0.0,-0.0,13.3,-0.0
15.3424594,0.13988,13.600000000000001,0.335712,-0.6751900000000001,13.4,-1.6204560000000001,-0.84197,13.3,-2.020728,-0.08070000000000001,13.4,-0.19368000000000002,0.0,13.3,0.0,-0.0,13.3,-0.0,-0.0,13.3,-0.0
15.375520591,0.1345,13.600000000000001,0.32280000000000003,-0.6751900000000001,13.5,-1.6204560000000001,-0.84197,13.4,-2.020728,-0.08070000000000001,13.3,-0.19368000000000002,0.0,13.3,0.0,-0.0,13.3,-0.0,-0.0,13.3,-0.0
15.409583134,0.13719,13.600000000000001,0.329256,-0.6751900000000001,13.5,-1.6204560000000001,-0.84197,13.4,-2.020728,-0.07532,13.3,-0.18076799999999998,0.0,13.3,0.0,-0.0,13.3,-0.0,-0.0,13.3,-0.0
15.442595487,0.14257,13.600000000000001,0.34216799999999997,-0.6751900000000001,13.5,-1.6204560000000001,-0.84197,13.4,-2.020728,-0.08339,13.4,-0.200136,0.0,13.3,0.0,-0.0,13.3,-0.0,-0.0,13.3,-0.0
15.475585276,0.12912,13.600000000000001,0.309888,-0.6725,13.5,-1.6139999999999999,-0.84197,13.3,-2.020728,-0.08070000000000001,13.4,-0.19368000000000002,0.0,13.3,0.0,-0.0,13.3,-0.0,-0.0,13.3,-0.0
15.509142632,0.14257,13.600000000000001,0.34216799999999997,-0.6751900000000001,13.4,-1.6204560000000001,-0.84197,13.4,-2.020728,-0.08070000000000001,13.3,-0.19368000000000002,0.0,13.3,0.0,-0.0,13.3,-0.0,-0.0,13.3,-0.0
15.542430241,0.14795,13.600000000000001,0.35508,-0.6725,13.5,-1.6139999999999999,-0.84197,13.4,-2.020728,-0.08070000000000001,13.3,-0.19368000000000002,0.0,13.3,0.0,-0.0,13.3,-0.0,-0.0,13.3,-0.0
15.575310669,0.14257,13.600000000000001,0.34216799999999997,-0.6725,13.5,-1.6139999999999999,-0.84197,13.4,-2.020728,-0.08070000000000001,13.3,-0.19368000000000002,-0.00269,13.3,-0.006456,-0.0,13.3,-0.0,-0.0,13.3,-0.0
15.609352339,0.15333,13.600000000000001,0.367992,-0.65636,13.4,-1.575264,-0.84735,13.3,-2.03364,-0.08339,13.3,-0.200136,0.0,13.3,0.0,-0.0,13.3,-0.0,-0.0,13.3,-0.0
15.642387417,0.12374,13.600000000000001,0.296976,-0.6751900000000001,13.5,-1.6204560000000001,-0.84735,13.4,-2.03364,-0.08070000000000001,13.3,-0.19368000000000002,0.0,13.3,0.0,-0.0,13.3,-0.0,-0.0,13.3,-0.0
15.675572354,0.15602000000000002,13.600000000000001,0.37444800000000006,-0.6751900000000001,13.5,-1.6204560000000001,-0.84197,13.4,-2.020728,-0.08070000000000001,13.4,-0.19368000000000002,0.0,13.3,0.0,-0.00269,13.3,-0.006456,-0.0,13.3,-0.0
15.709366638,0.13719,13.600000000000001,0.329256,-0.6751900000000001,13.5,-1.6204560000000001,-0.84197,13.4,-2.020728,-0.08070000000000001,13.4,-0.19368000000000002,0.0,13.3,0.0,-0.0,13.3,-0.0,-0.0,13.3,-0.0
15.742410557,0.15064,13.600000000000001,0.36153599999999997,-0.66981,13.5,-1.607544,-0.84735,13.4,-2.03364,-0.08070000000000001,13.4,-0.19368000000000002,0.0,13.3,0.0,-0.0,13.3,-0.0,-0.0,13.3,-0.0
15.775442016,0.14257,13.600000000000001,0.34216799999999997,-0.6751900000000001,13.5,-1.6204560000000001,-0.84735,13.3,-2.03364,-0.08070000000000001,13.4,-0.19368000000000002,0.0,13.3,0.0,-0.0,13.3,-0.0,-0.0,13.3,-0.0
15.809245253,0.13181,13.600000000000001,0.316344,-0.6725,13.5,-1.6139999999999999,-0.84735,13.4,-2.03364,-0.08070000000000001,13.4,-0.19368000000000002,0.0,13.3,0.0,-0.0,13.3,-0.0,-0.0,13.3,-0.0
15.842291284,0.14257,13.600000000000001,0.34216799999999997,-0.66981,13.5,-1.607544,-0.84735,13.4,-2.03364,-0.08339,13.4,-0.200136,0.0,13.3,0.0,-0.0,13.3,-0.0,-0.0,13.3,-0.0
15.875523188,0.14526,13.600000000000001,0.348624,-0.6725,13.5,-1.6139999999999999,-0.84735,13.4,-2.03364,-0.08339,13.3,-0.200136,0.0,13.3,0.0,-0.0,13.3,-0.0,-0.0,13.3,-0.0
15.909228401,0.14257,13.600000000000001,0.34216799999999997,-0.6725,13.5,-1.6139999999999999,-0.8446600000000001,13.4,-2.027184,-0.08339,13.4,-0.200136,0.0,13.3,0.0,-0.0,13.3,-0.0,-0.0,13.3,-0.0
