RoboFEI-Work/manip_ws/pick_telemetry/pick_telemetry_20260625_213538.csv
time,manip_joint1/current,manip_joint1/voltage,manip_joint1/effort,manip_joint2/current,manip_joint2/voltage,manip_joint2/effort,manip_joint3/current,manip_joint3/voltage,manip_joint3/effort,manip_joint4/current,manip_joint4/voltage,manip_joint4/effort,manip_joint5/current,manip_joint5/voltage,manip_joint5/effort,manip_joint6/current,manip_joint6/voltage,manip_joint6/effort,manip_joint7/current,manip_joint7/voltage,manip_joint7/effort
0.000924086,-0.20175,13.600000000000001,-0.4842,-0.7962400000000001,13.5,-1.910976,-0.69671,13.4,-1.672104,-0.01076,13.4,-0.025824,0.01614,13.3,0.038736,-0.0,13.4,-0.0,-0.0,13.4,-0.0
0.001122951,-0.18561,13.600000000000001,-0.44546399999999997,-0.7935500000000001,13.5,-1.9045200000000002,-0.69133,13.3,-1.659192,-0.00538,13.4,-0.012912,0.03228,13.3,0.077472,-0.0,13.4,-0.0,-0.0,13.4,-0.0
0.001264041,-0.19099000000000002,13.600000000000001,-0.458376,-0.7854800000000001,13.5,-1.8851520000000002,-0.6994,13.4,-1.67856,-0.00807,13.4,-0.019368,0.01614,13.3,0.038736,-0.0,13.4,-0.0,0.00269,13.4,0.006456
0.001398791,-0.18561,13.600000000000001,-0.44546399999999997,-0.7801,13.5,-1.87224,-0.68057,13.4,-1.633368,-0.01883,13.4,-0.045191999999999996,0.00538,13.3,0.012912,-0.0,13.4,-0.0,-0.0,13.4,-0.0
0.001541724,-0.1883,13.600000000000001,-0.45192,-0.79086,13.5,-1.898064,-0.6940200000000001,13.4,-1.6656480000000002,-0.00807,13.4,-0.019368,0.00807,13.3,0.019368,-0.0,13.4,-0.0,0.00269,13.4,0.006456
0.001678673,-0.18561,13.600000000000001,-0.44546399999999997,-0.7935500000000001,13.5,-1.9045200000000002,-0.68864,13.4,-1.652736,-0.01345,13.4,-0.032279999999999996,0.01345,13.3,0.032279999999999996,-0.0,13.4,-0.0,0.00269,13.4,0.006456
0.001810819,-0.18561,13.600000000000001,-0.44546399999999997,-0.7962400000000001,13.5,-1.910976,-0.69671,13.4,-1.672104,-0.01076,13.4,-0.025824,0.01614,13.3,0.038736,-0.0,13.4,-0.0,0.00269,13.4,0.006456
0.001937224,-0.19906000000000001,13.600000000000001,-0.477744,-0.7962400000000001,13.600000000000001,-1.910976,-0.68326,13.4,-1.639824,-0.00538,13.4,-0.012912,0.01883,13.3,0.045191999999999996,-0.0,13.4,-0.0,0.00269,13.4,0.006456
0.002067379,-0.18561,13.600000000000001,-0.44546399999999997,-0.7962400000000001,13.5,-1.910976,-0.6994,13.5,-1.67856,-0.01345,13.4,-0.032279999999999996,0.01076,13.4,0.025824,-0.0,13.4,-0.0,0.00269,13.4,0.006456
0.002194092,-0.19637000000000002,13.600000000000001,-0.47128800000000004,-0.7962400000000001,13.4,-1.910976,-0.70209,13.4,-1.6850159999999998,-0.01614,13.4,-0.038736,0.00538,13.4,0.012912,-0.0,13.4,-0.0,-0.0,13.4,-0.0
0.00231832,-0.18561,13.600000000000001,-0.44546399999999997,-0.78817,13.5,-1.891608,-0.69133,13.4,-1.659192,-0.01345,13.4,-0.032279999999999996,0.024210000000000002,13.4,0.058104,-0.0,13.4,-0.0,-0.0,13.4,-0.0
0.002447328,-0.18561,13.600000000000001,-0.44546399999999997,-0.78817,13.5,-1.891608,-0.68057,13.4,-1.633368,-0.01345,13.4,-0.032279999999999996,0.01614,13.4,0.038736,-0.0,13.4,-0.0,0.00269,13.4,0.006456
0.002828259,-0.19637000000000002,13.600000000000001,-0.47128800000000004,-0.78817,13.5,-1.891608,-0.68864,13.4,-1.652736,-0.01345,13.4,-0.032279999999999996,0.03228,13.4,0.077472,-0.0,13.4,-0.0,-0.0,13.4,-0.0
0.037121344,-0.19637000000000002,13.600000000000001,-0.47128800000000004,-0.7962400000000001,13.5,-1.910976,-0.70209,13.4,-1.6850159999999998,-0.01076,13.4,-0.025824,0.00807,13.4,0.019368,-0.0,13.4,-0.0,-0.0,13.4,-0.0
0.070354405,-0.19368000000000002,13.600000000000001,-0.464832,-0.78279,13.5,-1.878696,-0.6940200000000001,13.4,-1.6656480000000002,-0.01076,13.4,-0.025824,0.01345,13.4,0.032279999999999996,-0.0,13.4,-0.0,-0.0,13.4,-0.0
0.103042207,-0.18561,13.600000000000001,-0.44546399999999997,-0.79086,13.5,-1.898064,-0.69671,13.4,-1.672104,-0.01345,13.4,-0.032279999999999996,0.01076,13.4,0.025824,-0.0,13.4,-0.0,0.00269,13.4,0.006456
0.137138115,-0.19637000000000002,13.600000000000001,-0.47128800000000004,-0.7962400000000001,13.5,-1.910976,-0.70209,13.3,-1.6850159999999998,-0.01614,13.4,-0.038736,0.01345,13.4,0.032279999999999996,-0.0,13.4,-0.0,-0.0,13.4,-0.0
0.170045994,-0.18561,13.600000000000001,-0.44546399999999997,-0.7962400000000001,13.600000000000001,-1.910976,-0.6859500000000001,13.4,-1.6462800000000002,-0.01883,13.4,-0.045191999999999996,0.00538,13.4,0.012912,-0.0,13.4,-0.0,0.00269,13.4,0.006456
0.202950845,-0.19637000000000002,13.600000000000001,-0.47128800000000004,-0.7962400000000001,13.5,-1.910976,-0.69133,13.4,-1.659192,-0.01883,13.4,-0.045191999999999996,0.01076,13.4,0.025824,-0.0,13.4,-0.0,-0.0,13.4,-0.0
0.237012197,-0.19368000000000002,13.600000000000001,-0.464832,-0.7962400000000001,13.5,-1.910976,-0.70209,13.5,-1.6850159999999998,-0.01076,13.4,-0.025824,0.02152,13.4,0.051648,-0.0,13.4,-0.0,-0.0,13.4,-0.0
0.270124239,-0.19368000000000002,13.600000000000001,-0.464832,-0.79086,13.5,-1.898064,-0.6994,13.4,-1.67856,-0.00807,13.4,-0.019368,0.00538,13.4,0.012912,-0.0,13.4,-0.0,0.00269,13.4,0.006456
0.303956134,-0.18561,13.600000000000001,-0.44546399999999997,-0.7935500000000001,13.5,-1.9045200000000002,-0.69671,13.4,-1.672104,-0.01076,13.4,-0.025824,0.01076,13.4,0.025824,-0.0,13.4,-0.0,-0.0,13.4,-0.0
0.337046173,-0.18561,13.600000000000001,-0.44546399999999997,-0.7935500000000001,13.5,-1.9045200000000002,-0.6994,13.5,-1.67856,-0.01345,13.4,-0.032279999999999996,0.00538,13.4,0.012912,-0.0,13.4,-0.0,0.00269,13.4,0.006456
0.37004545,-0.06994,13.700000000000001,-0.167856,-0.27707000000000004,13.700000000000001,-0.6649680000000001,-0.24748,13.600000000000001,-0.593952,-0.01345,13.600000000000001,-0.032279999999999996,0.0,13.5,0.0,-0.0,13.5,-0.0,-0.0,13.5,-0.0
0.404317861,-0.048420000000000005,13.700000000000001,-0.116208,-0.27169,13.600000000000001,-0.652056,-0.27707000000000004,13.600000000000001,-0.6649680000000001,-0.01883,13.600000000000001,-0.045191999999999996,0.0,13.5,0.0,-0.0,13.600000000000001,-0.0,-0.0,13.5,-0.0
0.43717579,-0.01345,13.700000000000001,-0.032279999999999996,-0.34432,13.700000000000001,-0.826368,-0.30397,13.600000000000001,-0.7295280000000001,-0.01076,13.600000000000001,-0.025824,-0.00807,13.5,-0.019368,-0.0,13.600000000000001,-0.0,0.00269,13.5,0.006456
0.470103602,-0.00269,13.700000000000001,-0.006456,-0.39274000000000003,13.700000000000001,-0.9425760000000001,-0.32818,13.5,-0.787632,-0.01076,13.600000000000001,-0.025824,0.0,13.5,0.0,-0.0,13.600000000000001,-0.0,0.00269,13.5,0.006456
0.503853074,0.040350000000000004,13.700000000000001,0.09684000000000001,-0.41426,13.600000000000001,-0.994224,-0.32818,13.5,-0.787632,-0.01345,13.600000000000001,-0.032279999999999996,0.0,13.5,0.0,-0.0,13.600000000000001,-0.0,-0.0,13.5,-0.0
0.536834516,0.04573,13.700000000000001,0.109752,-0.37391,13.600000000000001,-0.8973840000000001,-0.30666,13.5,-0.735984,-0.00538,13.5,-0.012912,-0.01076,13.5,-0.025824,-0.0,13.600000000000001,-0.0,0.00269,13.5,0.006456
0.569869757,0.056490000000000005,13.600000000000001,0.135576,-0.36046,13.600000000000001,-0.865104,-0.30128,13.5,-0.7230719999999999,-0.01883,13.5,-0.045191999999999996,-0.02152,13.5,-0.051648,-0.0,13.5,-0.0,0.00269,13.5,0.006456
0.603913222,0.12374,13.700000000000001,0.296976,-0.36315000000000003,13.600000000000001,-0.87156,-0.35239000000000004,13.5,-0.845736,-0.00807,13.5,-0.019368,-0.024210000000000002,13.5,-0.058104,-0.0,13.5,-0.0,0.00269,13.5,0.006456
0.636822214,0.16678,13.700000000000001,0.400272,-0.36315000000000003,13.600000000000001,-0.87156,-0.35239000000000004,13.5,-0.845736,0.0,13.5,0.0,-0.02152,13.5,-0.051648,-0.0,13.5,-0.0,-0.0,13.5,-0.0
0.669679505,0.25017,13.700000000000001,0.6004079999999999,-0.36584,13.600000000000001,-0.878016,-0.34163,13.5,-0.819912,0.0,13.5,0.0,-0.02152,13.5,-0.051648,-0.0,13.5,-0.0,0.00269,13.5,0.006456
0.703729526,0.28783000000000003,13.700000000000001,0.6907920000000001,-0.37122,13.600000000000001,-0.8909279999999999,-0.41426,13.4,-0.994224,0.0,13.5,0.0,-0.05111,13.4,-0.122664,-0.0,13.4,-0.0,0.00269,13.5,0.006456
0.736651878,0.31742000000000004,13.700000000000001,0.761808,-0.33087,13.5,-0.794088,-0.40619,13.5,-0.974856,0.00269,13.4,0.006456,-0.04573,13.4,-0.109752,-0.0,13.4,-0.0,-0.0,13.4,-0.0
0.769820895,0.28514,13.700000000000001,0.6843359999999999,-0.32011,13.5,-0.768264,-0.39543,13.5,-0.949032,-0.00269,13.4,-0.006456,-0.0269,13.4,-0.06455999999999999,-0.0,13.4,-0.0,-0.0,13.4,-0.0
0.803625762,0.26093,13.700000000000001,0.626232,-0.31742000000000004,13.600000000000001,-0.761808,-0.44116,13.5,-1.058784,-0.00807,13.4,-0.019368,-0.06187,13.4,-0.148488,-0.0,13.4,-0.0,-0.0,13.4,-0.0
0.836706935,0.28783000000000003,13.700000000000001,0.6907920000000001,-0.31742000000000004,13.5,-0.761808,-0.44923,13.5,-1.078152,0.0,13.5,0.0,-0.07801000000000001,13.4,-0.18722400000000003,-0.0,13.4,-0.0,-0.0,13.4,-0.0
0.869640679,0.2959,13.600000000000001,0.71016,-0.33625,13.5,-0.8069999999999999,-0.47344,13.4,-1.136256,-0.00269,13.4,-0.006456,-0.06725,13.3,-0.16140000000000002,-0.0,13.3,-0.0,0.00269,13.4,0.006456
0.903785497,0.30666,13.5,0.735984,-0.32549,13.5,-0.781176,-0.50034,13.4,-1.2008159999999999,0.00269,13.4,0.006456,-0.06725,13.3,-0.16140000000000002,-0.0,13.3,-0.0,0.00269,13.3,0.006456
0.936693904,0.2959,13.5,0.71016,-0.30128,13.5,-0.7230719999999999,-0.5353100000000001,13.4,-1.284744,-0.01076,13.4,-0.025824,-0.06456,13.3,-0.154944,-0.0,13.3,-0.0,-0.0,13.3,-0.0
0.96998681,0.29321,13.600000000000001,0.703704,-0.29052,13.4,-0.697248,-0.55952,13.4,-1.342848,-0.01345,13.4,-0.032279999999999996,-0.07532,13.3,-0.18076799999999998,-0.0,13.3,-0.0,-0.0,13.3,-0.0
1.003716943,0.31742000000000004,13.5,0.761808,-0.29859,13.5,-0.716616,-0.5541400000000001,13.3,-1.3299360000000002,-0.01883,13.3,-0.045191999999999996,-0.08877,13.3,-0.213048,-0.0,13.3,-0.0,-0.0,13.3,-0.0
1.036666546,0.35777000000000003,13.5,0.8586480000000001,-0.27169,13.4,-0.652056,-0.6160100000000001,13.3,-1.4784240000000002,-0.01076,13.3,-0.025824,-0.07263,13.200000000000001,-0.174312,-0.0,13.3,-0.0,-0.0,13.3,-0.0
1.069635757,0.34163,13.5,0.819912,-0.32011,13.5,-0.768264,-0.64829,13.3,-1.555896,-0.00538,13.3,-0.012912,-0.08070000000000001,13.200000000000001,-0.19368000000000002,-0.0,13.200000000000001,-0.0,-0.0,13.200000000000001,-0.0
1.103660538,0.34163,13.5,0.819912,-0.34163,13.3,-0.819912,-0.65367,13.3,-1.568808,-0.00807,13.3,-0.019368,-0.08070000000000001,13.100000000000001,-0.19368000000000002,-0.0,13.200000000000001,-0.0,-0.0,13.200000000000001,-0.0
1.136676223,0.36046,13.4,0.865104,-0.29321,13.4,-0.703704,-0.68864,13.3,-1.652736,0.00538,13.200000000000001,0.012912,-0.1076,13.100000000000001,-0.25823999999999997,-0.0,13.100000000000001,-0.0,-0.0,13.200000000000001,-0.0
1.170660679,0.32280000000000003,13.5,0.7747200000000001,-0.29321,13.4,-0.703704,-0.73706,13.3,-1.768944,-0.00807,13.200000000000001,-0.019368,-0.048420000000000005,13.200000000000001,-0.116208,-0.0,13.100000000000001,-0.0,-0.0,13.100000000000001,-0.0
1.203695185,0.36315000000000003,13.4,0.87156,-0.31473,13.3,-0.755352,-0.7263000000000001,13.200000000000001,-1.74312,0.0,13.200000000000001,0.0,-0.10491,13.100000000000001,-0.251784,-0.0,13.100000000000001,-0.0,0.00269,13.100000000000001,0.006456
1.237126197,0.36046,13.4,0.865104,-0.30397,13.3,-0.7295280000000001,-0.7155400000000001,13.200000000000001,-1.7172960000000002,0.00269,13.200000000000001,0.006456,-0.08877,13.100000000000001,-0.213048,-0.0,13.100000000000001,-0.0,-0.0,13.100000000000001,-0.0
1.270599292,0.39274000000000003,13.5,0.9425760000000001,-0.30666,13.3,-0.735984,-0.69671,13.200000000000001,-1.672104,0.0,13.100000000000001,0.0,-0.10491,13.0,-0.251784,-0.0,13.100000000000001,-0.0,-0.0,13.100000000000001,-0.0
1.303668273,0.42771000000000003,13.4,1.026504,-0.29052,13.3,-0.697248,-0.6994,13.200000000000001,-1.67856,-0.01614,13.100000000000001,-0.038736,-0.13181,13.100000000000001,-0.316344,-0.0,13.0,-0.0,-0.0,13.0,-0.0
1.336560409,0.4035,13.4,0.9684,-0.27438,13.3,-0.658512,-0.6751900000000001,13.100000000000001,-1.6204560000000001,0.0,13.100000000000001,0.0,-0.12374,13.0,-0.296976,-0.0,13.0,-0.0,0.00269,13.100000000000001,0.006456
1.370618061,0.36853,13.3,0.884472,-0.28514,13.3,-0.6843359999999999,-0.65367,13.100000000000001,-1.568808,0.0,13.100000000000001,0.0,-0.08339,13.0,-0.200136,-0.0,13.100000000000001,-0.0,0.00269,13.100000000000001,0.006456
1.403448097,0.39812000000000003,13.5,0.955488,-0.27438,13.3,-0.658512,-0.68326,13.200000000000001,-1.639824,0.0,13.100000000000001,0.0,-0.1076,13.0,-0.25823999999999997,-0.0,13.0,-0.0,-0.0,13.0,-0.0
1.436401906,0.36584,13.4,0.878016,-0.27976,13.3,-0.671424,-0.6725,13.100000000000001,-1.6139999999999999,0.0,13.100000000000001,0.0,-0.06725,13.0,-0.16140000000000002,-0.0,13.0,-0.0,0.00269,13.0,0.006456
1.470619084,0.36046,13.5,0.865104,-0.2959,13.200000000000001,-0.71016,-0.72092,13.200000000000001,-1.730208,0.0,13.100000000000001,0.0,-0.08608,13.0,-0.206592,-0.0,13.0,-0.0,-0.0,13.0,-0.0
1.503619806,0.38198000000000004,13.3,0.916752,-0.30935,13.200000000000001,-0.74244,-0.6859500000000001,13.100000000000001,-1.6462800000000002,-0.00269,13.100000000000001,-0.006456,-0.10491,13.0,-0.251784,-0.0,13.0,-0.0,-0.0,13.0,-0.0
1.53647905,0.39543,13.4,0.949032,-0.31473,13.3,-0.755352,-0.64291,13.200000000000001,-1.542984,-0.01883,13.100000000000001,-0.045191999999999996,-0.07801000000000001,12.9,-0.18722400000000003,-0.0,13.0,-0.0,-0.0,13.100000000000001,-0.0
1.570491482,0.41964,13.3,1.007136,-0.29052,13.3,-0.697248,-0.62946,13.200000000000001,-1.510704,0.0,13.100000000000001,0.0,-0.09953000000000001,13.0,-0.238872,-0.0,13.0,-0.0,-0.0,13.0,-0.0
1.603409317,0.43847,13.4,1.052328,-0.31204000000000004,13.200000000000001,-0.7488960000000001,-0.65367,13.200000000000001,-1.568808,0.0,13.100000000000001,0.0,-0.13719,12.9,-0.329256,-0.0,13.0,-0.0,0.00269,13.0,0.006456
1.636428514,0.39274000000000003,13.3,0.9425760000000001,-0.29859,13.3,-0.716616,-0.65098,13.200000000000001,-1.562352,-0.00269,13.100000000000001,-0.006456,-0.09146,13.0,-0.219504,-0.0,13.0,-0.0,0.00269,13.0,0.006456
1.670374545,0.40888,13.4,0.981312,-0.33625,13.200000000000001,-0.8069999999999999,-0.63753,13.100000000000001,-1.530072,0.0,13.100000000000001,0.0,-0.08877,13.0,-0.213048,-0.0,13.0,-0.0,-0.0,13.0,-0.0
1.703398561,0.45461,13.3,1.091064,-0.33087,13.3,-0.794088,-0.67788,13.100000000000001,-1.6269120000000001,0.0,13.100000000000001,0.0,-0.10222,13.0,-0.245328,-0.0,13.0,-0.0,0.00269,13.100000000000001,0.006456
1.736392606,0.42233000000000004,13.4,1.013592,-0.32549,13.200000000000001,-0.781176,-0.65636,13.100000000000001,-1.575264,0.0,13.100000000000001,0.0,-0.12105,13.0,-0.29052,-0.0,13.0,-0.0,0.00269,13.0,0.006456
1.770341855,0.43847,13.3,1.052328,-0.32011,13.200000000000001,-0.768264,-0.6751900000000001,13.100000000000001,-1.6204560000000001,-0.02152,13.100000000000001,-0.051648,-0.08608,13.0,-0.206592,-0.0,13.0,-0.0,-0.0,13.0,-0.0
1.803302513,0.45461,13.4,1.091064,-0.28783000000000003,13.200000000000001,-0.6907920000000001,-0.66712,13.100000000000001,-1.601088,-0.00269,13.100000000000001,-0.006456,-0.09684000000000001,13.0,-0.232416,-0.0,13.0,-0.0,-0.0,13.0,-0.0
1.836330794,0.40619,13.4,0.974856,-0.31742000000000004,13.200000000000001,-0.761808,-0.65636,13.200000000000001,-1.575264,0.0,13.100000000000001,0.0,-0.08877,13.0,-0.213048,-0.0,13.0,-0.0,-0.0,13.0,-0.0
1.870337917,0.40888,13.4,0.981312,-0.27169,13.3,-0.652056,-0.65367,13.100000000000001,-1.568808,-0.01883,13.100000000000001,-0.045191999999999996,-0.08877,13.0,-0.213048,-0.0,13.0,-0.0,-0.0,13.0,-0.0
1.903334427,0.40619,13.4,0.974856,-0.30397,13.200000000000001,-0.7295280000000001,-0.70747,13.100000000000001,-1.697928,-0.01076,13.0,-0.025824,-0.1345,12.9,-0.32280000000000003,-0.0,12.9,-0.0,0.00269,13.0,0.006456
1.936248904,0.38736000000000004,13.4,0.929664,-0.3497,13.3,-0.83928,-0.7047800000000001,13.100000000000001,-1.691472,-0.00538,13.100000000000001,-0.012912,-0.07801000000000001,13.0,-0.18722400000000003,-0.0,12.9,-0.0,-0.0,13.0,-0.0
1.970299038,0.40081,13.4,0.9619439999999999,-0.32818,13.3,-0.787632,-0.66981,13.100000000000001,-1.607544,0.0,13.100000000000001,0.0,-0.04304,12.9,-0.103296,-0.0,13.0,-0.0,-0.0,13.0,-0.0
2.003185014,0.45192000000000004,13.3,1.084608,-0.36046,13.200000000000001,-0.865104,-0.66712,13.100000000000001,-1.601088,-0.02152,13.100000000000001,-0.051648,-0.09415,12.9,-0.22596,-0.0,13.0,-0.0,-0.0,13.0,-0.0
2.037346548,0.42771000000000003,13.4,1.026504,-0.33625,13.200000000000001,-0.8069999999999999,-0.73168,13.100000000000001,-1.756032,-0.01614,13.0,-0.038736,-0.06725,13.0,-0.16140000000000002,-0.0,13.0,-0.0,0.00269,13.0,0.006456
2.07034579,0.47882,13.3,1.149168,-0.36046,13.200000000000001,-0.865104,-0.6859500000000001,13.100000000000001,-1.6462800000000002,-0.00269,13.100000000000001,-0.006456,-0.11567000000000001,13.0,-0.277608,-0.0,13.0,-0.0,0.00269,13.0,0.006456
2.103282734,0.44116,13.4,1.058784,-0.36046,13.200000000000001,-0.865104,-0.6859500000000001,13.100000000000001,-1.6462800000000002,-0.00538,13.100000000000001,-0.012912,-0.11298000000000001,13.0,-0.271152,-0.0,12.9,-0.0,0.00269,13.0,0.006456
2.137201205,0.42233000000000004,13.3,1.013592,-0.41695000000000004,13.3,-1.00068,-0.69133,13.100000000000001,-1.659192,-0.01076,13.100000000000001,-0.025824,-0.06994,12.9,-0.167856,-0.0,13.0,-0.0,-0.0,13.0,-0.0
2.170195988,0.46268000000000004,13.4,1.110432,-0.35239000000000004,13.200000000000001,-0.845736,-0.69133,13.100000000000001,-1.659192,0.0,13.100000000000001,0.0,-0.1076,12.9,-0.25823999999999997,-0.0,13.0,-0.0,-0.0,12.9,-0.0
2.203199325,0.41426,13.3,0.994224,-0.32280000000000003,13.3,-0.7747200000000001,-0.7236100000000001,13.100000000000001,-1.7366640000000002,0.0,13.100000000000001,0.0,-0.12105,12.9,-0.29052,-0.0,13.0,-0.0,-0.0,13.0,-0.0
2.237255328,0.4035,13.4,0.9684,-0.32011,13.200000000000001,-0.768264,-0.7236100000000001,13.100000000000001,-1.7366640000000002,-0.02152,13.100000000000001,-0.051648,-0.09415,13.0,-0.22596,-0.0,13.0,-0.0,-0.0,13.0,-0.0
2.270275742,0.45192000000000004,13.3,1.084608,-0.28514,13.3,-0.6843359999999999,-0.6456000000000001,13.200000000000001,-1.5494400000000002,-0.00538,13.100000000000001,-0.012912,-0.1345,12.9,-0.32280000000000003,-0.0,13.0,-0.0,0.00269,13.0,0.006456
2.3031901,0.4304,13.4,1.0329599999999999,-0.34432,13.200000000000001,-0.826368,-0.63753,13.100000000000001,-1.530072,-0.00807,13.100000000000001,-0.019368,-0.10491,13.0,-0.251784,-0.0,13.0,-0.0,0.00269,13.0,0.006456
2.337087905,0.41426,13.4,0.994224,-0.34163,13.200000000000001,-0.819912,-0.6348400000000001,13.200000000000001,-1.523616,-0.02152,13.100000000000001,-0.051648,-0.09415,13.0,-0.22596,-0.0,13.0,-0.0,-0.0,13.0,-0.0
2.370121077,0.47344,13.4,1.136256,-0.40619,13.200000000000001,-0.974856,-0.65905,13.100000000000001,-1.58172,-0.00269,13.100000000000001,-0.006456,-0.13719,13.0,-0.329256,-0.0,13.0,-0.0,0.00269,13.0,0.006456
2.403157408,0.44116,13.4,1.058784,-0.36584,13.200000000000001,-0.878016,-0.6644300000000001,13.200000000000001,-1.594632,-0.00807,13.100000000000001,-0.019368,-0.1076,12.9,-0.25823999999999997,-0.0,13.0,-0.0,0.00269,13.0,0.006456
2.43717201,0.41426,13.4,0.994224,-0.35239000000000004,13.3,-0.845736,-0.70747,13.100000000000001,-1.697928,-0.0269,13.200000000000001,-0.06455999999999999,-0.08608,13.0,-0.206592,-0.0,13.0,-0.0,0.00269,13.0,0.006456
2.470049872,0.45192000000000004,13.5,1.084608,-0.39543,13.200000000000001,-0.949032,-0.72899,13.100000000000001,-1.749576,-0.01345,13.0,-0.032279999999999996,-0.1345,12.9,-0.32280000000000003,-0.0,12.9,-0.0,0.00269,12.9,0.006456
2.503082908,0.43847,13.4,1.052328,-0.32280000000000003,13.200000000000001,-0.7747200000000001,-0.68057,13.100000000000001,-1.633368,-0.0269,13.100000000000001,-0.06455999999999999,-0.10491,13.0,-0.251784,-0.0,13.0,-0.0,0.00269,13.0,0.006456
2.536983993,0.41964,13.3,1.007136,-0.36315000000000003,13.200000000000001,-0.87156,-0.65636,13.100000000000001,-1.575264,0.0,13.100000000000001,0.0,-0.11298000000000001,12.9,-0.271152,-0.0,13.0,-0.0,0.00269,13.0,0.006456
2.570150544,0.44654,13.3,1.071696,-0.35777000000000003,13.200000000000001,-0.8586480000000001,-0.66981,13.100000000000001,-1.607544,-0.00807,13.100000000000001,-0.019368,-0.13181,13.0,-0.316344,-0.0,13.0,-0.0,0.00538,13.0,0.012912
2.603122899,0.41695000000000004,13.3,1.00068,-0.33894,13.200000000000001,-0.8134560000000001,-0.73168,13.100000000000001,-1.756032,-0.01076,13.0,-0.025824,-0.1076,12.9,-0.25823999999999997,-0.0,13.0,-0.0,0.00538,13.0,0.012912
2.6370198,0.40081,13.3,0.9619439999999999,-0.32549,13.200000000000001,-0.781176,-0.67788,13.100000000000001,-1.6269120000000001,-0.00807,13.100000000000001,-0.019368,-0.09953000000000001,13.0,-0.238872,-0.0,13.0,-0.0,0.00538,13.0,0.012912
2.670347139,0.46268000000000004,13.4,1.110432,-0.30935,13.200000000000001,-0.74244,-0.71285,13.100000000000001,-1.71084,-0.024210000000000002,13.0,-0.058104,-0.15064,12.9,-0.36153599999999997,-0.0,13.0,-0.0,-0.0,13.0,-0.0
2.70336925,0.43847,13.3,1.052328,-0.32011,13.200000000000001,-0.768264,-0.7639600000000001,13.100000000000001,-1.833504,-0.01614,13.100000000000001,-0.038736,-0.12643000000000001,12.9,-0.30343200000000004,-0.0,13.0,-0.0,0.00269,13.0,0.006456
2.73710488,0.39543,13.4,0.949032,-0.29321,13.200000000000001,-0.703704,-0.7451300000000001,13.100000000000001,-1.7883120000000001,-0.02152,13.100000000000001,-0.051648,-0.09146,13.0,-0.219504,-0.0,13.0,-0.0,0.00269,13.0,0.006456
2.77000585,0.45999,13.3,1.103976,-0.32011,13.200000000000001,-0.768264,-0.73168,13.0,-1.756032,-0.01076,13.100000000000001,-0.025824,-0.16409,12.9,-0.393816,-0.0,13.0,-0.0,0.00269,12.9,0.006456
2.804241683,0.41157,13.3,0.987768,-0.35777000000000003,13.200000000000001,-0.8586480000000001,-0.71016,13.100000000000001,-1.704384,-0.01614,13.100000000000001,-0.038736,-0.11298000000000001,13.0,-0.271152,-0.0,13.0,-0.0,0.00269,13.0,0.006456
2.837037739,0.44385,13.4,1.06524,-0.30666,13.200000000000001,-0.735984,-0.7343700000000001,13.0,-1.762488,-0.01614,13.100000000000001,-0.038736,-0.16947,12.9,-0.40672800000000003,-0.0,12.9,-0.0,0.00269,13.0,0.006456
2.869993868,0.40619,13.4,0.974856,-0.32549,13.200000000000001,-0.781176,-0.72899,13.100000000000001,-1.749576,-0.0269,13.100000000000001,-0.06455999999999999,-0.11567000000000001,13.0,-0.277608,-0.0,13.0,-0.0,0.00269,13.0,0.006456
2.904403253,0.36046,13.4,0.865104,-0.33356,13.200000000000001,-0.800544,-0.70747,13.200000000000001,-1.697928,-0.03497,13.100000000000001,-0.083928,-0.1076,12.9,-0.25823999999999997,-0.0,13.0,-0.0,0.00269,13.0,0.006456
2.936966024,0.41426,13.3,0.994224,-0.3497,13.200000000000001,-0.83928,-0.69671,13.100000000000001,-1.672104,-0.01883,13.0,-0.045191999999999996,-0.12105,13.0,-0.29052,-0.0,13.0,-0.0,0.00538,13.0,0.012912
2.970028361,0.40081,13.4,0.9619439999999999,-0.36315000000000003,13.200000000000001,-0.87156,-0.6940200000000001,13.100000000000001,-1.6656480000000002,-0.01345,13.0,-0.032279999999999996,-0.13181,12.9,-0.316344,-0.0,13.0,-0.0,0.00538,12.9,0.012912
3.003771308,0.35508,13.3,0.852192,-0.33894,13.200000000000001,-0.8134560000000001,-0.73168,13.100000000000001,-1.756032,-0.03497,13.100000000000001,-0.083928,-0.10222,13.0,-0.245328,-0.0,13.0,-0.0,0.00538,13.0,0.012912
3.037178448,0.39543,13.4,0.949032,-0.33625,13.200000000000001,-0.8069999999999999,-0.73975,13.100000000000001,-1.7754,-0.01614,13.100000000000001,-0.038736,-0.11298000000000001,12.9,-0.271152,-0.0,13.0,-0.0,0.00807,13.0,0.019368
3.070026192,0.39274000000000003,13.3,0.9425760000000001,-0.34432,13.200000000000001,-0.826368,-0.7263000000000001,13.100000000000001,-1.74312,-0.00269,13.100000000000001,-0.006456,-0.09953000000000001,13.0,-0.238872,-0.0,13.0,-0.0,0.00538,13.0,0.012912
3.103864363,0.35239000000000004,13.3,0.845736,-0.34701000000000004,13.200000000000001,-0.8328240000000001,-0.71823,13.200000000000001,-1.723752,-0.02152,13.0,-0.051648,-0.13181,13.0,-0.316344,-0.0,12.9,-0.0,0.00538,13.0,0.012912
3.13676091,0.41157,13.3,0.987768,-0.31473,13.3,-0.755352,-0.73706,13.200000000000001,-1.768944,-0.03497,13.0,-0.083928,-0.14257,13.0,-0.34216799999999997,-0.0,13.0,-0.0,0.00538,13.0,0.012912
3.169700698,0.38198000000000004,13.4,0.916752,-0.35239000000000004,13.200000000000001,-0.845736,-0.70747,13.100000000000001,-1.697928,-0.024210000000000002,13.0,-0.058104,-0.10222,13.0,-0.245328,-0.0,12.9,-0.0,0.00538,13.0,0.012912
3.203696969,0.36853,13.4,0.884472,-0.29321,13.200000000000001,-0.703704,-0.72092,13.100000000000001,-1.730208,-0.00538,13.100000000000001,-0.012912,-0.08877,12.9,-0.213048,-0.0,13.0,-0.0,0.00538,13.0,0.012912
3.236835166,0.38467,13.4,0.923208,-0.32549,13.200000000000001,-0.781176,-0.72092,13.100000000000001,-1.730208,-0.01614,13.0,-0.038736,-0.11567000000000001,12.9,-0.277608,-0.0,13.0,-0.0,0.00538,13.0,0.012912
3.269817322,0.37122,13.4,0.8909279999999999,-0.36584,13.3,-0.878016,-0.66981,13.100000000000001,-1.607544,-0.02152,13.100000000000001,-0.051648,-0.12643000000000001,13.0,-0.30343200000000004,-0.0,13.0,-0.0,0.00538,13.0,0.012912
3.303752636,0.32549,13.4,0.781176,-0.33356,13.200000000000001,-0.800544,-0.70747,13.200000000000001,-1.697928,-0.02152,13.200000000000001,-0.051648,-0.09684000000000001,13.0,-0.232416,-0.0,13.0,-0.0,0.00538,13.0,0.012912
3.336655175,0.39543,13.4,0.949032,-0.36046,13.3,-0.865104,-0.6644300000000001,13.100000000000001,-1.594632,-0.01345,13.100000000000001,-0.032279999999999996,-0.11298000000000001,12.9,-0.271152,-0.0,13.0,-0.0,0.00538,13.0,0.012912
3.369753308,0.36315000000000003,13.3,0.87156,-0.3497,13.200000000000001,-0.83928,-0.68864,13.100000000000001,-1.652736,-0.048420000000000005,13.100000000000001,-0.116208,-0.1076,13.0,-0.25823999999999997,-0.0,12.9,-0.0,0.00538,13.0,0.012912
3.403864325,0.33625,13.4,0.8069999999999999,-0.40081,13.200000000000001,-0.9619439999999999,-0.72092,13.100000000000001,-1.730208,-0.024210000000000002,13.100000000000001,-0.058104,-0.09415,12.9,-0.22596,-0.0,13.0,-0.0,0.00538,13.0,0.012912
3.436763972,0.38198000000000004,13.3,0.916752,-0.35239000000000004,13.200000000000001,-0.845736,-0.74782,13.200000000000001,-1.7947680000000001,-0.02152,13.100000000000001,-0.051648,-0.1345,13.0,-0.32280000000000003,-0.0,13.0,-0.0,0.00538,13.0,0.012912
3.469779034,0.34432,13.4,0.826368,-0.34701000000000004,13.3,-0.8328240000000001,-0.82314,13.200000000000001,-1.975536,-0.04304,13.100000000000001,-0.103296,-0.12374,12.9,-0.296976,-0.0,13.0,-0.0,0.00538,13.0,0.012912
3.503810299,0.33894,13.4,0.8134560000000001,-0.36853,13.3,-0.884472,-0.7935500000000001,13.100000000000001,-1.9045200000000002,-0.03497,13.100000000000001,-0.083928,-0.07801000000000001,13.0,-0.18722400000000003,-0.0,13.0,-0.0,0.00538,13.0,0.012912
3.536712899,0.37929,13.5,0.910296,-0.33894,13.200000000000001,-0.8134560000000001,-0.79893,13.100000000000001,-1.917432,-0.0269,13.100000000000001,-0.06455999999999999,-0.12912,12.9,-0.309888,-0.0,13.0,-0.0,0.00538,13.0,0.012912
3.569811709,0.31204000000000004,13.3,0.7488960000000001,-0.37929,13.200000000000001,-0.910296,-0.7263000000000001,13.200000000000001,-1.74312,-0.0269,13.100000000000001,-0.06455999999999999,-0.11029,13.0,-0.264696,-0.0,13.0,-0.0,0.00538,13.0,0.012912
3.603766109,0.27707000000000004,13.4,0.6649680000000001,-0.33356,13.3,-0.800544,-0.70747,13.200000000000001,-1.697928,-0.0269,13.100000000000001,-0.06455999999999999,-0.08877,13.100000000000001,-0.213048,-0.0,13.0,-0.0,0.00269,13.0,0.006456
3.636752414,0.32549,13.4,0.781176,-0.36853,13.3,-0.884472,-0.7263000000000001,13.100000000000001,-1.74312,-0.0269,13.100000000000001,-0.06455999999999999,-0.09684000000000001,13.0,-0.232416,-0.0,13.100000000000001,-0.0,0.00269,13.0,0.006456
3.669631261,0.26631,13.4,0.6391439999999999,-0.34432,13.3,-0.826368,-0.72899,13.200000000000001,-1.749576,-0.0269,13.100000000000001,-0.06455999999999999,-0.09415,13.100000000000001,-0.22596,-0.0,13.0,-0.0,0.00269,13.100000000000001,0.006456
3.703632518,0.25824,13.4,0.619776,-0.36315000000000003,13.3,-0.87156,-0.7343700000000001,13.200000000000001,-1.762488,-0.0269,13.100000000000001,-0.06455999999999999,-0.06994,13.100000000000001,-0.167856,-0.0,13.100000000000001,-0.0,0.00269,13.100000000000001,0.006456
3.736508707,0.28245000000000003,13.5,0.67788,-0.36046,13.3,-0.865104,-0.70209,13.200000000000001,-1.6850159999999998,-0.03228,13.200000000000001,-0.077472,-0.08339,13.100000000000001,-0.200136,-0.0,13.100000000000001,-0.0,0.00269,13.100000000000001,0.006456
3.769933447,0.26631,13.5,0.6391439999999999,-0.36584,13.3,-0.878016,-0.71285,13.100000000000001,-1.71084,-0.02959,13.200000000000001,-0.071016,-0.06994,13.200000000000001,-0.167856,-0.0,13.200000000000001,-0.0,0.00269,13.100000000000001,0.006456
3.803729801,0.25824,13.4,0.619776,-0.39543,13.3,-0.949032,-0.72899,13.200000000000001,-1.749576,-0.03228,13.200000000000001,-0.077472,-0.06725,13.200000000000001,-0.16140000000000002,-0.0,13.100000000000001,-0.0,0.00269,13.100000000000001,0.006456
3.83690519,0.27438,13.5,0.658512,-0.36315000000000003,13.4,-0.87156,-0.75051,13.200000000000001,-1.801224,-0.024210000000000002,13.200000000000001,-0.058104,-0.09415,13.100000000000001,-0.22596,-0.0,13.200000000000001,-0.0,0.00269,13.200000000000001,0.006456
3.870677456,0.25286000000000003,13.5,0.6068640000000001,-0.35239000000000004,13.3,-0.845736,-0.7558900000000001,13.3,-1.814136,-0.02959,13.200000000000001,-0.071016,-0.08070000000000001,13.200000000000001,-0.19368000000000002,-0.0,13.200000000000001,-0.0,0.00269,13.200000000000001,0.006456
3.903597103,0.26093,13.5,0.626232,-0.37391,13.4,-0.8973840000000001,-0.76127,13.3,-1.827048,-0.02959,13.3,-0.071016,-0.06994,13.100000000000001,-0.167856,-0.0,13.200000000000001,-0.0,0.00269,13.200000000000001,0.006456
3.936687989,0.22596000000000002,13.600000000000001,0.542304,-0.36584,13.4,-0.878016,-0.72899,13.3,-1.749576,-0.0269,13.3,-0.06455999999999999,-0.08339,13.200000000000001,-0.200136,-0.0,13.200000000000001,-0.0,0.00269,13.200000000000001,0.006456
3.97055583,0.21251,13.600000000000001,0.510024,-0.34432,13.4,-0.826368,-0.7747200000000001,13.3,-1.859328,-0.0269,13.200000000000001,-0.06455999999999999,-0.05111,13.100000000000001,-0.122664,-0.0,13.200000000000001,-0.0,0.00269,13.3,0.006456
4.003543917,0.21251,13.600000000000001,0.510024,-0.37122,13.4,-0.8909279999999999,-0.7343700000000001,13.4,-1.762488,-0.02959,13.3,-0.071016,-0.06456,13.3,-0.154944,-0.0,13.3,-0.0,-0.0,13.3,-0.0
4.036436182,0.19906000000000001,13.600000000000001,0.477744,-0.36853,13.5,-0.884472,-0.7155400000000001,13.4,-1.7172960000000002,-0.03766,13.4,-0.09038399999999999,-0.048420000000000005,13.200000000000001,-0.116208,-0.0,13.3,-0.0,0.00269,13.3,0.006456
4.070499214,0.18023,13.600000000000001,0.432552,-0.37391,13.5,-0.8973840000000001,-0.71016,13.4,-1.704384,-0.04304,13.3,-0.103296,-0.04573,13.200000000000001,-0.109752,-0.0,13.3,-0.0,0.00269,13.3,0.006456
4.103510874,0.20982,13.600000000000001,0.503568,-0.40081,13.5,-0.9619439999999999,-0.6751900000000001,13.3,-1.6204560000000001,-0.03766,13.4,-0.09038399999999999,-0.040350000000000004,13.3,-0.09684000000000001,-0.0,13.4,-0.0,0.00269,13.4,0.006456
4.136497192,0.19637000000000002,13.5,0.47128800000000004,-0.36046,13.5,-0.865104,-0.7236100000000001,13.4,-1.7366640000000002,-0.04573,13.4,-0.109752,-0.040350000000000004,13.3,-0.09684000000000001,-0.0,13.3,-0.0,0.00269,13.3,0.006456
4.170406429,0.18561,13.600000000000001,0.44546399999999997,-0.32549,13.5,-0.781176,-0.7451300000000001,13.3,-1.7883120000000001,-0.04573,13.4,-0.109752,-0.048420000000000005,13.4,-0.116208,-0.0,13.4,-0.0,0.00269,13.4,0.006456
4.203390856,0.20444,13.5,0.490656,-0.35239000000000004,13.5,-0.845736,-0.75051,13.4,-1.801224,-0.05111,13.4,-0.122664,-0.03497,13.3,-0.083928,-0.0,13.4,-0.0,0.00269,13.4,0.006456
4.236444793,0.16409,13.600000000000001,0.393816,-0.34701000000000004,13.5,-0.8328240000000001,-0.7854800000000001,13.4,-1.8851520000000002,-0.04573,13.4,-0.109752,-0.01614,13.3,-0.038736,-0.0,13.4,-0.0,0.00269,13.4,0.006456
4.270578447,0.15871000000000002,13.600000000000001,0.380904,-0.35239000000000004,13.5,-0.845736,-0.7801,13.3,-1.87224,-0.048420000000000005,13.4,-0.116208,-0.01883,13.3,-0.045191999999999996,-0.0,13.4,-0.0,0.00269,13.4,0.006456
4.303382585,0.15871000000000002,13.600000000000001,0.380904,-0.34701000000000004,13.5,-0.8328240000000001,-0.7451300000000001,13.4,-1.7883120000000001,-0.04304,13.4,-0.103296,-0.00538,13.4,-0.012912,-0.0,13.4,-0.0,0.00269,13.4,0.006456
4.336424899,0.1345,13.600000000000001,0.32280000000000003,-0.34701000000000004,13.5,-0.8328240000000001,-0.72899,13.5,-1.749576,-0.03766,13.4,-0.09038399999999999,-0.01345,13.4,-0.032279999999999996,-0.0,13.4,-0.0,0.00269,13.4,0.006456
4.37039019,0.1345,13.600000000000001,0.32280000000000003,-0.34701000000000004,13.5,-0.8328240000000001,-0.75051,13.4,-1.801224,-0.048420000000000005,13.4,-0.116208,0.0,13.4,0.0,-0.0,13.4,-0.0,0.00269,13.4,0.006456
4.403419243,0.12374,13.700000000000001,0.296976,-0.35239000000000004,13.600000000000001,-0.845736,-0.7532,13.5,-1.80768,-0.04573,13.4,-0.109752,-0.00807,13.4,-0.019368,-0.0,13.4,-0.0,0.00269,13.4,0.006456
4.438082839,0.12374,13.700000000000001,0.296976,-0.34701000000000004,13.5,-0.8328240000000001,-0.7854800000000001,13.4,-1.8851520000000002,-0.04304,13.4,-0.103296,0.0,13.4,0.0,-0.0,13.4,-0.0,0.00269,13.4,0.006456
4.470386444,0.12105,13.700000000000001,0.29052,-0.35239000000000004,13.600000000000001,-0.845736,-0.79086,13.5,-1.898064,-0.056490000000000005,13.4,-0.135576,0.0,13.4,0.0,-0.0,13.4,-0.0,0.00269,13.4,0.006456
4.503223292,0.12912,13.700000000000001,0.309888,-0.34701000000000004,13.5,-0.8328240000000001,-0.79893,13.4,-1.917432,-0.056490000000000005,13.4,-0.135576,0.0,13.4,0.0,-0.0,13.4,-0.0,0.00269,13.4,0.006456
4.536403164,0.13719,13.700000000000001,0.329256,-0.35508,13.5,-0.852192,-0.80162,13.4,-1.9238879999999998,-0.056490000000000005,13.4,-0.135576,0.0,13.4,0.0,-0.0,13.4,-0.0,0.00269,13.4,0.006456
4.570292268,0.14526,13.700000000000001,0.348624,-0.35777000000000003,13.600000000000001,-0.8586480000000001,-0.80162,13.5,-1.9238879999999998,-0.03228,13.4,-0.077472,0.0,13.4,0.0,-0.0,13.4,-0.0,0.00269,13.4,0.006456
4.605826574,0.15064,13.700000000000001,0.36153599999999997,-0.36046,13.600000000000001,-0.865104,-0.80162,13.5,-1.9238879999999998,-0.048420000000000005,13.4,-0.116208,-0.00269,13.4,-0.006456,-0.0,13.4,-0.0,0.00269,13.4,0.006456
4.641341366,0.1345,13.700000000000001,0.32280000000000003,-0.34701000000000004,13.5,-0.8328240000000001,-0.8043100000000001,13.4,-1.930344,-0.02959,13.4,-0.071016,-0.00269,13.4,-0.006456,-0.0,13.4,-0.0,0.00269,13.4,0.006456
4.670854039,0.1345,13.700000000000001,0.32280000000000003,-0.35508,13.600000000000001,-0.852192,-0.8043100000000001,13.4,-1.930344,-0.06187,13.4,-0.148488,-0.00538,13.4,-0.012912,-0.0,13.4,-0.0,0.00269,13.4,0.006456
4.703687163,0.13181,13.700000000000001,0.316344,-0.35777000000000003,13.600000000000001,-0.8586480000000001,-0.8043100000000001,13.4,-1.930344,-0.05918,13.4,-0.142032,-0.00807,13.4,-0.019368,-0.0,13.4,-0.0,0.00269,13.4,0.006456
4.737351622,0.13719,13.700000000000001,0.329256,-0.36046,13.600000000000001,-0.865104,-0.8043100000000001,13.5,-1.930344,-0.05111,13.4,-0.122664,-0.00538,13.4,-0.012912,-0.0,13.4,-0.0,0.00269,13.4,0.006456
4.772160982,0.13988,13.700000000000001,0.335712,-0.34701000000000004,13.5,-0.8328240000000001,-0.8043100000000001,13.4,-1.930344,-0.05111,13.4,-0.122664,-0.00538,13.4,-0.012912,-0.0,13.4,-0.0,0.00269,13.4,0.006456
4.803217611,0.13181,13.700000000000001,0.316344,-0.34432,13.600000000000001,-0.826368,-0.8043100000000001,13.5,-1.930344,-0.056490000000000005,13.4,-0.135576,-0.00807,13.4,-0.019368,-0.0,13.4,-0.0,0.00269,13.4,0.006456
4.837075123,0.12912,13.700000000000001,0.309888,-0.36046,13.600000000000001,-0.865104,-0.8043100000000001,13.4,-1.930344,-0.048420000000000005,13.4,-0.116208,-0.00269,13.4,-0.006456,-0.0,13.4,-0.0,0.00269,13.4,0.006456
4.870262286,0.1345,13.700000000000001,0.32280000000000003,-0.36046,13.600000000000001,-0.865104,-0.8043100000000001,13.4,-1.930344,-0.040350000000000004,13.4,-0.09684000000000001,-0.00807,13.4,-0.019368,-0.0,13.4,-0.0,0.00269,13.4,0.006456
4.903382906,0.12374,13.700000000000001,0.296976,-0.3497,13.600000000000001,-0.83928,-0.8043100000000001,13.5,-1.930344,-0.03497,13.4,-0.083928,-0.00807,13.4,-0.019368,-0.0,13.4,-0.0,0.00269,13.4,0.006456
4.937378405,0.12912,13.700000000000001,0.309888,-0.36046,13.5,-0.865104,-0.8043100000000001,13.5,-1.930344,-0.048420000000000005,13.4,-0.116208,-0.00807,13.4,-0.019368,-0.0,13.4,-0.0,0.00269,13.4,0.006456
4.970404477,0.13719,13.700000000000001,0.329256,-0.35239000000000004,13.5,-0.845736,-0.8043100000000001,13.5,-1.930344,-0.05111,13.4,-0.122664,-0.00538,13.4,-0.012912,-0.0,13.4,-0.0,0.00269,13.4,0.006456
5.00313399,0.13719,13.700000000000001,0.329256,-0.35508,13.600000000000001,-0.852192,-0.80969,13.4,-1.9432559999999999,-0.06456,13.4,-0.154944,-0.00269,13.4,-0.006456,-0.0,13.4,-0.0,0.00269,13.4,0.006456
5.037123127,0.14257,13.700000000000001,0.34216799999999997,-0.35239000000000004,13.600000000000001,-0.845736,-0.80969,13.5,-1.9432559999999999,-0.05918,13.4,-0.142032,-0.00269,13.4,-0.006456,-0.0,13.4,-0.0,0.00269,13.4,0.006456
5.07016259,0.14795,13.700000000000001,0.35508,-0.35508,13.5,-0.852192,-0.80969,13.5,-1.9432559999999999,-0.04304,13.4,-0.103296,-0.00269,13.4,-0.006456,-0.0,13.4,-0.0,0.00269,13.4,0.006456
5.103147544,0.14795,13.700000000000001,0.35508,-0.36046,13.600000000000001,-0.865104,-0.80969,13.5,-1.9432559999999999,-0.04573,13.4,-0.109752,-0.00538,13.4,-0.012912,-0.0,13.4,-0.0,0.00269,13.4,0.006456
5.137075147,0.13988,13.700000000000001,0.335712,-0.35777000000000003,13.5,-0.8586480000000001,-0.807,13.5,-1.9368,-0.05111,13.4,-0.122664,-0.00269,13.4,-0.006456,-0.0,13.4,-0.0,0.00269,13.4,0.006456
5.170594347,0.14257,13.700000000000001,0.34216799999999997,-0.35777000000000003,13.600000000000001,-0.8586480000000001,-0.807,13.4,-1.9368,-0.03766,13.4,-0.09038399999999999,-0.00269,13.4,-0.006456,-0.0,13.4,-0.0,0.00269,13.4,0.006456
5.203149974,0.1345,13.700000000000001,0.32280000000000003,-0.36046,13.5,-0.865104,-0.807,13.4,-1.9368,-0.040350000000000004,13.4,-0.09684000000000001,-0.00269,13.4,-0.006456,-0.0,13.4,-0.0,0.00269,13.4,0.006456
5.237152263,0.1345,13.700000000000001,0.32280000000000003,-0.35777000000000003,13.5,-0.8586480000000001,-0.807,13.4,-1.9368,-0.048420000000000005,13.4,-0.116208,-0.00807,13.4,-0.019368,-0.0,13.4,-0.0,0.00269,13.4,0.006456
5.270403462,0.13181,13.700000000000001,0.316344,-0.35777000000000003,13.5,-0.8586480000000001,-0.807,13.3,-1.9368,-0.05918,13.4,-0.142032,-0.00538,13.4,-0.012912,-0.0,13.4,-0.0,-0.0,13.4,-0.0
5.302992436,0.12643000000000001,13.600000000000001,0.30343200000000004,-0.35508,13.600000000000001,-0.852192,-0.807,13.4,-1.9368,-0.04304,13.4,-0.103296,-0.00538,13.4,-0.012912,-0.0,13.4,-0.0,0.00269,13.4,0.006456
5.337083979,0.12105,13.600000000000001,0.29052,-0.35239000000000004,13.600000000000001,-0.845736,-0.807,13.5,-1.9368,-0.056490000000000005,13.4,-0.135576,-0.00538,13.4,-0.012912,-0.0,13.4,-0.0,0.00269,13.4,0.006456
5.370129801,0.12374,13.700000000000001,0.296976,-0.36315000000000003,13.600000000000001,-0.87156,-0.807,13.4,-1.9368,-0.0538,13.4,-0.12911999999999998,-0.00538,13.4,-0.012912,-0.0,13.4,-0.0,0.00269,13.4,0.006456
5.402983071,0.12374,13.700000000000001,0.296976,-0.36315000000000003,13.600000000000001,-0.87156,-0.807,13.4,-1.9368,-0.0538,13.4,-0.12911999999999998,-0.00538,13.4,-0.012912,-0.0,13.4,-0.0,0.00269,13.4,0.006456
5.436936851,0.12643000000000001,13.700000000000001,0.30343200000000004,-0.35777000000000003,13.5,-0.8586480000000001,-0.807,13.4,-1.9368,-0.04304,13.4,-0.103296,-0.00538,13.4,-0.012912,-0.0,13.4,-0.0,0.00269,13.4,0.006456
5.469972722,0.1345,13.700000000000001,0.32280000000000003,-0.3497,13.600000000000001,-0.83928,-0.807,13.5,-1.9368,-0.03497,13.4,-0.083928,-0.00269,13.4,-0.006456,-0.0,13.4,-0.0,0.00269,13.4,0.006456
5.503979892,0.12105,13.600000000000001,0.29052,-0.35239000000000004,13.600000000000001,-0.845736,-0.807,13.4,-1.9368,-0.040350000000000004,13.4,-0.09684000000000001,-0.00269,13.4,-0.006456,-0.0,13.4,-0.0,0.00269,13.4,0.006456
5.536980516,0.12374,13.600000000000001,0.296976,-0.35777000000000003,13.5,-0.8586480000000001,-0.807,13.4,-1.9368,-0.06187,13.4,-0.148488,-0.00269,13.4,-0.006456,-0.0,13.4,-0.0,-0.0,13.4,-0.0
5.570090877,0.12374,13.600000000000001,0.296976,-0.35239000000000004,13.600000000000001,-0.845736,-0.807,13.4,-1.9368,-0.056490000000000005,13.4,-0.135576,-0.00269,13.4,-0.006456,-0.0,13.4,-0.0,0.00269,13.4,0.006456
5.60398512,0.12912,13.700000000000001,0.309888,-0.35239000000000004,13.5,-0.845736,-0.807,13.4,-1.9368,-0.04573,13.4,-0.109752,-0.00269,13.4,-0.006456,-0.0,13.4,-0.0,0.00269,13.4,0.006456
5.637088398,0.12374,13.700000000000001,0.296976,-0.36046,13.5,-0.865104,-0.807,13.4,-1.9368,-0.03228,13.4,-0.077472,0.0,13.4,0.0,-0.0,13.4,-0.0,0.00269,13.4,0.006456
5.669712355,0.12374,13.700000000000001,0.296976,-0.35239000000000004,13.5,-0.845736,-0.807,13.4,-1.9368,-0.03497,13.4,-0.083928,-0.00269,13.4,-0.006456,-0.0,13.4,-0.0,0.00269,13.4,0.006456
5.703839174,0.12374,13.700000000000001,0.296976,-0.35508,13.5,-0.852192,-0.807,13.4,-1.9368,-0.05918,13.4,-0.142032,-0.00269,13.4,-0.006456,-0.0,13.4,-0.0,0.00269,13.4,0.006456
5.736716681,0.12374,13.700000000000001,0.296976,-0.35777000000000003,13.600000000000001,-0.8586480000000001,-0.807,13.5,-1.9368,-0.04573,13.4,-0.109752,0.0,13.4,0.0,-0.0,13.4,-0.0,0.00269,13.4,0.006456
5.770044261,0.12374,13.700000000000001,0.296976,-0.36046,13.5,-0.865104,-0.807,13.4,-1.9368,-0.056490000000000005,13.4,-0.135576,-0.00269,13.4,-0.006456,-0.0,13.4,-0.0,0.00269,13.4,0.006456
5.803701183,0.13181,13.700000000000001,0.316344,-0.36046,13.600000000000001,-0.865104,-0.807,13.5,-1.9368,-0.04573,13.4,-0.109752,-0.00269,13.4,-0.006456,-0.0,13.4,-0.0,0.00269,13.4,0.006456
5.836878121,0.12643000000000001,13.700000000000001,0.30343200000000004,-0.36046,13.600000000000001,-0.865104,-0.807,13.5,-1.9368,-0.03228,13.4,-0.077472,-0.00538,13.4,-0.012912,-0.0,13.4,-0.0,-0.0,13.4,-0.0
5.869844082,0.12374,13.700000000000001,0.296976,-0.36046,13.5,-0.865104,-0.807,13.4,-1.9368,-0.048420000000000005,13.4,-0.116208,-0.00538,13.4,-0.012912,-0.0,13.4,-0.0,0.00269,13.4,0.006456
5.903914466,0.12374,13.700000000000001,0.296976,-0.3497,13.5,-0.83928,-0.807,13.4,-1.9368,-0.05111,13.4,-0.122664,-0.00269,13.4,-0.006456,-0.0,13.4,-0.0,0.00269,13.4,0.006456
5.93691015,0.12374,13.700000000000001,0.296976,-0.34701000000000004,13.600000000000001,-0.8328240000000001,-0.807,13.4,-1.9368,-0.05918,13.4,-0.142032,0.0,13.4,0.0,-0.0,13.4,-0.0,0.00269,13.4,0.006456
5.969856355,0.12374,13.700000000000001,0.296976,-0.36046,13.5,-0.865104,-0.807,13.4,-1.9368,-0.05918,13.4,-0.142032,-0.00269,13.4,-0.006456,-0.0,13.4,-0.0,0.00269,13.4,0.006456
6.003823913,0.12374,13.700000000000001,0.296976,-0.36315000000000003,13.600000000000001,-0.87156,-0.807,13.4,-1.9368,-0.03497,13.4,-0.083928,0.0,13.4,0.0,-0.0,13.4,-0.0,0.00269,13.4,0.006456
6.03667544,0.12374,13.700000000000001,0.296976,-0.34432,13.600000000000001,-0.826368,-0.807,13.4,-1.9368,-0.05111,13.4,-0.122664,-0.00807,13.4,-0.019368,-0.0,13.4,-0.0,0.00269,13.4,0.006456
6.07001566,0.12643000000000001,13.700000000000001,0.30343200000000004,-0.35508,13.600000000000001,-0.852192,-0.807,13.4,-1.9368,-0.02959,13.4,-0.071016,-0.00538,13.4,-0.012912,-0.0,13.4,-0.0,0.00269,13.4,0.006456
6.103680653,0.12374,13.700000000000001,0.296976,-0.36046,13.600000000000001,-0.865104,-0.807,13.4,-1.9368,-0.04304,13.4,-0.103296,-0.00538,13.4,-0.012912,-0.0,13.4,-0.0,-0.0,13.4,-0.0
6.136722603,0.12374,13.700000000000001,0.296976,-0.35508,13.600000000000001,-0.852192,-0.807,13.4,-1.9368,-0.06456,13.4,-0.154944,-0.00807,13.4,-0.019368,-0.0,13.4,-0.0,0.00269,13.4,0.006456
6.170823953,0.12374,13.700000000000001,0.296976,-0.35239000000000004,13.600000000000001,-0.845736,-0.807,13.4,-1.9368,-0.04304,13.4,-0.103296,-0.00269,13.4,-0.006456,-0.0,13.4,-0.0,0.00269,13.4,0.006456
6.20368502,0.12374,13.700000000000001,0.296976,-0.34701000000000004,13.5,-0.8328240000000001,-0.807,13.4,-1.9368,-0.03497,13.4,-0.083928,0.0,13.4,0.0,-0.0,13.4,-0.0,0.00269,13.4,0.006456
6.236696115,0.12374,13.700000000000001,0.296976,-0.36046,13.5,-0.865104,-0.807,13.5,-1.9368,-0.056490000000000005,13.4,-0.135576,-0.00538,13.4,-0.012912,-0.0,13.4,-0.0,0.00269,13.4,0.006456
6.270863082,0.1345,13.700000000000001,0.32280000000000003,-0.35239000000000004,13.600000000000001,-0.845736,-0.807,13.4,-1.9368,-0.03766,13.4,-0.09038399999999999,-0.00538,13.4,-0.012912,-0.0,13.4,-0.0,0.00269,13.4,0.006456
6.30383267,0.1345,13.700000000000001,0.32280000000000003,-0.36046,13.600000000000001,-0.865104,-0.807,13.4,-1.9368,-0.04573,13.4,-0.109752,-0.00538,13.4,-0.012912,-0.0,13.4,-0.0,0.00269,13.4,0.006456
6.336677082,0.12374,13.700000000000001,0.296976,-0.34701000000000004,13.5,-0.8328240000000001,-0.807,13.4,-1.9368,-0.05918,13.4,-0.142032,0.0,13.4,0.0,-0.0,13.4,-0.0,0.00269,13.4,0.006456
6.370716098,0.12374,13.700000000000001,0.296976,-0.36046,13.600000000000001,-0.865104,-0.807,13.4,-1.9368,-0.06187,13.4,-0.148488,0.0,13.4,0.0,-0.0,13.4,-0.0,0.00269,13.4,0.006456
6.403908011,0.12912,13.700000000000001,0.309888,-0.35508,13.600000000000001,-0.852192,-0.807,13.5,-1.9368,-0.04304,13.4,-0.103296,-0.00269,13.4,-0.006456,-0.0,13.4,-0.0,0.00269,13.4,0.006456
6.436663542,0.12912,13.700000000000001,0.309888,-0.36315000000000003,13.600000000000001,-0.87156,-0.807,13.5,-1.9368,-0.04573,13.4,-0.109752,-0.00538,13.4,-0.012912,-0.0,13.4,-0.0,0.00269,13.4,0.006456
6.470591475,0.12374,13.700000000000001,0.296976,-0.35508,13.600000000000001,-0.852192,-0.807,13.5,-1.9368,-0.05111,13.4,-0.122664,0.0,13.4,0.0,-0.0,13.4,-0.0,0.00269,13.4,0.006456
6.503607632,0.12374,13.700000000000001,0.296976,-0.36046,13.5,-0.865104,-0.807,13.5,-1.9368,-0.04573,13.4,-0.109752,-0.00538,13.4,-0.012912,-0.0,13.4,-0.0,0.00269,13.4,0.006456
6.536612093,0.12374,13.700000000000001,0.296976,-0.36046,13.600000000000001,-0.865104,-0.807,13.5,-1.9368,-0.02959,13.4,-0.071016,-0.00269,13.4,-0.006456,-0.0,13.4,-0.0,-0.0,13.4,-0.0
6.570657095,0.12643000000000001,13.700000000000001,0.30343200000000004,-0.36315000000000003,13.600000000000001,-0.87156,-0.807,13.5,-1.9368,-0.04573,13.4,-0.109752,0.0,13.4,0.0,-0.0,13.4,-0.0,0.00269,13.4,0.006456
6.603624795,0.12912,13.700000000000001,0.309888,-0.35777000000000003,13.5,-0.8586480000000001,-0.807,13.5,-1.9368,-0.05918,13.4,-0.142032,-0.00538,13.4,-0.012912,-0.0,13.4,-0.0,0.00269,13.4,0.006456
6.636508083,0.12374,13.700000000000001,0.296976,-0.36315000000000003,13.600000000000001,-0.87156,-0.807,13.5,-1.9368,-0.04304,13.4,-0.103296,-0.00269,13.4,-0.006456,-0.0,13.4,-0.0,0.00269,13.4,0.006456
6.670533653,0.12374,13.700000000000001,0.296976,-0.36315000000000003,13.600000000000001,-0.87156,-0.807,13.4,-1.9368,-0.05111,13.4,-0.122664,-0.00807,13.4,-0.019368,-0.0,13.4,-0.0,-0.0,13.4,-0.0
6.704245323,0.12374,13.700000000000001,0.296976,-0.35777000000000003,13.600000000000001,-0.8586480000000001,-0.807,13.4,-1.9368,-0.048420000000000005,13.4,-0.116208,0.0,13.4,0.0,-0.0,13.4,-0.0,0.00269,13.4,0.006456
6.737418201,0.13988,13.700000000000001,0.335712,-0.35508,13.5,-0.852192,-0.807,13.4,-1.9368,-0.05111,13.4,-0.122664,0.0,13.4,0.0,-0.0,13.4,-0.0,0.00269,13.4,0.006456
6.771496935,0.12643000000000001,13.700000000000001,0.30343200000000004,-0.36046,13.5,-0.865104,-0.807,13.4,-1.9368,-0.0538,13.4,-0.12911999999999998,0.0,13.4,0.0,-0.0,13.4,-0.0,0.00269,13.4,0.006456
6.803503589,0.13181,13.700000000000001,0.316344,-0.36046,13.5,-0.865104,-0.807,13.5,-1.9368,-0.04304,13.4,-0.103296,0.0,13.4,0.0,-0.0,13.4,-0.0,0.00269,13.4,0.006456
6.836395304,0.12374,13.700000000000001,0.296976,-0.36046,13.600000000000001,-0.865104,-0.807,13.5,-1.9368,-0.05111,13.4,-0.122664,0.0,13.4,0.0,-0.0,13.4,-0.0,0.00269,13.4,0.006456
6.870439868,0.12374,13.700000000000001,0.296976,-0.3497,13.600000000000001,-0.83928,-0.807,13.5,-1.9368,-0.05918,13.4,-0.142032,-0.00538,13.4,-0.012912,-0.0,13.4,-0.0,0.00269,13.4,0.006456
6.903296393,0.12374,13.700000000000001,0.296976,-0.36315000000000003,13.5,-0.87156,-0.807,13.4,-1.9368,-0.03766,13.4,-0.09038399999999999,-0.00269,13.4,-0.006456,-0.0,13.4,-0.0,0.00269,13.4,0.006456
6.936391894,0.12374,13.700000000000001,0.296976,-0.36046,13.600000000000001,-0.865104,-0.807,13.4,-1.9368,-0.04304,13.4,-0.103296,0.0,13.4,0.0,-0.0,13.4,-0.0,0.00269,13.4,0.006456
6.970417833,0.12374,13.700000000000001,0.296976,-0.35508,13.5,-0.852192,-0.807,13.5,-1.9368,-0.03766,13.4,-0.09038399999999999,-0.00269,13.4,-0.006456,-0.0,13.4,-0.0,0.00269,13.4,0.006456
7.003469032,0.13181,13.700000000000001,0.316344,-0.36315000000000003,13.600000000000001,-0.87156,-0.807,13.5,-1.9368,-0.048420000000000005,13.4,-0.116208,0.0,13.4,0.0,-0.0,13.4,-0.0,0.00269,13.4,0.006456
7.03740293,0.12374,13.700000000000001,0.296976,-0.35508,13.600000000000001,-0.852192,-0.807,13.5,-1.9368,-0.04573,13.4,-0.109752,0.0,13.4,0.0,-0.0,13.4,-0.0,0.00269,13.4,0.006456
7.070365857,0.12374,13.700000000000001,0.296976,-0.36046,13.600000000000001,-0.865104,-0.807,13.4,-1.9368,-0.056490000000000005,13.4,-0.135576,-0.00269,13.4,-0.006456,-0.0,13.4,-0.0,0.00269,13.4,0.006456
7.103350061,0.12912,13.700000000000001,0.309888,-0.35777000000000003,13.600000000000001,-0.8586480000000001,-0.807,13.4,-1.9368,-0.04573,13.4,-0.109752,-0.00538,13.4,-0.012912,-0.0,13.4,-0.0,0.00269,13.4,0.006456
7.137313933,0.12374,13.700000000000001,0.296976,-0.35777000000000003,13.600000000000001,-0.8586480000000001,-0.807,13.4,-1.9368,-0.040350000000000004,13.4,-0.09684000000000001,0.0,13.4,0.0,-0.0,13.4,-0.0,0.00269,13.4,0.006456
7.170291083,0.12374,13.700000000000001,0.296976,-0.35239000000000004,13.600000000000001,-0.845736,-0.807,13.4,-1.9368,-0.04304,13.4,-0.103296,-0.00538,13.4,-0.012912,-0.0,13.4,-0.0,0.00269,13.4,0.006456
7.203367413,0.13181,13.700000000000001,0.316344,-0.3497,13.5,-0.83928,-0.807,13.5,-1.9368,-0.05111,13.4,-0.122664,0.0,13.4,0.0,-0.0,13.4,-0.0,0.00269,13.4,0.006456
7.237466233,0.12912,13.700000000000001,0.309888,-0.36315000000000003,13.5,-0.87156,-0.807,13.4,-1.9368,-0.056490000000000005,13.4,-0.135576,-0.00538,13.4,-0.012912,-0.0,13.4,-0.0,0.00269,13.4,0.006456
7.270289423,0.12912,13.700000000000001,0.309888,-0.35508,13.600000000000001,-0.852192,-0.807,13.4,-1.9368,-0.06725,13.4,-0.16140000000000002,-0.00538,13.4,-0.012912,-0.0,13.4,-0.0,0.00269,13.4,0.006456
7.303561071,0.12374,13.700000000000001,0.296976,-0.35239000000000004,13.5,-0.845736,-0.807,13.4,-1.9368,-0.04304,13.4,-0.103296,-0.00269,13.4,-0.006456,-0.0,13.4,-0.0,0.00269,13.4,0.006456
7.339991267,0.12374,13.700000000000001,0.296976,-0.36046,13.600000000000001,-0.865104,-0.807,13.5,-1.9368,-0.04573,13.4,-0.109752,0.0,13.4,0.0,-0.0,13.4,-0.0,0.00269,13.4,0.006456
7.370551619,0.12912,13.700000000000001,0.309888,-0.36046,13.600000000000001,-0.865104,-0.807,13.5,-1.9368,-0.04573,13.4,-0.109752,0.0,13.4,0.0,-0.0,13.4,-0.0,-0.0,13.4,-0.0
7.403918225,0.12374,13.700000000000001,0.296976,-0.36315000000000003,13.600000000000001,-0.87156,-0.807,13.4,-1.9368,-0.0538,13.4,-0.12911999999999998,0.0,13.4,0.0,-0.0,13.4,-0.0,0.00269,13.4,0.006456
7.437285272,0.12374,13.700000000000001,0.296976,-0.36315000000000003,13.5,-0.87156,-0.807,13.4,-1.9368,-0.04304,13.4,-0.103296,-0.00269,13.4,-0.006456,-0.0,13.4,-0.0,0.00269,13.4,0.006456
7.470389509,0.12374,13.700000000000001,0.296976,-0.36046,13.5,-0.865104,-0.807,13.4,-1.9368,-0.04573,13.4,-0.109752,-0.00269,13.4,-0.006456,-0.0,13.4,-0.0,0.00269,13.4,0.006456
7.503391174,0.12374,13.700000000000001,0.296976,-0.35777000000000003,13.600000000000001,-0.8586480000000001,-0.807,13.4,-1.9368,-0.048420000000000005,13.4,-0.116208,-0.00269,13.4,-0.006456,-0.0,13.4,-0.0,0.00269,13.4,0.006456
7.537884241,0.1345,13.700000000000001,0.32280000000000003,-0.36315000000000003,13.600000000000001,-0.87156,-0.807,13.4,-1.9368,-0.04573,13.4,-0.109752,-0.00269,13.4,-0.006456,-0.0,13.4,-0.0,0.00269,13.4,0.006456
7.571102583,0.13988,13.700000000000001,0.335712,-0.36046,13.5,-0.865104,-0.807,13.4,-1.9368,-0.040350000000000004,13.4,-0.09684000000000001,0.0,13.4,0.0,-0.0,13.4,-0.0,0.00269,13.4,0.006456
7.604063894,0.12374,13.700000000000001,0.296976,-0.35777000000000003,13.5,-0.8586480000000001,-0.807,13.5,-1.9368,-0.056490000000000005,13.4,-0.135576,0.0,13.4,0.0,-0.0,13.4,-0.0,0.00269,13.4,0.006456
7.637127863,0.13181,13.700000000000001,0.316344,-0.36315000000000003,13.600000000000001,-0.87156,-0.807,13.5,-1.9368,-0.040350000000000004,13.4,-0.09684000000000001,0.0,13.4,0.0,-0.0,13.4,-0.0,-0.0,13.4,-0.0
7.670183862,0.12374,13.700000000000001,0.296976,-0.35508,13.5,-0.852192,-0.807,13.5,-1.9368,-0.0538,13.4,-0.12911999999999998,0.0,13.4,0.0,-0.0,13.4,-0.0,0.00269,13.4,0.006456
7.703189408,0.12374,13.700000000000001,0.296976,-0.36315000000000003,13.600000000000001,-0.87156,-0.807,13.5,-1.9368,-0.048420000000000005,13.4,-0.116208,0.0,13.4,0.0,-0.0,13.4,-0.0,0.00269,13.4,0.006456
7.737322476,0.12643000000000001,13.700000000000001,0.30343200000000004,-0.36046,13.600000000000001,-0.865104,-0.807,13.4,-1.9368,-0.048420000000000005,13.4,-0.116208,0.0,13.4,0.0,-0.0,13.4,-0.0,0.00269,13.4,0.006456
7.770170375,0.12374,13.700000000000001,0.296976,-0.36315000000000003,13.600000000000001,-0.87156,-0.807,13.4,-1.9368,-0.05111,13.4,-0.122664,-0.00538,13.4,-0.012912,-0.0,13.4,-0.0,0.00269,13.4,0.006456
7.803136749,0.12374,13.700000000000001,0.296976,-0.36315000000000003,13.5,-0.87156,-0.807,13.4,-1.9368,-0.04304,13.4,-0.103296,-0.00538,13.4,-0.012912,-0.0,13.4,-0.0,0.00269,13.4,0.006456
7.837358404,0.12374,13.700000000000001,0.296976,-0.36315000000000003,13.5,-0.87156,-0.807,13.5,-1.9368,-0.03497,13.4,-0.083928,-0.00269,13.4,-0.006456,-0.0,13.4,-0.0,0.00269,13.4,0.006456
7.87007964,0.1345,13.700000000000001,0.32280000000000003,-0.36315000000000003,13.5,-0.87156,-0.807,13.5,-1.9368,-0.06187,13.4,-0.148488,0.0,13.4,0.0,-0.0,13.4,-0.0,0.00269,13.4,0.006456
7.904049725,0.1345,13.700000000000001,0.32280000000000003,-0.35508,13.600000000000001,-0.852192,-0.807,13.4,-1.9368,-0.040350000000000004,13.4,-0.09684000000000001,0.0,13.4,0.0,-0.0,13.4,-0.0,0.00269,13.4,0.006456
7.937214335,0.12912,13.700000000000001,0.309888,-0.35777000000000003,13.600000000000001,-0.8586480000000001,-0.807,13.4,-1.9368,-0.05111,13.4,-0.122664,-0.00269,13.4,-0.006456,-0.0,13.4,-0.0,0.00269,13.4,0.006456
7.970417384,0.12912,13.700000000000001,0.309888,-0.35777000000000003,13.600000000000001,-0.8586480000000001,-0.807,13.4,-1.9368,-0.05918,13.4,-0.142032,-0.00538,13.4,-0.012912,-0.0,13.4,-0.0,0.00269,13.4,0.006456
8.00358577,0.12912,13.700000000000001,0.309888,-0.3497,13.5,-0.83928,-0.807,13.4,-1.9368,-0.048420000000000005,13.4,-0.116208,-0.00538,13.4,-0.012912,-0.0,13.4,-0.0,0.00269,13.4,0.006456
8.037354077,0.12374,13.700000000000001,0.296976,-0.36315000000000003,13.5,-0.87156,-0.807,13.4,-1.9368,-0.040350000000000004,13.4,-0.09684000000000001,-0.00807,13.4,-0.019368,-0.0,13.4,-0.0,0.00269,13.4,0.006456
8.069881319,0.12643000000000001,13.700000000000001,0.30343200000000004,-0.36315000000000003,13.600000000000001,-0.87156,-0.807,13.5,-1.9368,-0.05918,13.4,-0.142032,0.0,13.4,0.0,-0.0,13.4,-0.0,0.00269,13.4,0.006456
8.103950198,0.12374,13.700000000000001,0.296976,-0.35777000000000003,13.5,-0.8586480000000001,-0.807,13.5,-1.9368,-0.0538,13.4,-0.12911999999999998,0.0,13.4,0.0,-0.0,13.4,-0.0,0.00269,13.4,0.006456
8.137013353,0.12374,13.700000000000001,0.296976,-0.3497,13.600000000000001,-0.83928,-0.807,13.5,-1.9368,-0.048420000000000005,13.4,-0.116208,0.0,13.4,0.0,-0.0,13.4,-0.0,0.00269,13.4,0.006456
8.169883391,0.12912,13.700000000000001,0.309888,-0.36046,13.600000000000001,-0.865104,-0.807,13.5,-1.9368,-0.040350000000000004,13.4,-0.09684000000000001,0.0,13.4,0.0,-0.0,13.4,-0.0,0.00269,13.4,0.006456
8.203954885,0.12374,13.700000000000001,0.296976,-0.36046,13.5,-0.865104,-0.807,13.5,-1.9368,-0.03497,13.4,-0.083928,-0.00538,13.4,-0.012912,-0.0,13.4,-0.0,0.00269,13.4,0.006456
8.236918884,0.12374,13.700000000000001,0.296976,-0.36046,13.5,-0.865104,-0.807,13.5,-1.9368,-0.0269,13.4,-0.06455999999999999,-0.00269,13.4,-0.006456,-0.0,13.4,-0.0,0.00269,13.4,0.006456
8.269827828,0.12643000000000001,13.700000000000001,0.30343200000000004,-0.36315000000000003,13.5,-0.87156,-0.807,13.4,-1.9368,-0.056490000000000005,13.4,-0.135576,0.0,13.4,0.0,-0.0,13.4,-0.0,0.00269,13.4,0.006456
8.303977967,0.12643000000000001,13.700000000000001,0.30343200000000004,-0.36046,13.600000000000001,-0.865104,-0.807,13.4,-1.9368,-0.04304,13.4,-0.103296,0.0,13.4,0.0,-0.0,13.4,-0.0,0.00269,13.4,0.006456
8.336835355,0.12374,13.700000000000001,0.296976,-0.36046,13.600000000000001,-0.865104,-0.807,13.4,-1.9368,-0.0538,13.4,-0.12911999999999998,-0.00269,13.4,-0.006456,-0.0,13.4,-0.0,-0.0,13.4,-0.0
8.369933754,0.13181,13.700000000000001,0.316344,-0.36046,13.600000000000001,-0.865104,-0.807,13.5,-1.9368,-0.04573,13.4,-0.109752,-0.00269,13.4,-0.006456,-0.0,13.4,-0.0,0.00269,13.4,0.006456
8.40397018,0.12374,13.700000000000001,0.296976,-0.36046,13.5,-0.865104,-0.807,13.5,-1.9368,-0.03497,13.4,-0.083928,0.0,13.4,0.0,-0.0,13.4,-0.0,0.00269,13.4,0.006456
8.436980564,0.13181,13.700000000000001,0.316344,-0.35508,13.5,-0.852192,-0.807,13.5,-1.9368,-0.03766,13.4,-0.09038399999999999,-0.00269,13.4,-0.006456,-0.0,13.4,-0.0,0.00269,13.4,0.006456
8.470071822,0.12374,13.700000000000001,0.296976,-0.34432,13.5,-0.826368,-0.807,13.5,-1.9368,-0.0538,13.4,-0.12911999999999998,0.0,13.4,0.0,-0.0,13.4,-0.0,0.00269,13.4,0.006456
8.504253919,0.12374,13.700000000000001,0.296976,-0.35508,13.600000000000001,-0.852192,-0.807,13.4,-1.9368,-0.0538,13.4,-0.12911999999999998,-0.00269,13.4,-0.006456,-0.0,13.4,-0.0,0.00269,13.4,0.006456
8.537177518,0.13181,13.700000000000001,0.316344,-0.36315000000000003,13.600000000000001,-0.87156,-0.807,13.4,-1.9368,-0.03497,13.4,-0.083928,-0.00269,13.4,-0.006456,-0.0,13.4,-0.0,0.00269,13.4,0.006456
8.57056234,0.12374,13.700000000000001,0.296976,-0.36046,13.600000000000001,-0.865104,-0.807,13.4,-1.9368,-0.040350000000000004,13.4,-0.09684000000000001,-0.00269,13.4,-0.006456,-0.0,13.4,-0.0,0.00269,13.4,0.006456
8.604861012,0.12374,13.700000000000001,0.296976,-0.36315000000000003,13.600000000000001,-0.87156,-0.807,13.4,-1.9368,-0.04304,13.4,-0.103296,-0.00269,13.4,-0.006456,-0.0,13.4,-0.0,0.00269,13.4,0.006456
8.637188243,0.12374,13.700000000000001,0.296976,-0.36046,13.5,-0.865104,-0.807,13.4,-1.9368,-0.06187,13.4,-0.148488,0.0,13.4,0.0,-0.0,13.4,-0.0,0.00269,13.4,0.006456
8.670277614,0.12374,13.700000000000001,0.296976,-0.36046,13.5,-0.865104,-0.807,13.5,-1.9368,-0.04304,13.4,-0.103296,0.0,13.4,0.0,-0.0,13.4,-0.0,0.00269,13.4,0.006456
8.70418246,0.12643000000000001,13.700000000000001,0.30343200000000004,-0.35508,13.600000000000001,-0.852192,-0.80162,13.5,-1.9238879999999998,-0.0538,13.4,-0.12911999999999998,-0.00538,13.4,-0.012912,-0.0,13.4,-0.0,0.00269,13.4,0.006456
8.736769386,0.12374,13.700000000000001,0.296976,-0.35508,13.600000000000001,-0.852192,-0.80162,13.5,-1.9238879999999998,-0.048420000000000005,13.4,-0.116208,-0.00538,13.4,-0.012912,-0.0,13.4,-0.0,0.00269,13.4,0.006456
8.769821128,0.12374,13.700000000000001,0.296976,-0.35777000000000003,13.600000000000001,-0.8586480000000001,-0.80162,13.5,-1.9238879999999998,-0.06456,13.4,-0.154944,-0.00807,13.4,-0.019368,-0.0,13.4,-0.0,0.00269,13.4,0.006456
8.804296952,0.12643000000000001,13.700000000000001,0.30343200000000004,-0.35239000000000004,13.600000000000001,-0.845736,-0.80162,13.4,-1.9238879999999998,-0.04573,13.4,-0.109752,-0.00269,13.4,-0.006456,-0.0,13.4,-0.0,0.00269,13.4,0.006456
8.837176842,0.12374,13.700000000000001,0.296976,-0.35777000000000003,13.600000000000001,-0.8586480000000001,-0.80162,13.4,-1.9238879999999998,-0.03497,13.4,-0.083928,-0.00269,13.4,-0.006456,-0.0,13.4,-0.0,0.00269,13.4,0.006456
8.870082809,0.1345,13.700000000000001,0.32280000000000003,-0.3497,13.600000000000001,-0.83928,-0.80162,13.4,-1.9238879999999998,-0.04304,13.4,-0.103296,-0.00269,13.4,-0.006456,-0.0,13.4,-0.0,0.00269,13.4,0.006456
8.903689328,0.12374,13.700000000000001,0.296976,-0.36315000000000003,13.600000000000001,-0.87156,-0.80162,13.5,-1.9238879999999998,-0.03228,13.4,-0.077472,-0.00538,13.4,-0.012912,-0.0,13.4,-0.0,0.00269,13.4,0.006456
8.93664732,0.12374,13.700000000000001,0.296976,-0.35508,13.600000000000001,-0.852192,-0.80162,13.5,-1.9238879999999998,-0.06187,13.4,-0.148488,0.0,13.4,0.0,-0.0,13.4,-0.0,0.00269,13.4,0.006456
8.970248455,0.12374,13.700000000000001,0.296976,-0.35508,13.600000000000001,-0.852192,-0.80162,13.5,-1.9238879999999998,-0.06456,13.4,-0.154944,-0.00269,13.4,-0.006456,-0.0,13.4,-0.0,0.00269,13.4,0.006456
9.004286793,0.12374,13.700000000000001,0.296976,-0.36315000000000003,13.600000000000001,-0.87156,-0.80162,13.4,-1.9238879999999998,-0.05111,13.4,-0.122664,0.0,13.4,0.0,-0.0,13.4,-0.0,0.00269,13.4,0.006456
9.037088337,0.12643000000000001,13.700000000000001,0.30343200000000004,-0.34432,13.5,-0.826368,-0.80162,13.5,-1.9238879999999998,-0.05111,13.4,-0.122664,-0.00269,13.4,-0.006456,-0.0,13.4,-0.0,-0.0,13.4,-0.0
9.070611811,0.12374,13.700000000000001,0.296976,-0.36315000000000003,13.5,-0.87156,-0.80162,13.5,-1.9238879999999998,-0.03766,13.4,-0.09038399999999999,-0.00269,13.4,-0.006456,-0.0,13.4,-0.0,0.00269,13.4,0.006456
9.103533352,0.1345,13.700000000000001,0.32280000000000003,-0.36315000000000003,13.600000000000001,-0.87156,-0.80162,13.5,-1.9238879999999998,-0.040350000000000004,13.4,-0.09684000000000001,-0.00807,13.4,-0.019368,-0.0,13.4,-0.0,-0.0,13.4,-0.0
9.136981819,0.12643000000000001,13.700000000000001,0.30343200000000004,-0.36315000000000003,13.5,-0.87156,-0.80162,13.4,-1.9238879999999998,-0.0538,13.4,-0.12911999999999998,-0.00269,13.4,-0.006456,-0.0,13.4,-0.0,0.00269,13.4,0.006456
9.170863144,0.12374,13.700000000000001,0.296976,-0.36315000000000003,13.5,-0.87156,-0.80162,13.4,-1.9238879999999998,-0.05918,13.4,-0.142032,0.0,13.4,0.0,-0.0,13.4,-0.0,0.00269,13.4,0.006456
9.204036421,0.12374,13.700000000000001,0.296976,-0.35508,13.600000000000001,-0.852192,-0.80162,13.5,-1.9238879999999998,-0.05111,13.4,-0.122664,0.0,13.4,0.0,-0.0,13.4,-0.0,0.00269,13.4,0.006456
9.237087696,0.12374,13.700000000000001,0.296976,-0.35777000000000003,13.600000000000001,-0.8586480000000001,-0.80162,13.5,-1.9238879999999998,-0.0538,13.4,-0.12911999999999998,-0.00538,13.4,-0.012912,-0.0,13.4,-0.0,0.00269,13.4,0.006456
9.270926005,0.12643000000000001,13.700000000000001,0.30343200000000004,-0.3497,13.600000000000001,-0.83928,-0.80162,13.4,-1.9238879999999998,-0.03228,13.4,-0.077472,0.0,13.4,0.0,-0.0,13.4,-0.0,0.00269,13.4,0.006456
9.303723723,0.12374,13.700000000000001,0.296976,-0.36046,13.5,-0.865104,-0.79893,13.5,-1.917432,-0.048420000000000005,13.4,-0.116208,0.0,13.4,0.0,-0.0,13.4,-0.0,0.00269,13.4,0.006456
9.337023262,0.12374,13.700000000000001,0.296976,-0.36046,13.5,-0.865104,-0.80162,13.4,-1.9238879999999998,-0.04573,13.4,-0.109752,0.0,13.4,0.0,-0.0,13.4,-0.0,0.00269,13.4,0.006456
9.370534323,0.12374,13.700000000000001,0.296976,-0.35239000000000004,13.600000000000001,-0.845736,-0.80162,13.5,-1.9238879999999998,-0.05111,13.4,-0.122664,-0.00538,13.4,-0.012912,-0.0,13.4,-0.0,-0.0,13.4,-0.0
9.403647879,0.12374,13.700000000000001,0.296976,-0.36315000000000003,13.600000000000001,-0.87156,-0.80162,13.4,-1.9238879999999998,-0.0538,13.4,-0.12911999999999998,0.0,13.4,0.0,-0.0,13.4,-0.0,0.00269,13.4,0.006456
9.436839978,0.12374,13.700000000000001,0.296976,-0.3497,13.5,-0.83928,-0.80162,13.4,-1.9238879999999998,-0.04304,13.4,-0.103296,-0.00538,13.4,-0.012912,-0.0,13.4,-0.0,0.00269,13.4,0.006456
9.471249308,0.12374,13.700000000000001,0.296976,-0.36315000000000003,13.600000000000001,-0.87156,-0.80162,13.5,-1.9238879999999998,-0.06725,13.4,-0.16140000000000002,0.0,13.4,0.0,-0.0,13.4,-0.0,0.00269,13.4,0.006456
9.503407982,0.12643000000000001,13.700000000000001,0.30343200000000004,-0.34701000000000004,13.600000000000001,-0.8328240000000001,-0.80162,13.4,-1.9238879999999998,-0.04573,13.4,-0.109752,-0.00269,13.4,-0.006456,-0.0,13.4,-0.0,0.00269,13.4,0.006456
9.536633415,0.12374,13.700000000000001,0.296976,-0.36315000000000003,13.600000000000001,-0.87156,-0.80162,13.4,-1.9238879999999998,-0.0538,13.4,-0.12911999999999998,-0.00538,13.4,-0.012912,-0.0,13.4,-0.0,0.00269,13.4,0.006456
9.57078715,0.12374,13.700000000000001,0.296976,-0.36315000000000003,13.600000000000001,-0.87156,-0.80162,13.5,-1.9238879999999998,-0.0538,13.4,-0.12911999999999998,-0.00269,13.4,-0.006456,-0.0,13.4,-0.0,0.00269,13.4,0.006456
9.604119853,0.13988,13.700000000000001,0.335712,-0.36315000000000003,13.5,-0.87156,-0.80162,13.5,-1.9238879999999998,-0.05918,13.4,-0.142032,-0.00269,13.4,-0.006456,-0.0,13.4,-0.0,0.00269,13.4,0.006456
9.638148424,0.12374,13.700000000000001,0.296976,-0.35239000000000004,13.600000000000001,-0.845736,-0.80162,13.4,-1.9238879999999998,-0.04304,13.4,-0.103296,-0.00538,13.4,-0.012912,-0.0,13.4,-0.0,0.00269,13.4,0.006456
9.670639288,0.12374,13.700000000000001,0.296976,-0.35508,13.600000000000001,-0.852192,-0.80162,13.5,-1.9238879999999998,-0.04573,13.4,-0.109752,-0.00269,13.4,-0.006456,-0.0,13.4,-0.0,0.00269,13.4,0.006456
9.703349112,0.12374,13.700000000000001,0.296976,-0.35777000000000003,13.600000000000001,-0.8586480000000001,-0.80162,13.4,-1.9238879999999998,-0.05111,13.4,-0.122664,-0.00269,13.4,-0.006456,-0.0,13.4,-0.0,0.00269,13.4,0.006456
9.736571384,0.12374,13.700000000000001,0.296976,-0.35508,13.5,-0.852192,-0.80162,13.4,-1.9238879999999998,-0.040350000000000004,13.4,-0.09684000000000001,0.0,13.4,0.0,-0.0,13.4,-0.0,0.00269,13.4,0.006456
9.770561333,0.13988,13.700000000000001,0.335712,-0.35239000000000004,13.5,-0.845736,-0.80162,13.4,-1.9238879999999998,-0.05918,13.4,-0.142032,-0.00538,13.4,-0.012912,-0.0,13.4,-0.0,0.00269,13.4,0.006456
9.803214372,0.1345,13.700000000000001,0.32280000000000003,-0.35777000000000003,13.600000000000001,-0.8586480000000001,-0.80162,13.4,-1.9238879999999998,-0.040350000000000004,13.4,-0.09684000000000001,-0.00538,13.4,-0.012912,-0.0,13.4,-0.0,0.00269,13.4,0.006456
9.836248855,0.12374,13.700000000000001,0.296976,-0.35508,13.600000000000001,-0.852192,-0.80162,13.4,-1.9238879999999998,-0.040350000000000004,13.4,-0.09684000000000001,0.0,13.4,0.0,-0.0,13.4,-0.0,0.00269,13.4,0.006456
9.870272996,0.12643000000000001,13.700000000000001,0.30343200000000004,-0.36315000000000003,13.5,-0.87156,-0.80162,13.4,-1.9238879999999998,-0.04573,13.4,-0.109752,-0.00538,13.4,-0.012912,-0.0,13.4,-0.0,0.00269,13.4,0.006456
9.903255231,0.12374,13.700000000000001,0.296976,-0.34432,13.5,-0.826368,-0.80162,13.4,-1.9238879999999998,-0.0538,13.4,-0.12911999999999998,0.0,13.4,0.0,-0.0,13.4,-0.0,-0.0,13.4,-0.0
9.936266038,0.13988,13.700000000000001,0.335712,-0.36315000000000003,13.600000000000001,-0.87156,-0.80162,13.5,-1.9238879999999998,-0.05918,13.4,-0.142032,0.0,13.4,0.0,-0.0,13.4,-0.0,-0.0,13.4,-0.0
9.970207372,0.12374,13.700000000000001,0.296976,-0.36315000000000003,13.600000000000001,-0.87156,-0.80162,13.4,-1.9238879999999998,-0.06456,13.4,-0.154944,-0.00269,13.4,-0.006456,-0.0,13.4,-0.0,0.00269,13.4,0.006456
10.003209963,0.12643000000000001,13.600000000000001,0.30343200000000004,-0.36046,13.600000000000001,-0.865104,-0.80162,13.5,-1.9238879999999998,-0.06994,13.4,-0.167856,0.0,13.4,0.0,-0.0,13.4,-0.0,0.00269,13.4,0.006456
10.037311626,0.12643000000000001,13.700000000000001,0.30343200000000004,-0.36315000000000003,13.5,-0.87156,-0.80162,13.5,-1.9238879999999998,-0.04304,13.4,-0.103296,0.0,13.4,0.0,-0.0,13.4,-0.0,0.00269,13.4,0.006456
10.070105382,0.12643000000000001,13.700000000000001,0.30343200000000004,-0.34163,13.600000000000001,-0.819912,-0.80162,13.5,-1.9238879999999998,-0.040350000000000004,13.4,-0.09684000000000001,0.0,13.4,0.0,-0.0,13.4,-0.0,0.00269,13.4,0.006456
10.103404932,0.12374,13.700000000000001,0.296976,-0.36315000000000003,13.600000000000001,-0.87156,-0.80162,13.4,-1.9238879999999998,-0.04573,13.4,-0.109752,-0.00269,13.4,-0.006456,-0.0,13.4,-0.0,0.00269,13.4,0.006456
10.137438381,0.12912,13.700000000000001,0.309888,-0.36046,13.5,-0.865104,-0.80162,13.4,-1.9238879999999998,-0.02959,13.4,-0.071016,-0.00269,13.4,-0.006456,-0.0,13.4,-0.0,0.00269,13.4,0.006456
10.170229655,0.12374,13.700000000000001,0.296976,-0.35239000000000004,13.600000000000001,-0.845736,-0.80162,13.4,-1.9238879999999998,-0.04304,13.4,-0.103296,-0.00269,13.4,-0.006456,-0.0,13.4,-0.0,0.00269,13.4,0.006456
10.203206894,0.12105,13.600000000000001,0.29052,-0.36584,13.600000000000001,-0.878016,-0.80162,13.4,-1.9238879999999998,-0.05111,13.4,-0.122664,0.0,13.4,0.0,-0.0,13.4,-0.0,0.00269,13.4,0.006456
10.237085835,0.12374,13.600000000000001,0.296976,-0.36315000000000003,13.5,-0.87156,-0.807,13.4,-1.9368,-0.048420000000000005,13.4,-0.116208,0.0,13.4,0.0,-0.0,13.4,-0.0,0.00269,13.4,0.006456
10.27012361,0.12912,13.700000000000001,0.309888,-0.36046,13.600000000000001,-0.865104,-0.807,13.4,-1.9368,-0.03766,13.4,-0.09038399999999999,0.0,13.4,0.0,-0.0,13.4,-0.0,0.00269,13.4,0.006456
10.303207405,0.12374,13.700000000000001,0.296976,-0.36315000000000003,13.600000000000001,-0.87156,-0.807,13.4,-1.9368,-0.03228,13.4,-0.077472,0.0,13.4,0.0,-0.0,13.4,-0.0,0.00269,13.4,0.006456
10.337109711,0.12374,13.700000000000001,0.296976,-0.3497,13.600000000000001,-0.83928,-0.8043100000000001,13.4,-1.930344,-0.056490000000000005,13.4,-0.135576,-0.00269,13.4,-0.006456,-0.0,13.4,-0.0,0.00269,13.4,0.006456
10.370097036,0.12374,13.600000000000001,0.296976,-0.36315000000000003,13.600000000000001,-0.87156,-0.8043100000000001,13.5,-1.930344,-0.056490000000000005,13.4,-0.135576,-0.00269,13.4,-0.006456,-0.0,13.4,-0.0,-0.0,13.4,-0.0
10.403180639,0.13719,13.700000000000001,0.329256,-0.36315000000000003,13.600000000000001,-0.87156,-0.8043100000000001,13.4,-1.930344,-0.048420000000000005,13.4,-0.116208,-0.00538,13.4,-0.012912,-0.0,13.4,-0.0,0.00269,13.4,0.006456
10.43741387,0.12643000000000001,13.700000000000001,0.30343200000000004,-0.36046,13.600000000000001,-0.865104,-0.8043100000000001,13.4,-1.930344,-0.04304,13.4,-0.103296,0.0,13.4,0.0,-0.0,13.4,-0.0,0.00269,13.4,0.006456
10.470304959,0.12374,13.700000000000001,0.296976,-0.36315000000000003,13.600000000000001,-0.87156,-0.8043100000000001,13.4,-1.930344,-0.0538,13.4,-0.12911999999999998,0.0,13.4,0.0,-0.0,13.4,-0.0,0.00269,13.4,0.006456
10.503461451,0.13181,13.700000000000001,0.316344,-0.36315000000000003,13.600000000000001,-0.87156,-0.8043100000000001,13.4,-1.930344,-0.040350000000000004,13.4,-0.09684000000000001,-0.00269,13.4,-0.006456,-0.0,13.4,-0.0,0.00269,13.4,0.006456
10.536942623,0.12643000000000001,13.700000000000001,0.30343200000000004,-0.35508,13.5,-0.852192,-0.8043100000000001,13.4,-1.930344,-0.04304,13.4,-0.103296,0.0,13.4,0.0,-0.0,13.4,-0.0,-0.0,13.4,-0.0
10.570023738,0.12374,13.700000000000001,0.296976,-0.36046,13.5,-0.865104,-0.8043100000000001,13.4,-1.930344,-0.056490000000000005,13.4,-0.135576,0.0,13.4,0.0,-0.0,13.4,-0.0,0.00269,13.4,0.006456
10.602997452,0.12374,13.700000000000001,0.296976,-0.35508,13.600000000000001,-0.852192,-0.8043100000000001,13.5,-1.930344,-0.048420000000000005,13.4,-0.116208,0.0,13.4,0.0,-0.0,13.4,-0.0,0.00269,13.4,0.006456
10.637179206,0.12643000000000001,13.600000000000001,0.30343200000000004,-0.34432,13.5,-0.826368,-0.8043100000000001,13.4,-1.930344,-0.05918,13.4,-0.142032,0.0,13.4,0.0,-0.0,13.4,-0.0,0.00269,13.4,0.006456
10.670593628,0.12374,13.600000000000001,0.296976,-0.36315000000000003,13.5,-0.87156,-0.8043100000000001,13.4,-1.930344,-0.048420000000000005,13.4,-0.116208,-0.00269,13.4,-0.006456,-0.0,13.4,-0.0,0.00269,13.4,0.006456
10.703067027,0.12374,13.600000000000001,0.296976,-0.35777000000000003,13.5,-0.8586480000000001,-0.8043100000000001,13.4,-1.930344,-0.04304,13.4,-0.103296,-0.00269,13.4,-0.006456,-0.0,13.4,-0.0,0.00269,13.4,0.006456
10.736951744,0.12912,13.600000000000001,0.309888,-0.36315000000000003,13.5,-0.87156,-0.8043100000000001,13.5,-1.930344,-0.04304,13.4,-0.103296,0.0,13.4,0.0,-0.0,13.4,-0.0,0.00269,13.4,0.006456
10.770790595,0.12374,13.600000000000001,0.296976,-0.35777000000000003,13.5,-0.8586480000000001,-0.8043100000000001,13.5,-1.930344,-0.03497,13.4,-0.083928,-0.00269,13.4,-0.006456,-0.0,13.4,-0.0,0.00269,13.4,0.006456
10.804822342,0.12643000000000001,13.600000000000001,0.30343200000000004,-0.35777000000000003,13.5,-0.8586480000000001,-0.8043100000000001,13.5,-1.930344,-0.03497,13.4,-0.083928,0.0,13.4,0.0,-0.0,13.4,-0.0,0.00269,13.4,0.006456
10.837078814,0.12374,13.600000000000001,0.296976,-0.36315000000000003,13.600000000000001,-0.87156,-0.8043100000000001,13.4,-1.930344,-0.04573,13.4,-0.109752,0.0,13.4,0.0,-0.0,13.4,-0.0,0.00269,13.4,0.006456
10.869823368,0.12374,13.700000000000001,0.296976,-0.35777000000000003,13.600000000000001,-0.8586480000000001,-0.8043100000000001,13.4,-1.930344,-0.03228,13.4,-0.077472,-0.00269,13.4,-0.006456,-0.0,13.4,-0.0,0.00269,13.4,0.006456
10.903945246,0.13181,13.700000000000001,0.316344,-0.36315000000000003,13.600000000000001,-0.87156,-0.79893,13.4,-1.917432,-0.040350000000000004,13.4,-0.09684000000000001,0.0,13.4,0.0,-0.0,13.4,-0.0,0.00269,13.4,0.006456
10.936988402,0.12105,13.700000000000001,0.29052,-0.36315000000000003,13.5,-0.87156,-0.79893,13.4,-1.917432,-0.03228,13.4,-0.077472,0.0,13.4,0.0,-0.0,13.4,-0.0,0.00269,13.4,0.006456
10.969958246,0.12374,13.700000000000001,0.296976,-0.36315000000000003,13.600000000000001,-0.87156,-0.79893,13.4,-1.917432,-0.04573,13.4,-0.109752,0.0,13.4,0.0,-0.0,13.4,-0.0,0.00269,13.4,0.006456
11.003958056,0.12912,13.600000000000001,0.309888,-0.36315000000000003,13.600000000000001,-0.87156,-0.79893,13.4,-1.917432,-0.05111,13.4,-0.122664,0.0,13.4,0.0,-0.0,13.4,-0.0,0.00269,13.4,0.006456
11.036902905,0.12374,13.600000000000001,0.296976,-0.35508,13.5,-0.852192,-0.79893,13.5,-1.917432,-0.06187,13.4,-0.148488,-0.00269,13.4,-0.006456,-0.0,13.4,-0.0,0.00269,13.4,0.006456
11.06985052,0.13181,13.700000000000001,0.316344,-0.35777000000000003,13.5,-0.8586480000000001,-0.79893,13.4,-1.917432,-0.056490000000000005,13.4,-0.135576,-0.00269,13.4,-0.006456,-0.0,13.4,-0.0,0.00269,13.4,0.006456
11.104370004,0.12643000000000001,13.700000000000001,0.30343200000000004,-0.35777000000000003,13.600000000000001,-0.8586480000000001,-0.8043100000000001,13.5,-1.930344,-0.04573,13.4,-0.109752,0.0,13.4,0.0,-0.0,13.4,-0.0,0.00269,13.4,0.006456
11.136858279,0.12374,13.700000000000001,0.296976,-0.3497,13.5,-0.83928,-0.8043100000000001,13.5,-1.930344,-0.0538,13.4,-0.12911999999999998,0.0,13.4,0.0,-0.0,13.4,-0.0,0.00269,13.4,0.006456
11.170411783,0.13181,13.700000000000001,0.316344,-0.35508,13.600000000000001,-0.852192,-0.8043100000000001,13.5,-1.930344,-0.05111,13.4,-0.122664,-0.00269,13.4,-0.006456,-0.0,13.4,-0.0,0.00269,13.4,0.006456
11.203878278,0.12912,13.700000000000001,0.309888,-0.36315000000000003,13.600000000000001,-0.87156,-0.8043100000000001,13.4,-1.930344,-0.05111,13.4,-0.122664,0.0,13.4,0.0,-0.0,13.4,-0.0,0.00269,13.4,0.006456
11.237393621,0.12374,13.700000000000001,0.296976,-0.36315000000000003,13.5,-0.87156,-0.8043100000000001,13.4,-1.930344,-0.05111,13.4,-0.122664,-0.00269,13.4,-0.006456,-0.0,13.4,-0.0,0.00269,13.4,0.006456
11.269987574,0.12374,13.700000000000001,0.296976,-0.36046,13.600000000000001,-0.865104,-0.8043100000000001,13.5,-1.930344,-0.05111,13.4,-0.122664,0.0,13.4,0.0,-0.0,13.4,-0.0,0.00269,13.4,0.006456
11.303786508,0.12374,13.700000000000001,0.296976,-0.35777000000000003,13.600000000000001,-0.8586480000000001,-0.8043100000000001,13.4,-1.930344,-0.04304,13.4,-0.103296,-0.00269,13.4,-0.006456,-0.0,13.4,-0.0,0.00269,13.4,0.006456
11.336745058,0.13988,13.700000000000001,0.335712,-0.36315000000000003,13.600000000000001,-0.87156,-0.8043100000000001,13.4,-1.930344,-0.04304,13.4,-0.103296,-0.00269,13.4,-0.006456,-0.0,13.4,-0.0,-0.0,13.4,-0.0
11.370121373,0.13181,13.700000000000001,0.316344,-0.35508,13.5,-0.852192,-0.8043100000000001,13.4,-1.930344,-0.04573,13.4,-0.109752,0.0,13.4,0.0,-0.0,13.4,-0.0,0.00269,13.4,0.006456
11.403919624,0.12374,13.700000000000001,0.296976,-0.35777000000000003,13.5,-0.8586480000000001,-0.8043100000000001,13.4,-1.930344,-0.03766,13.4,-0.09038399999999999,-0.00269,13.4,-0.006456,-0.0,13.4,-0.0,0.00269,13.4,0.006456
11.436830415,0.12374,13.700000000000001,0.296976,-0.36315000000000003,13.600000000000001,-0.87156,-0.8043100000000001,13.5,-1.930344,-0.06187,13.4,-0.148488,-0.00538,13.4,-0.012912,-0.0,13.4,-0.0,0.00269,13.4,0.006456
11.470606388,0.12912,13.700000000000001,0.309888,-0.36315000000000003,13.5,-0.87156,-0.8043100000000001,13.4,-1.930344,-0.06187,13.4,-0.148488,0.0,13.4,0.0,-0.0,13.4,-0.0,0.00269,13.4,0.006456
11.504083463,0.13181,13.700000000000001,0.316344,-0.36315000000000003,13.5,-0.87156,-0.8043100000000001,13.4,-1.930344,-0.06456,13.4,-0.154944,-0.00269,13.4,-0.006456,-0.0,13.4,-0.0,0.00269,13.4,0.006456
11.537183533,0.12912,13.700000000000001,0.309888,-0.36315000000000003,13.5,-0.87156,-0.8043100000000001,13.4,-1.930344,-0.04573,13.4,-0.109752,0.0,13.4,0.0,-0.0,13.4,-0.0,0.00269,13.4,0.006456
11.571281155,0.12374,13.700000000000001,0.296976,-0.35508,13.5,-0.852192,-0.8043100000000001,13.4,-1.930344,-0.05111,13.4,-0.122664,0.0,13.4,0.0,-0.0,13.4,-0.0,0.00269,13.4,0.006456
11.603765033,0.12374,13.700000000000001,0.296976,-0.36315000000000003,13.5,-0.87156,-0.8043100000000001,13.5,-1.930344,-0.05918,13.4,-0.142032,0.0,13.4,0.0,-0.0,13.4,-0.0,0.00269,13.4,0.006456
11.636598227,0.12374,13.700000000000001,0.296976,-0.35777000000000003,13.600000000000001,-0.8586480000000001,-0.8043100000000001,13.4,-1.930344,-0.0538,13.4,-0.12911999999999998,-0.00269,13.4,-0.006456,-0.0,13.4,-0.0,0.00269,13.4,0.006456
11.670684734,0.12374,13.700000000000001,0.296976,-0.34701000000000004,13.5,-0.8328240000000001,-0.8043100000000001,13.4,-1.930344,-0.03766,13.4,-0.09038399999999999,0.0,13.4,0.0,-0.0,13.4,-0.0,0.00269,13.4,0.006456
11.703634379,0.12374,13.700000000000001,0.296976,-0.35508,13.5,-0.852192,-0.8043100000000001,13.4,-1.930344,-0.05111,13.4,-0.122664,0.0,13.4,0.0,-0.0,13.4,-0.0,-0.0,13.4,-0.0
11.736609487,0.12374,13.700000000000001,0.296976,-0.35508,13.600000000000001,-0.852192,-0.8043100000000001,13.4,-1.930344,-0.06187,13.4,-0.148488,-0.00269,13.4,-0.006456,-0.0,13.4,-0.0,-0.0,13.4,-0.0
11.77088473,0.12912,13.700000000000001,0.309888,-0.36315000000000003,13.600000000000001,-0.87156,-0.8043100000000001,13.4,-1.930344,-0.05111,13.4,-0.122664,0.0,13.4,0.0,-0.0,13.4,-0.0,-0.0,13.4,-0.0
11.803652829,0.12374,13.700000000000001,0.296976,-0.36046,13.600000000000001,-0.865104,-0.8043100000000001,13.5,-1.930344,-0.05918,13.4,-0.142032,0.0,13.4,0.0,-0.0,13.4,-0.0,-0.0,13.4,-0.0
11.836543794,0.12643000000000001,13.700000000000001,0.30343200000000004,-0.35239000000000004,13.5,-0.845736,-0.8043100000000001,13.5,-1.930344,-0.04573,13.4,-0.109752,-0.00269,13.4,-0.006456,-0.0,13.4,-0.0,0.00269,13.4,0.006456
11.870488999,0.15602000000000002,13.600000000000001,0.37444800000000006,-0.36315000000000003,13.5,-0.87156,-0.8043100000000001,13.4,-1.930344,-0.0538,13.4,-0.12911999999999998,0.0,13.4,0.0,-0.0,13.4,-0.0,0.00269,13.4,0.006456
11.903521262,0.12374,13.700000000000001,0.296976,-0.3497,13.5,-0.83928,-0.8043100000000001,13.5,-1.930344,-0.04304,13.4,-0.103296,0.0,13.4,0.0,-0.0,13.4,-0.0,0.00269,13.4,0.006456
11.936512029,0.12912,13.700000000000001,0.309888,-0.3497,13.600000000000001,-0.83928,-0.8043100000000001,13.4,-1.930344,-0.05111,13.4,-0.122664,-0.00269,13.4,-0.006456,-0.0,13.4,-0.0,0.00269,13.4,0.006456
11.970682826,0.1345,13.700000000000001,0.32280000000000003,-0.36315000000000003,13.5,-0.87156,-0.8043100000000001,13.5,-1.930344,-0.02959,13.4,-0.071016,0.0,13.4,0.0,-0.0,13.4,-0.0,-0.0,13.4,-0.0
12.00407291,0.1345,13.700000000000001,0.32280000000000003,-0.36315000000000003,13.600000000000001,-0.87156,-0.8043100000000001,13.5,-1.930344,-0.04573,13.4,-0.109752,0.0,13.4,0.0,-0.0,13.4,-0.0,-0.0,13.4,-0.0
12.036596718,0.12374,13.700000000000001,0.296976,-0.36315000000000003,13.5,-0.87156,-0.8043100000000001,13.5,-1.930344,-0.056490000000000005,13.4,-0.135576,-0.00269,13.4,-0.006456,-0.0,13.4,-0.0,0.00269,13.4,0.006456
12.070686271,0.12374,13.700000000000001,0.296976,-0.36046,13.600000000000001,-0.865104,-0.8043100000000001,13.4,-1.930344,-0.04304,13.4,-0.103296,0.0,13.4,0.0,-0.0,13.4,-0.0,0.00269,13.4,0.006456
12.103968669,0.13181,13.700000000000001,0.316344,-0.36315000000000003,13.600000000000001,-0.87156,-0.8043100000000001,13.4,-1.930344,-0.056490000000000005,13.4,-0.135576,0.0,13.4,0.0,-0.0,13.4,-0.0,0.00269,13.4,0.006456
12.136899736,0.12374,13.700000000000001,0.296976,-0.36046,13.600000000000001,-0.865104,-0.8043100000000001,13.4,-1.930344,-0.03228,13.4,-0.077472,0.0,13.4,0.0,-0.0,13.4,-0.0,0.00269,13.4,0.006456
12.170838745,0.12374,13.700000000000001,0.296976,-0.35508,13.600000000000001,-0.852192,-0.8043100000000001,13.4,-1.930344,-0.040350000000000004,13.4,-0.09684000000000001,0.0,13.4,0.0,-0.0,13.4,-0.0,-0.0,13.4,-0.0
12.204022403,0.12374,13.700000000000001,0.296976,-0.36046,13.600000000000001,-0.865104,-0.8043100000000001,13.4,-1.930344,-0.03766,13.4,-0.09038399999999999,0.0,13.4,0.0,-0.0,13.4,-0.0,0.00269,13.4,0.006456
12.236969172,0.12374,13.700000000000001,0.296976,-0.36315000000000003,13.5,-0.87156,-0.8043100000000001,13.4,-1.930344,-0.048420000000000005,13.4,-0.116208,-0.00269,13.4,-0.006456,-0.0,13.4,-0.0,0.00269,13.4,0.006456
12.27034399,0.12374,13.700000000000001,0.296976,-0.36315000000000003,13.600000000000001,-0.87156,-0.8043100000000001,13.5,-1.930344,-0.05918,13.4,-0.142032,0.0,13.4,0.0,-0.0,13.4,-0.0,0.00269,13.4,0.006456
12.303642812,0.12374,13.700000000000001,0.296976,-0.35777000000000003,13.600000000000001,-0.8586480000000001,-0.8043100000000001,13.5,-1.930344,-0.04573,13.4,-0.109752,-0.00269,13.4,-0.006456,-0.0,13.4,-0.0,0.00269,13.4,0.006456
12.337054684,0.12374,13.700000000000001,0.296976,-0.36046,13.5,-0.865104,-0.8043100000000001,13.4,-1.930344,-0.06187,13.4,-0.148488,-0.00269,13.4,-0.006456,-0.0,13.4,-0.0,0.00269,13.4,0.006456
12.370946229,0.12643000000000001,13.700000000000001,0.30343200000000004,-0.36315000000000003,13.600000000000001,-0.87156,-0.8043100000000001,13.4,-1.930344,-0.0538,13.4,-0.12911999999999998,0.0,13.4,0.0,-0.0,13.4,-0.0,0.00269,13.4,0.006456
12.403879211,0.1345,13.700000000000001,0.32280000000000003,-0.3497,13.600000000000001,-0.83928,-0.8043100000000001,13.4,-1.930344,-0.05918,13.4,-0.142032,-0.00269,13.4,-0.006456,-0.0,13.4,-0.0,0.00269,13.4,0.006456
12.437033105,0.12643000000000001,13.700000000000001,0.30343200000000004,-0.3497,13.600000000000001,-0.83928,-0.8043100000000001,13.4,-1.930344,-0.03228,13.4,-0.077472,-0.00538,13.4,-0.012912,-0.0,13.4,-0.0,0.00269,13.4,0.006456
12.470845858,0.12643000000000001,13.700000000000001,0.30343200000000004,-0.36315000000000003,13.600000000000001,-0.87156,-0.8043100000000001,13.5,-1.930344,-0.04573,13.4,-0.109752,0.0,13.4,0.0,-0.0,13.4,-0.0,0.00269,13.4,0.006456
12.503499075,0.12912,13.700000000000001,0.309888,-0.34163,13.600000000000001,-0.819912,-0.8043100000000001,13.4,-1.930344,-0.048420000000000005,13.4,-0.116208,0.0,13.4,0.0,-0.0,13.4,-0.0,0.00269,13.4,0.006456
12.537786723,0.12374,13.700000000000001,0.296976,-0.36046,13.5,-0.865104,-0.8043100000000001,13.5,-1.930344,-0.04304,13.4,-0.103296,0.0,13.4,0.0,-0.0,13.4,-0.0,0.00269,13.4,0.006456
12.570481471,0.12912,13.700000000000001,0.309888,-0.35777000000000003,13.5,-0.8586480000000001,-0.8043100000000001,13.5,-1.930344,-0.04573,13.4,-0.109752,0.0,13.4,0.0,-0.0,13.4,-0.0,0.00269,13.4,0.006456
12.603260081,0.12374,13.700000000000001,0.296976,-0.35239000000000004,13.5,-0.845736,-0.8043100000000001,13.4,-1.930344,-0.06456,13.4,-0.154944,-0.00269,13.4,-0.006456,-0.0,13.4,-0.0,-0.0,13.4,-0.0
12.637392443,0.12374,13.700000000000001,0.296976,-0.36046,13.600000000000001,-0.865104,-0.8043100000000001,13.4,-1.930344,-0.048420000000000005,13.4,-0.116208,0.0,13.4,0.0,-0.0,13.4,-0.0,0.00269,13.4,0.006456
12.670296912,0.13181,13.700000000000001,0.316344,-0.35508,13.5,-0.852192,-0.8043100000000001,13.4,-1.930344,-0.03766,13.4,-0.09038399999999999,-0.00269,13.4,-0.006456,-0.0,13.4,-0.0,0.00269,13.4,0.006456
12.703248729,0.12374,13.700000000000001,0.296976,-0.36315000000000003,13.5,-0.87156,-0.8043100000000001,13.5,-1.930344,-0.05918,13.4,-0.142032,0.0,13.4,0.0,-0.0,13.4,-0.0,0.00269,13.4,0.006456
12.738005681,0.12912,13.700000000000001,0.309888,-0.36046,13.600000000000001,-0.865104,-0.8043100000000001,13.4,-1.930344,-0.0538,13.4,-0.12911999999999998,-0.00269,13.4,-0.006456,-0.0,13.4,-0.0,0.00269,13.4,0.006456
12.770852202,0.13988,13.700000000000001,0.335712,-0.35239000000000004,13.600000000000001,-0.845736,-0.79893,13.4,-1.917432,-0.06456,13.4,-0.154944,0.0,13.4,0.0,-0.0,13.4,-0.0,0.00269,13.4,0.006456
12.803177226,0.12374,13.700000000000001,0.296976,-0.36046,13.5,-0.865104,-0.79893,13.4,-1.917432,-0.04304,13.4,-0.103296,-0.00269,13.4,-0.006456,-0.0,13.4,-0.0,0.00269,13.4,0.006456
12.837177749,0.12374,13.600000000000001,0.296976,-0.35777000000000003,13.5,-0.8586480000000001,-0.79893,13.5,-1.917432,-0.048420000000000005,13.4,-0.116208,0.0,13.4,0.0,-0.0,13.4,-0.0,0.00269,13.4,0.006456
12.87046472,0.12374,13.600000000000001,0.296976,-0.34432,13.5,-0.826368,-0.79893,13.5,-1.917432,-0.05111,13.4,-0.122664,-0.00269,13.4,-0.006456,-0.0,13.4,-0.0,0.00269,13.4,0.006456
12.9041,0.12374,13.700000000000001,0.296976,-0.36046,13.5,-0.865104,-0.79893,13.3,-1.917432,-0.04304,13.4,-0.103296,-0.00269,13.4,-0.006456,-0.0,13.4,-0.0,0.00269,13.4,0.006456
12.938189319,0.12374,13.700000000000001,0.296976,-0.36046,13.600000000000001,-0.865104,-0.79893,13.4,-1.917432,-0.04573,13.4,-0.109752,0.0,13.4,0.0,-0.0,13.4,-0.0,0.00269,13.4,0.006456
12.970151108,0.12374,13.700000000000001,0.296976,-0.34701000000000004,13.5,-0.8328240000000001,-0.79893,13.4,-1.917432,-0.040350000000000004,13.4,-0.09684000000000001,-0.00269,13.4,-0.006456,-0.0,13.4,-0.0,0.00269,13.4,0.006456
13.003140344,0.1345,13.700000000000001,0.32280000000000003,-0.36046,13.5,-0.865104,-0.79893,13.5,-1.917432,-0.048420000000000005,13.4,-0.116208,0.0,13.4,0.0,-0.0,13.4,-0.0,0.00269,13.4,0.006456
13.037018835,0.12374,13.700000000000001,0.296976,-0.36046,13.5,-0.865104,-0.79893,13.4,-1.917432,-0.0538,13.4,-0.12911999999999998,0.0,13.4,0.0,-0.0,13.4,-0.0,0.00269,13.4,0.006456
13.070410307,0.12374,13.700000000000001,0.296976,-0.34163,13.5,-0.819912,-0.79893,13.4,-1.917432,-0.05918,13.4,-0.142032,0.0,13.4,0.0,-0.0,13.4,-0.0,-0.0,13.4,-0.0
13.103193064,0.13181,13.700000000000001,0.316344,-0.36046,13.5,-0.865104,-0.79893,13.4,-1.917432,-0.03766,13.4,-0.09038399999999999,0.0,13.4,0.0,-0.0,13.4,-0.0,0.00269,13.4,0.006456
13.137061286,0.12374,13.700000000000001,0.296976,-0.36315000000000003,13.5,-0.87156,-0.79893,13.4,-1.917432,-0.04304,13.4,-0.103296,-0.00269,13.4,-0.006456,-0.0,13.4,-0.0,0.00269,13.4,0.006456
13.170083858,0.1345,13.700000000000001,0.32280000000000003,-0.36046,13.5,-0.865104,-0.79893,13.5,-1.917432,-0.03497,13.4,-0.083928,0.0,13.4,0.0,-0.0,13.4,-0.0,-0.0,13.4,-0.0
13.203490738,0.12374,13.700000000000001,0.296976,-0.36046,13.600000000000001,-0.865104,-0.79893,13.4,-1.917432,-0.05111,13.4,-0.122664,0.0,13.4,0.0,-0.0,13.4,-0.0,0.00269,13.4,0.006456
13.237347545,0.12374,13.700000000000001,0.296976,-0.36046,13.5,-0.865104,-0.79893,13.4,-1.917432,-0.03228,13.4,-0.077472,0.0,13.4,0.0,-0.0,13.4,-0.0,0.00269,13.4,0.006456
13.270200847,0.13181,13.700000000000001,0.316344,-0.35777000000000003,13.600000000000001,-0.8586480000000001,-0.79893,13.4,-1.917432,-0.0538,13.4,-0.12911999999999998,0.0,13.4,0.0,-0.0,13.4,-0.0,0.00269,13.4,0.006456
13.304097018,0.13181,13.700000000000001,0.316344,-0.33894,13.600000000000001,-0.8134560000000001,-0.79893,13.4,-1.917432,-0.048420000000000005,13.4,-0.116208,-0.00269,13.4,-0.006456,-0.0,13.4,-0.0,0.00269,13.4,0.006456
13.336978533,0.12374,13.700000000000001,0.296976,-0.34701000000000004,13.600000000000001,-0.8328240000000001,-0.79893,13.4,-1.917432,-0.06187,13.4,-0.148488,0.0,13.4,0.0,-0.0,13.4,-0.0,0.00269,13.4,0.006456
13.370460028,0.12374,13.700000000000001,0.296976,-0.36315000000000003,13.600000000000001,-0.87156,-0.79893,13.4,-1.917432,-0.03497,13.4,-0.083928,0.0,13.4,0.0,-0.0,13.4,-0.0,-0.0,13.4,-0.0
13.404265001,0.15064,13.700000000000001,0.36153599999999997,-0.36046,13.600000000000001,-0.865104,-0.79893,13.4,-1.917432,-0.048420000000000005,13.4,-0.116208,0.0,13.4,0.0,-0.0,13.4,-0.0,0.00269,13.4,0.006456
13.437162226,0.1345,13.700000000000001,0.32280000000000003,-0.36046,13.5,-0.865104,-0.79893,13.5,-1.917432,-0.04304,13.4,-0.103296,-0.00269,13.4,-0.006456,-0.0,13.4,-0.0,0.00269,13.4,0.006456
13.469886508,0.12374,13.700000000000001,0.296976,-0.35508,13.600000000000001,-0.852192,-0.79893,13.5,-1.917432,-0.05918,13.4,-0.142032,0.0,13.4,0.0,-0.0,13.4,-0.0,-0.0,13.4,-0.0
13.503977392,0.12374,13.700000000000001,0.296976,-0.3497,13.5,-0.83928,-0.79893,13.4,-1.917432,-0.05111,13.4,-0.122664,-0.00269,13.4,-0.006456,-0.0,13.4,-0.0,0.00269,13.4,0.006456
13.536830525,0.12374,13.700000000000001,0.296976,-0.36046,13.5,-0.865104,-0.79893,13.3,-1.917432,-0.05111,13.4,-0.122664,-0.00269,13.4,-0.006456,-0.0,13.4,-0.0,0.00269,13.4,0.006456
13.570360972,0.12374,13.700000000000001,0.296976,-0.34163,13.600000000000001,-0.819912,-0.79893,13.4,-1.917432,-0.05111,13.4,-0.122664,0.0,13.4,0.0,-0.0,13.4,-0.0,0.00269,13.4,0.006456
13.604024378,0.12374,13.700000000000001,0.296976,-0.35508,13.5,-0.852192,-0.79893,13.5,-1.917432,-0.05918,13.4,-0.142032,0.0,13.4,0.0,-0.0,13.4,-0.0,0.00269,13.4,0.006456
13.63755217,0.12105,13.700000000000001,0.29052,-0.35239000000000004,13.600000000000001,-0.845736,-0.79893,13.5,-1.917432,-0.04573,13.4,-0.109752,0.0,13.4,0.0,-0.0,13.4,-0.0,0.00269,13.4,0.006456
13.670003977,0.12374,13.700000000000001,0.296976,-0.35239000000000004,13.600000000000001,-0.845736,-0.79893,13.5,-1.917432,-0.04573,13.4,-0.109752,0.0,13.4,0.0,-0.0,13.4,-0.0,0.00269,13.4,0.006456
13.703831195,0.13181,13.700000000000001,0.316344,-0.35508,13.600000000000001,-0.852192,-0.79893,13.4,-1.917432,-0.03497,13.4,-0.083928,0.0,13.4,0.0,-0.0,13.4,-0.0,0.00269,13.4,0.006456
13.736753901,0.1345,13.700000000000001,0.32280000000000003,-0.36046,13.5,-0.865104,-0.80162,13.5,-1.9238879999999998,-0.056490000000000005,13.4,-0.135576,0.0,13.4,0.0,-0.0,13.4,-0.0,0.00269,13.4,0.006456
13.769732949,0.12374,13.600000000000001,0.296976,-0.36046,13.600000000000001,-0.865104,-0.80162,13.4,-1.9238879999999998,-0.04304,13.4,-0.103296,-0.00269,13.4,-0.006456,-0.0,13.4,-0.0,0.00269,13.4,0.006456
13.803723911,0.1345,13.700000000000001,0.32280000000000003,-0.36046,13.600000000000001,-0.865104,-0.80162,13.5,-1.9238879999999998,-0.048420000000000005,13.4,-0.116208,0.0,13.4,0.0,-0.0,13.4,-0.0,0.00269,13.4,0.006456
13.836860632,0.12643000000000001,13.700000000000001,0.30343200000000004,-0.36046,13.5,-0.865104,-0.80162,13.4,-1.9238879999999998,-0.048420000000000005,13.4,-0.116208,-0.00538,13.4,-0.012912,-0.0,13.4,-0.0,0.00269,13.4,0.006456
13.870199848,0.12374,13.600000000000001,0.296976,-0.36046,13.5,-0.865104,-0.80162,13.4,-1.9238879999999998,-0.03497,13.4,-0.083928,0.0,13.4,0.0,-0.0,13.4,-0.0,0.00269,13.4,0.006456
13.904262008,0.12374,13.700000000000001,0.296976,-0.36046,13.5,-0.865104,-0.80162,13.4,-1.9238879999999998,-0.048420000000000005,13.4,-0.116208,0.0,13.4,0.0,-0.0,13.4,-0.0,0.00269,13.4,0.006456
13.936995164,0.12912,13.700000000000001,0.309888,-0.36046,13.5,-0.865104,-0.80162,13.4,-1.9238879999999998,-0.040350000000000004,13.4,-0.09684000000000001,0.0,13.4,0.0,-0.0,13.4,-0.0,0.00269,13.4,0.006456
13.970134085,0.12374,13.700000000000001,0.296976,-0.35508,13.600000000000001,-0.852192,-0.80162,13.4,-1.9238879999999998,-0.05111,13.4,-0.122664,-0.00269,13.4,-0.006456,-0.0,13.4,-0.0,0.00269,13.4,0.006456
14.004140515,0.12374,13.700000000000001,0.296976,-0.35239000000000004,13.600000000000001,-0.845736,-0.80162,13.4,-1.9238879999999998,-0.03497,13.4,-0.083928,0.0,13.4,0.0,-0.0,13.4,-0.0,0.00269,13.4,0.006456
14.0376807,0.12374,13.600000000000001,0.296976,-0.35239000000000004,13.5,-0.845736,-0.80162,13.4,-1.9238879999999998,-0.05111,13.4,-0.122664,-0.00269,13.4,-0.006456,-0.0,13.4,-0.0,0.00269,13.4,0.006456
14.071174956,0.12374,13.700000000000001,0.296976,-0.35508,13.600000000000001,-0.852192,-0.80162,13.4,-1.9238879999999998,-0.056490000000000005,13.4,-0.135576,0.0,13.4,0.0,-0.0,13.5,-0.0,0.00269,13.4,0.006456
14.103814484,0.12374,13.700000000000001,0.296976,-0.35239000000000004,13.600000000000001,-0.845736,-0.80162,13.4,-1.9238879999999998,-0.05111,13.4,-0.122664,0.0,13.4,0.0,-0.0,13.5,-0.0,0.00269,13.4,0.006456
14.136751702,0.12643000000000001,13.700000000000001,0.30343200000000004,-0.36046,13.600000000000001,-0.865104,-0.80162,13.4,-1.9238879999999998,-0.03497,13.4,-0.083928,0.0,13.4,0.0,-0.0,13.5,-0.0,0.00269,13.4,0.006456
14.171107035,0.12374,13.700000000000001,0.296976,-0.36046,13.600000000000001,-0.865104,-0.80162,13.4,-1.9238879999999998,-0.04304,13.4,-0.103296,0.0,13.4,0.0,-0.0,13.5,-0.0,0.00269,13.4,0.006456
14.203641496,0.12374,13.600000000000001,0.296976,-0.3497,13.5,-0.83928,-0.80162,13.4,-1.9238879999999998,-0.04304,13.4,-0.103296,0.0,13.4,0.0,-0.0,13.5,-0.0,0.00269,13.4,0.006456
14.237323735,0.13181,13.700000000000001,0.316344,-0.35508,13.5,-0.852192,-0.80162,13.4,-1.9238879999999998,-0.0538,13.4,-0.12911999999999998,0.0,13.4,0.0,-0.0,13.5,-0.0,0.00269,13.4,0.006456
14.271330923,0.12912,13.700000000000001,0.309888,-0.35777000000000003,13.5,-0.8586480000000001,-0.80162,13.4,-1.9238879999999998,-0.06187,13.4,-0.148488,-0.00269,13.4,-0.006456,-0.0,13.5,-0.0,0.00269,13.4,0.006456
14.303706393,0.12912,13.600000000000001,0.309888,-0.36315000000000003,13.5,-0.87156,-0.80162,13.4,-1.9238879999999998,-0.04573,13.4,-0.109752,0.0,13.4,0.0,-0.0,13.5,-0.0,0.00269,13.4,0.006456
14.336624612,0.13181,13.700000000000001,0.316344,-0.3497,13.5,-0.83928,-0.80162,13.4,-1.9238879999999998,-0.05918,13.4,-0.142032,-0.00269,13.4,-0.006456,-0.0,13.5,-0.0,0.00269,13.4,0.006456
14.370918912,0.12374,13.700000000000001,0.296976,-0.34701000000000004,13.5,-0.8328240000000001,-0.80162,13.4,-1.9238879999999998,-0.048420000000000005,13.4,-0.116208,-0.00269,13.4,-0.006456,-0.0,13.5,-0.0,0.00269,13.4,0.006456
14.403657239,0.12374,13.700000000000001,0.296976,-0.36046,13.5,-0.865104,-0.80162,13.4,-1.9238879999999998,-0.0538,13.4,-0.12911999999999998,0.0,13.4,0.0,-0.0,13.5,-0.0,0.00269,13.4,0.006456
14.436514744,0.12374,13.600000000000001,0.296976,-0.35777000000000003,13.5,-0.8586480000000001,-0.80162,13.5,-1.9238879999999998,-0.03497,13.4,-0.083928,0.0,13.4,0.0,-0.0,13.5,-0.0,0.00269,13.4,0.006456
14.470929479,0.1345,13.600000000000001,0.32280000000000003,-0.34701000000000004,13.5,-0.8328240000000001,-0.80162,13.5,-1.9238879999999998,-0.048420000000000005,13.4,-0.116208,-0.00269,13.4,-0.006456,-0.0,13.5,-0.0,0.00269,13.4,0.006456
14.504330338,0.12374,13.700000000000001,0.296976,-0.36046,13.600000000000001,-0.865104,-0.80162,13.5,-1.9238879999999998,-0.048420000000000005,13.4,-0.116208,0.0,13.4,0.0,-0.0,13.5,-0.0,0.00269,13.4,0.006456
14.537777632,0.13181,13.700000000000001,0.316344,-0.35239000000000004,13.5,-0.845736,-0.80162,13.5,-1.9238879999999998,-0.03766,13.4,-0.09038399999999999,0.0,13.4,0.0,-0.0,13.5,-0.0,0.00269,13.4,0.006456
14.571118133,0.12374,13.700000000000001,0.296976,-0.3497,13.5,-0.83928,-0.80162,13.4,-1.9238879999999998,-0.04573,13.4,-0.109752,0.0,13.4,0.0,-0.0,13.5,-0.0,0.00269,13.4,0.006456
14.603583286,0.12374,13.700000000000001,0.296976,-0.36046,13.5,-0.865104,-0.80162,13.5,-1.9238879999999998,-0.05918,13.4,-0.142032,0.0,13.4,0.0,-0.0,13.5,-0.0,-0.0,13.4,-0.0
14.63719053,0.12374,13.600000000000001,0.296976,-0.35239000000000004,13.5,-0.845736,-0.80162,13.4,-1.9238879999999998,-0.05111,13.4,-0.122664,-0.00269,13.4,-0.006456,-0.0,13.5,-0.0,0.00269,13.4,0.006456
14.67099135,0.12643000000000001,13.600000000000001,0.30343200000000004,-0.35777000000000003,13.600000000000001,-0.8586480000000001,-0.80162,13.5,-1.9238879999999998,-0.04304,13.4,-0.103296,0.0,13.4,0.0,-0.0,13.5,-0.0,0.00269,13.4,0.006456
14.704414521,0.12374,13.700000000000001,0.296976,-0.35777000000000003,13.600000000000001,-0.8586480000000001,-0.80162,13.4,-1.9238879999999998,-0.06725,13.4,-0.16140000000000002,0.0,13.4,0.0,-0.0,13.5,-0.0,0.00269,13.4,0.006456
14.736386134,0.13719,13.700000000000001,0.329256,-0.35239000000000004,13.600000000000001,-0.845736,-0.80162,13.4,-1.9238879999999998,-0.048420000000000005,13.4,-0.116208,0.0,13.4,0.0,-0.0,13.4,-0.0,-0.0,13.4,-0.0
14.7704237,0.12643000000000001,13.700000000000001,0.30343200000000004,-0.36046,13.600000000000001,-0.865104,-0.80162,13.4,-1.9238879999999998,-0.04573,13.4,-0.109752,0.0,13.4,0.0,-0.0,13.4,-0.0,0.00269,13.4,0.006456
14.803310421,0.12374,13.700000000000001,0.296976,-0.36046,13.600000000000001,-0.865104,-0.80162,13.4,-1.9238879999999998,-0.048420000000000005,13.4,-0.116208,0.0,13.4,0.0,-0.0,13.4,-0.0,-0.0,13.4,-0.0
14.836467318,0.12374,13.700000000000001,0.296976,-0.36315000000000003,13.5,-0.87156,-0.80162,13.4,-1.9238879999999998,-0.05918,13.4,-0.142032,0.0,13.4,0.0,-0.0,13.4,-0.0,0.00269,13.4,0.006456
14.870279103,0.12374,13.700000000000001,0.296976,-0.36046,13.600000000000001,-0.865104,-0.80162,13.4,-1.9238879999999998,-0.0538,13.4,-0.12911999999999998,0.0,13.4,0.0,-0.0,13.4,-0.0,0.00269,13.4,0.006456
14.903847281,0.1345,13.700000000000001,0.32280000000000003,-0.36046,13.600000000000001,-0.865104,-0.80162,13.4,-1.9238879999999998,-0.048420000000000005,13.4,-0.116208,0.0,13.4,0.0,-0.0,13.4,-0.0,-0.0,13.4,-0.0
14.936779474,0.12374,13.700000000000001,0.296976,-0.35239000000000004,13.5,-0.845736,-0.8043100000000001,13.4,-1.930344,-0.0538,13.4,-0.12911999999999998,0.0,13.4,0.0,-0.0,13.4,-0.0,0.00269,13.4,0.006456
14.971098516,0.12374,13.700000000000001,0.296976,-0.36046,13.600000000000001,-0.865104,-0.8043100000000001,13.4,-1.930344,-0.05111,13.4,-0.122664,-0.00269,13.4,-0.006456,-0.0,13.4,-0.0,0.00269,13.4,0.006456
15.003408227,0.13181,13.700000000000001,0.316344,-0.36315000000000003,13.600000000000001,-0.87156,-0.8043100000000001,13.4,-1.930344,-0.040350000000000004,13.4,-0.09684000000000001,-0.00269,13.4,-0.006456,-0.0,13.4,-0.0,-0.0,13.4,-0.0
15.037539798,0.12643000000000001,13.700000000000001,0.30343200000000004,-0.35239000000000004,13.600000000000001,-0.845736,-0.8043100000000001,13.4,-1.930344,-0.06187,13.4,-0.148488,0.0,13.4,0.0,-0.0,13.4,-0.0,-0.0,13.4,-0.0
15.071072096,0.12374,13.700000000000001,0.296976,-0.36315000000000003,13.600000000000001,-0.87156,-0.8043100000000001,13.4,-1.930344,-0.04304,13.4,-0.103296,0.0,13.4,0.0,-0.0,13.4,-0.0,0.00269,13.4,0.006456
15.10394278,0.12643000000000001,13.700000000000001,0.30343200000000004,-0.35508,13.5,-0.852192,-0.8043100000000001,13.4,-1.930344,-0.04304,13.4,-0.103296,0.0,13.4,0.0,-0.0,13.4,-0.0,0.00269,13.4,0.006456
15.137141127,0.13181,13.600000000000001,0.316344,-0.35239000000000004,13.5,-0.845736,-0.8043100000000001,13.4,-1.930344,-0.06187,13.4,-0.148488,-0.00269,13.4,-0.006456,-0.0,13.4,-0.0,-0.0,13.4,-0.0
15.170447285,0.12374,13.600000000000001,0.296976,-0.36046,13.600000000000001,-0.865104,-0.8043100000000001,13.4,-1.930344,-0.0538,13.4,-0.12911999999999998,0.0,13.4,0.0,-0.0,13.4,-0.0,0.00269,13.4,0.006456
15.205411086,0.13181,13.700000000000001,0.316344,-0.36315000000000003,13.600000000000001,-0.87156,-0.8043100000000001,13.4,-1.930344,-0.03497,13.4,-0.083928,0.0,13.4,0.0,-0.0,13.4,-0.0,0.00269,13.4,0.006456
15.237993404,0.12374,13.700000000000001,0.296976,-0.36046,13.600000000000001,-0.865104,-0.8043100000000001,13.4,-1.930344,-0.06994,13.4,-0.167856,-0.00269,13.4,-0.006456,-0.0,13.4,-0.0,0.00269,13.4,0.006456
15.271365879,0.12374,13.700000000000001,0.296976,-0.36315000000000003,13.5,-0.87156,-0.8043100000000001,13.5,-1.930344,-0.040350000000000004,13.4,-0.09684000000000001,0.0,13.4,0.0,-0.0,13.4,-0.0,0.00269,13.4,0.006456
15.303267804,0.12105,13.600000000000001,0.29052,-0.36046,13.600000000000001,-0.865104,-0.8043100000000001,13.5,-1.930344,-0.0538,13.4,-0.12911999999999998,-0.00269,13.4,-0.006456,-0.0,13.4,-0.0,-0.0,13.4,-0.0
15.337063076,0.12374,13.600000000000001,0.296976,-0.36315000000000003,13.600000000000001,-0.87156,-0.8043100000000001,13.4,-1.930344,-0.03766,13.4,-0.09038399999999999,-0.00269,13.4,-0.006456,-0.0,13.4,-0.0,0.00269,13.4,0.006456
