RoboFEI-Work/manip_ws/pick_telemetry/pick_telemetry_20260626_152837.csv
time,manip_joint1/current,manip_joint1/voltage,manip_joint1/effort,manip_joint2/current,manip_joint2/voltage,manip_joint2/effort,manip_joint3/current,manip_joint3/voltage,manip_joint3/effort,manip_joint4/current,manip_joint4/voltage,manip_joint4/effort,manip_joint5/current,manip_joint5/voltage,manip_joint5/effort,manip_joint6/current,manip_joint6/voltage,manip_joint6/effort,manip_joint7/current,manip_joint7/voltage,manip_joint7/effort
0.010766495,0.056490000000000005,13.600000000000001,0.135576,-0.7047800000000001,13.600000000000001,-1.691472,-0.35777000000000003,13.4,-0.8586480000000001,-0.02152,13.4,-0.051648,0.0,13.4,0.0,-0.0,13.4,-0.0,-0.0,13.4,-0.0
0.043819703,0.02152,13.600000000000001,0.051648,-0.7047800000000001,13.5,-1.691472,-0.36315000000000003,13.5,-0.87156,-0.02152,13.4,-0.051648,0.0,13.4,0.0,-0.0,13.4,-0.0,-0.0,13.4,-0.0
0.077629464,0.024210000000000002,13.600000000000001,0.058104,-0.7047800000000001,13.600000000000001,-1.691472,-0.36315000000000003,13.5,-0.87156,-0.01883,13.4,-0.045191999999999996,0.0,13.4,0.0,-0.0,13.4,-0.0,-0.0,13.4,-0.0
0.110606752,0.02152,13.600000000000001,0.051648,-0.7047800000000001,13.5,-1.691472,-0.36584,13.4,-0.878016,-0.02152,13.4,-0.051648,0.0,13.4,0.0,-0.0,13.4,-0.0,-0.0,13.4,-0.0
0.143518639,0.040350000000000004,13.600000000000001,0.09684000000000001,-0.7047800000000001,13.5,-1.691472,-0.35777000000000003,13.4,-0.8586480000000001,-0.02152,13.4,-0.051648,0.0,13.4,0.0,-0.0,13.4,-0.0,-0.0,13.4,-0.0
0.177560748,0.0269,13.600000000000001,0.06455999999999999,-0.68864,13.600000000000001,-1.652736,-0.36584,13.4,-0.878016,-0.02152,13.4,-0.051648,0.0,13.4,0.0,-0.0,13.4,-0.0,-0.0,13.4,-0.0
0.211434363,0.040350000000000004,13.600000000000001,0.09684000000000001,-0.69671,13.5,-1.672104,-0.35777000000000003,13.4,-0.8586480000000001,-0.01883,13.4,-0.045191999999999996,0.0,13.4,0.0,-0.0,13.4,-0.0,-0.0,13.4,-0.0
0.243591041,0.04573,13.600000000000001,0.109752,-0.7047800000000001,13.5,-1.691472,-0.35508,13.5,-0.852192,-0.02152,13.4,-0.051648,0.0,13.4,0.0,-0.0,13.4,-0.0,-0.0,13.4,-0.0
0.277528932,0.03228,13.600000000000001,0.077472,-0.69671,13.5,-1.672104,-0.35239000000000004,13.5,-0.845736,-0.02152,13.4,-0.051648,0.0,13.4,0.0,-0.0,13.4,-0.0,-0.0,13.4,-0.0
0.310570788,0.0269,13.600000000000001,0.06455999999999999,-0.7047800000000001,13.600000000000001,-1.691472,-0.3497,13.5,-0.83928,-0.02152,13.4,-0.051648,0.0,13.4,0.0,-0.0,13.4,-0.0,-0.0,13.4,-0.0
0.344412719,0.01345,13.600000000000001,0.032279999999999996,-0.7047800000000001,13.5,-1.691472,-0.36584,13.4,-0.878016,-0.02152,13.4,-0.051648,0.0,13.4,0.0,-0.0,13.4,-0.0,-0.0,13.4,-0.0
0.377401667,0.0,13.700000000000001,0.0,-0.4035,13.600000000000001,-0.9684,-0.12912,13.5,-0.309888,0.0,13.5,0.0,0.0,13.5,0.0,-0.0,13.5,-0.0,-0.0,13.5,-0.0
0.410502444,0.0,13.700000000000001,0.0,-0.48958,13.600000000000001,-1.174992,-0.28245000000000003,13.600000000000001,-0.67788,0.0,13.5,0.0,0.0,13.5,0.0,-0.0,13.5,-0.0,-0.0,13.5,-0.0
0.443542924,0.0,13.700000000000001,0.0,-0.55683,13.600000000000001,-1.336392,-0.31204000000000004,13.5,-0.7488960000000001,-0.00269,13.5,-0.006456,0.0,13.5,0.0,-0.0,13.5,-0.0,-0.0,13.5,-0.0
0.477394176,0.0,13.700000000000001,0.0,-0.71016,13.600000000000001,-1.704384,-0.37391,13.5,-0.8973840000000001,-0.00269,13.5,-0.006456,0.0,13.5,0.0,-0.0,13.5,-0.0,-0.0,13.5,-0.0
0.510525655,0.0,13.700000000000001,0.0,-0.95226,13.5,-2.285424,-0.42502,13.5,-1.020048,0.00538,13.4,0.012912,0.0,13.4,0.0,-0.0,13.4,-0.0,-0.0,13.4,-0.0
0.543404732,0.0,13.600000000000001,0.0,-1.1029,13.5,-2.64696,-0.40081,13.4,-0.9619439999999999,0.0,13.4,0.0,0.0,13.4,0.0,-0.0,13.4,-0.0,-0.0,13.4,-0.0
0.577424159,0.0,13.600000000000001,0.0,-1.17822,13.5,-2.827728,-0.39005,13.4,-0.93612,0.0,13.3,0.0,0.0,13.3,0.0,-0.0,13.3,-0.0,-0.0,13.3,-0.0
0.610379607,0.0,13.4,0.0,-1.08407,13.4,-2.6017680000000003,-0.27976,13.3,-0.671424,0.00538,13.3,0.012912,0.0,13.3,0.0,-0.0,13.3,-0.0,-0.0,13.3,-0.0
0.643478972,0.0,13.5,0.0,-1.17822,13.4,-2.827728,-0.27438,13.200000000000001,-0.658512,0.01076,13.3,0.025824,0.0,13.200000000000001,0.0,-0.0,13.3,-0.0,-0.0,13.200000000000001,-0.0
0.677500095,0.0,13.5,0.0,-1.20512,13.3,-2.8922879999999997,-0.27976,13.3,-0.671424,-0.00269,13.3,-0.006456,0.0,13.200000000000001,0.0,-0.0,13.200000000000001,-0.0,-0.0,13.200000000000001,-0.0
0.710620339,0.0,13.4,0.0,-1.31541,13.200000000000001,-3.156984,-0.32280000000000003,13.200000000000001,-0.7747200000000001,0.01076,13.200000000000001,0.025824,0.0,13.100000000000001,0.0,-0.0,13.200000000000001,-0.0,-0.0,13.200000000000001,-0.0
0.743363845,0.01883,13.5,0.045191999999999996,-1.2912000000000001,13.3,-3.0988800000000003,-0.36853,13.200000000000001,-0.884472,0.0,13.200000000000001,0.0,0.0,13.100000000000001,0.0,-0.0,13.100000000000001,-0.0,-0.0,13.100000000000001,-0.0
0.777412328,0.01883,13.4,0.045191999999999996,-1.23471,13.200000000000001,-2.963304,-0.38467,13.200000000000001,-0.923208,0.00538,13.100000000000001,0.012912,0.0,13.0,0.0,-0.0,13.100000000000001,-0.0,-0.0,13.100000000000001,-0.0
0.810617027,0.00807,13.4,0.019368,-1.2481600000000002,13.100000000000001,-2.9955840000000005,-0.32280000000000003,13.100000000000001,-0.7747200000000001,0.01345,13.200000000000001,0.032279999999999996,0.0,13.100000000000001,0.0,-0.0,13.100000000000001,-0.0,-0.0,13.100000000000001,-0.0
0.843602123,0.01614,13.4,0.038736,-1.19167,13.200000000000001,-2.860008,-0.30397,13.100000000000001,-0.7295280000000001,0.00269,13.100000000000001,0.006456,0.0,13.0,0.0,-0.0,13.100000000000001,-0.0,-0.0,13.0,-0.0
0.877355373,0.04304,13.5,0.103296,-1.22395,13.3,-2.9374800000000003,-0.30935,13.100000000000001,-0.74244,0.01883,13.100000000000001,0.045191999999999996,0.0,13.100000000000001,0.0,-0.0,13.100000000000001,-0.0,-0.0,13.100000000000001,-0.0
0.91027753,0.05918,13.4,0.142032,-1.20512,13.100000000000001,-2.8922879999999997,-0.33087,13.200000000000001,-0.794088,0.00807,13.100000000000001,0.019368,0.0,13.0,0.0,-0.0,13.100000000000001,-0.0,-0.0,13.0,-0.0
0.943440089,0.06994,13.4,0.167856,-1.17822,13.200000000000001,-2.827728,-0.31473,13.0,-0.755352,0.02959,13.100000000000001,0.071016,0.0,13.100000000000001,0.0,-0.0,13.0,-0.0,-0.0,13.100000000000001,-0.0
0.977219223,0.06994,13.3,0.167856,-1.1378700000000002,13.100000000000001,-2.730888,-0.33894,13.100000000000001,-0.8134560000000001,0.02152,13.100000000000001,0.051648,0.0,13.0,0.0,-0.0,13.0,-0.0,-0.0,13.0,-0.0
1.010164836,0.08070000000000001,13.4,0.19368000000000002,-1.17553,13.200000000000001,-2.821272,-0.34432,13.0,-0.826368,0.02152,13.0,0.051648,0.0,13.0,0.0,-0.0,13.0,-0.0,-0.0,13.0,-0.0
1.04314795,0.08877,13.3,0.213048,-1.13518,13.100000000000001,-2.724432,-0.34701000000000004,13.100000000000001,-0.8328240000000001,0.01345,13.0,0.032279999999999996,0.0,13.0,0.0,-0.0,13.0,-0.0,-0.0,13.0,-0.0
1.077427538,0.09146,13.4,0.219504,-1.17553,13.200000000000001,-2.821272,-0.36315000000000003,13.0,-0.87156,0.0269,13.100000000000001,0.06455999999999999,0.0,13.0,0.0,-0.0,13.0,-0.0,-0.0,13.0,-0.0
1.110194487,0.12374,13.3,0.296976,-1.13249,13.100000000000001,-2.7179759999999997,-0.3497,13.0,-0.83928,0.040350000000000004,13.0,0.09684000000000001,0.0,13.0,0.0,-0.0,13.0,-0.0,-0.0,13.0,-0.0
1.143341116,0.12105,13.4,0.29052,-1.11904,13.200000000000001,-2.685696,-0.3497,13.100000000000001,-0.83928,0.01883,13.0,0.045191999999999996,0.0,13.0,0.0,-0.0,13.0,-0.0,-0.0,13.0,-0.0
1.17707801,0.12912,13.3,0.309888,-1.06524,13.100000000000001,-2.5565759999999997,-0.34432,13.100000000000001,-0.826368,0.01614,13.0,0.038736,0.01883,12.9,0.045191999999999996,-0.0,13.0,-0.0,-0.0,13.0,-0.0
1.210177652,0.14526,13.4,0.348624,-1.00606,13.200000000000001,-2.414544,-0.31204000000000004,13.0,-0.7488960000000001,0.01076,13.0,0.025824,0.00807,13.0,0.019368,-0.0,13.0,-0.0,-0.0,13.0,-0.0
1.243064744,0.12374,13.4,0.296976,-0.92267,13.3,-2.2144079999999997,-0.33356,13.100000000000001,-0.800544,0.0,13.100000000000001,0.0,0.0,13.0,0.0,-0.0,13.0,-0.0,-0.0,13.0,-0.0
1.277139856,0.12105,13.4,0.29052,-0.90922,13.200000000000001,-2.182128,-0.31204000000000004,13.200000000000001,-0.7488960000000001,-0.00269,13.100000000000001,-0.006456,0.01076,13.100000000000001,0.025824,-0.0,13.100000000000001,-0.0,-0.0,13.100000000000001,-0.0
1.310221954,0.12643000000000001,13.5,0.30343200000000004,-0.9253600000000001,13.3,-2.220864,-0.31473,13.200000000000001,-0.755352,0.00538,13.200000000000001,0.012912,0.0,13.100000000000001,0.0,-0.0,13.100000000000001,-0.0,-0.0,13.100000000000001,-0.0
1.343166929,0.12643000000000001,13.4,0.30343200000000004,-0.8258300000000001,13.200000000000001,-1.981992,-0.31473,13.3,-0.755352,-0.00538,13.200000000000001,-0.012912,0.0,13.100000000000001,0.0,-0.0,13.200000000000001,-0.0,-0.0,13.100000000000001,-0.0
1.377113247,0.14795,13.5,0.35508,-0.83121,13.3,-1.994904,-0.33356,13.200000000000001,-0.800544,-0.00538,13.200000000000001,-0.012912,0.0,13.200000000000001,0.0,-0.0,13.200000000000001,-0.0,-0.0,13.100000000000001,-0.0
1.409933121,0.17216,13.5,0.413184,-0.8554200000000001,13.3,-2.053008,-0.32818,13.3,-0.787632,0.0,13.200000000000001,0.0,0.0,13.100000000000001,0.0,-0.0,13.200000000000001,-0.0,-0.0,13.100000000000001,-0.0
1.443230915,0.1883,13.5,0.45192,-0.8554200000000001,13.3,-2.053008,-0.3497,13.200000000000001,-0.83928,-0.00538,13.200000000000001,-0.012912,0.00538,13.200000000000001,0.012912,-0.0,13.200000000000001,-0.0,-0.0,13.200000000000001,-0.0
1.477100011,0.16409,13.5,0.393816,-0.83121,13.3,-1.994904,-0.33894,13.3,-0.8134560000000001,-0.00538,13.200000000000001,-0.012912,0.0,13.200000000000001,0.0,-0.0,13.200000000000001,-0.0,-0.0,13.200000000000001,-0.0
1.510029961,0.14257,13.5,0.34216799999999997,-0.87963,13.4,-2.111112,-0.35239000000000004,13.3,-0.845736,-0.00538,13.3,-0.012912,0.0,13.200000000000001,0.0,-0.0,13.200000000000001,-0.0,-0.0,13.200000000000001,-0.0
1.543170467,0.12105,13.5,0.29052,-0.8258300000000001,13.3,-1.981992,-0.35777000000000003,13.3,-0.8586480000000001,-0.024210000000000002,13.3,-0.058104,0.0,13.3,0.0,-0.0,13.3,-0.0,-0.0,13.200000000000001,-0.0
1.57728847,0.12643000000000001,13.5,0.30343200000000004,-0.81776,13.4,-1.962624,-0.33894,13.3,-0.8134560000000001,-0.02152,13.3,-0.051648,0.01076,13.200000000000001,0.025824,-0.0,13.3,-0.0,-0.0,13.200000000000001,-0.0
1.610067153,0.14795,13.5,0.35508,-0.81238,13.5,-1.949712,-0.31742000000000004,13.4,-0.761808,-0.01883,13.3,-0.045191999999999996,0.00538,13.3,0.012912,-0.0,13.3,-0.0,-0.0,13.3,-0.0
1.643029345,0.16140000000000002,13.600000000000001,0.38736000000000004,-0.76934,13.4,-1.846416,-0.31473,13.4,-0.755352,-0.05918,13.3,-0.142032,0.0,13.3,0.0,-0.0,13.3,-0.0,-0.0,13.3,-0.0
1.677025594,0.15602000000000002,13.600000000000001,0.37444800000000006,-0.76934,13.4,-1.846416,-0.31742000000000004,13.4,-0.761808,-0.056490000000000005,13.4,-0.135576,0.0,13.3,0.0,-0.0,13.3,-0.0,-0.0,13.3,-0.0
1.710024589,0.15602000000000002,13.5,0.37444800000000006,-0.7451300000000001,13.5,-1.7883120000000001,-0.32549,13.4,-0.781176,-0.03497,13.4,-0.083928,0.0,13.3,0.0,-0.0,13.3,-0.0,-0.0,13.3,-0.0
1.744080802,0.12912,13.5,0.309888,-0.71823,13.600000000000001,-1.723752,-0.30935,13.4,-0.74244,-0.04304,13.4,-0.103296,0.0,13.3,0.0,-0.0,13.4,-0.0,-0.0,13.3,-0.0
1.777034034,0.12912,13.600000000000001,0.309888,-0.73168,13.5,-1.756032,-0.30128,13.4,-0.7230719999999999,-0.024210000000000002,13.4,-0.058104,0.0,13.3,0.0,-0.0,13.4,-0.0,-0.0,13.3,-0.0
1.809990308,0.12105,13.600000000000001,0.29052,-0.77741,13.5,-1.865784,-0.31742000000000004,13.4,-0.761808,-0.03228,13.4,-0.077472,0.0,13.3,0.0,-0.0,13.4,-0.0,-0.0,13.3,-0.0
1.843728171,0.13719,13.600000000000001,0.329256,-0.71823,13.600000000000001,-1.723752,-0.31204000000000004,13.4,-0.7488960000000001,-0.02959,13.4,-0.071016,0.0,13.3,0.0,-0.0,13.4,-0.0,-0.0,13.4,-0.0
1.877191104,0.12105,13.600000000000001,0.29052,-0.73706,13.5,-1.768944,-0.30397,13.4,-0.7295280000000001,-0.0269,13.4,-0.06455999999999999,0.0,13.4,0.0,-0.0,13.4,-0.0,-0.0,13.4,-0.0
1.90995573,0.12374,13.600000000000001,0.296976,-0.77741,13.4,-1.865784,-0.31473,13.4,-0.755352,-0.02959,13.4,-0.071016,0.0,13.4,0.0,-0.0,13.4,-0.0,-0.0,13.4,-0.0
1.943928743,0.12912,13.600000000000001,0.309888,-0.74244,13.5,-1.7818559999999999,-0.30666,13.4,-0.735984,-0.0269,13.4,-0.06455999999999999,0.0,13.4,0.0,-0.0,13.4,-0.0,-0.0,13.4,-0.0
1.977703015,0.12374,13.600000000000001,0.296976,-0.8150700000000001,13.5,-1.9561680000000001,-0.31742000000000004,13.4,-0.761808,-0.0269,13.4,-0.06455999999999999,0.0,13.4,0.0,-0.0,13.4,-0.0,-0.0,13.4,-0.0
2.010146497,0.12643000000000001,13.600000000000001,0.30343200000000004,-0.8043100000000001,13.5,-1.930344,-0.31742000000000004,13.4,-0.761808,-0.02959,13.4,-0.071016,0.00269,13.4,0.006456,-0.0,13.4,-0.0,-0.0,13.4,-0.0
2.043982799,0.12643000000000001,13.600000000000001,0.30343200000000004,-0.8258300000000001,13.4,-1.981992,-0.31473,13.4,-0.755352,-0.02959,13.4,-0.071016,0.0,13.4,0.0,-0.0,13.4,-0.0,-0.0,13.4,-0.0
2.076783758,0.12105,13.600000000000001,0.29052,-0.82314,13.5,-1.975536,-0.30128,13.4,-0.7230719999999999,-0.03228,13.4,-0.077472,0.0,13.4,0.0,-0.0,13.4,-0.0,-0.0,13.4,-0.0
2.109766646,0.12374,13.600000000000001,0.296976,-0.81238,13.600000000000001,-1.949712,-0.31742000000000004,13.4,-0.761808,-0.0538,13.4,-0.12911999999999998,0.0,13.4,0.0,-0.0,13.4,-0.0,-0.0,13.4,-0.0
2.14379099,0.12374,13.600000000000001,0.296976,-0.82045,13.600000000000001,-1.96908,-0.30666,13.4,-0.735984,-0.0269,13.4,-0.06455999999999999,0.0,13.4,0.0,-0.0,13.4,-0.0,-0.0,13.4,-0.0
2.176837017,0.12374,13.600000000000001,0.296976,-0.8150700000000001,13.5,-1.9561680000000001,-0.30935,13.4,-0.74244,-0.03766,13.4,-0.09038399999999999,0.0,13.4,0.0,-0.0,13.4,-0.0,-0.0,13.4,-0.0
2.209865626,0.12643000000000001,13.600000000000001,0.30343200000000004,-0.8150700000000001,13.5,-1.9561680000000001,-0.30128,13.4,-0.7230719999999999,-0.048420000000000005,13.4,-0.116208,0.0,13.4,0.0,-0.0,13.4,-0.0,-0.0,13.4,-0.0
2.244224881,0.12374,13.600000000000001,0.296976,-0.82852,13.600000000000001,-1.988448,-0.31473,13.4,-0.755352,-0.02959,13.4,-0.071016,0.0,13.4,0.0,-0.0,13.4,-0.0,-0.0,13.4,-0.0
2.276924577,0.12643000000000001,13.600000000000001,0.30343200000000004,-0.82314,13.5,-1.975536,-0.31204000000000004,13.4,-0.7488960000000001,-0.056490000000000005,13.4,-0.135576,0.0,13.4,0.0,-0.0,13.4,-0.0,-0.0,13.4,-0.0
2.309824967,0.12374,13.600000000000001,0.296976,-0.81776,13.5,-1.962624,-0.30935,13.4,-0.74244,-0.04573,13.4,-0.109752,0.0,13.4,0.0,-0.0,13.4,-0.0,-0.0,13.4,-0.0
2.343859225,0.14795,13.600000000000001,0.35508,-0.82045,13.600000000000001,-1.96908,-0.30935,13.4,-0.74244,-0.040350000000000004,13.4,-0.09684000000000001,0.0,13.4,0.0,-0.0,13.4,-0.0,-0.0,13.4,-0.0
2.376817931,0.1345,13.600000000000001,0.32280000000000003,-0.81238,13.5,-1.949712,-0.30935,13.4,-0.74244,-0.05111,13.4,-0.122664,0.0,13.4,0.0,-0.0,13.4,-0.0,-0.0,13.4,-0.0
2.409604153,0.13719,13.600000000000001,0.329256,-0.80969,13.5,-1.9432559999999999,-0.29859,13.4,-0.716616,-0.04304,13.4,-0.103296,0.0,13.4,0.0,-0.0,13.4,-0.0,-0.0,13.4,-0.0
2.443835478,0.13719,13.600000000000001,0.329256,-0.81776,13.5,-1.962624,-0.30397,13.4,-0.7295280000000001,-0.04573,13.4,-0.109752,0.0,13.4,0.0,-0.0,13.4,-0.0,-0.0,13.4,-0.0
2.476742969,0.13719,13.600000000000001,0.329256,-0.807,13.4,-1.9368,-0.31473,13.4,-0.755352,-0.04573,13.4,-0.109752,0.0,13.4,0.0,-0.0,13.4,-0.0,-0.0,13.4,-0.0
2.509854055,0.13719,13.600000000000001,0.329256,-0.8150700000000001,13.5,-1.9561680000000001,-0.31742000000000004,13.4,-0.761808,-0.03766,13.4,-0.09038399999999999,0.0,13.4,0.0,-0.0,13.4,-0.0,-0.0,13.4,-0.0
2.543784565,0.13719,13.600000000000001,0.329256,-0.80969,13.4,-1.9432559999999999,-0.29859,13.4,-0.716616,-0.056490000000000005,13.4,-0.135576,0.0,13.4,0.0,-0.0,13.4,-0.0,-0.0,13.4,-0.0
2.576811821,0.13719,13.600000000000001,0.329256,-0.82314,13.5,-1.975536,-0.30666,13.4,-0.735984,-0.04573,13.4,-0.109752,0.0,13.4,0.0,-0.0,13.4,-0.0,-0.0,13.4,-0.0
2.609924571,0.13719,13.600000000000001,0.329256,-0.807,13.5,-1.9368,-0.30666,13.4,-0.735984,-0.056490000000000005,13.4,-0.135576,0.0,13.4,0.0,-0.0,13.4,-0.0,-0.0,13.4,-0.0
2.643734989,0.13719,13.600000000000001,0.329256,-0.81238,13.5,-1.949712,-0.30128,13.4,-0.7230719999999999,-0.04304,13.4,-0.103296,0.0,13.4,0.0,-0.0,13.4,-0.0,-0.0,13.4,-0.0
2.676709688,0.12912,13.600000000000001,0.309888,-0.82852,13.600000000000001,-1.988448,-0.31204000000000004,13.4,-0.7488960000000001,-0.04573,13.4,-0.109752,0.0,13.4,0.0,-0.0,13.4,-0.0,-0.0,13.4,-0.0
2.710391771,0.12643000000000001,13.600000000000001,0.30343200000000004,-0.807,13.5,-1.9368,-0.30128,13.4,-0.7230719999999999,-0.04304,13.4,-0.103296,0.0,13.4,0.0,-0.0,13.4,-0.0,-0.0,13.4,-0.0
2.743607461,0.12374,13.600000000000001,0.296976,-0.82852,13.5,-1.988448,-0.31204000000000004,13.4,-0.7488960000000001,-0.04304,13.4,-0.103296,0.0,13.4,0.0,-0.0,13.4,-0.0,-0.0,13.4,-0.0
2.776841375,0.12912,13.600000000000001,0.309888,-0.81776,13.600000000000001,-1.962624,-0.2959,13.4,-0.71016,-0.03497,13.4,-0.083928,0.0,13.4,0.0,-0.0,13.4,-0.0,-0.0,13.4,-0.0
2.810058074,0.12912,13.600000000000001,0.309888,-0.82314,13.5,-1.975536,-0.2959,13.4,-0.71016,-0.05111,13.4,-0.122664,0.0,13.4,0.0,-0.0,13.4,-0.0,-0.0,13.4,-0.0
2.843709496,0.12374,13.600000000000001,0.296976,-0.80969,13.5,-1.9432559999999999,-0.31204000000000004,13.4,-0.7488960000000001,-0.04573,13.4,-0.109752,0.0,13.4,0.0,-0.0,13.4,-0.0,-0.0,13.4,-0.0
2.876771662,0.12643000000000001,13.600000000000001,0.30343200000000004,-0.81776,13.5,-1.962624,-0.30935,13.4,-0.74244,-0.04304,13.4,-0.103296,0.0,13.4,0.0,-0.0,13.4,-0.0,-0.0,13.4,-0.0
2.909599288,0.12374,13.600000000000001,0.296976,-0.8150700000000001,13.5,-1.9561680000000001,-0.31204000000000004,13.4,-0.7488960000000001,-0.03766,13.4,-0.09038399999999999,0.0,13.4,0.0,-0.0,13.4,-0.0,-0.0,13.4,-0.0
2.943728276,0.12374,13.600000000000001,0.296976,-0.8258300000000001,13.600000000000001,-1.981992,-0.31473,13.4,-0.755352,-0.03766,13.4,-0.09038399999999999,0.0,13.4,0.0,-0.0,13.4,-0.0,-0.0,13.4,-0.0
2.976948708,0.12374,13.600000000000001,0.296976,-0.8258300000000001,13.600000000000001,-1.981992,-0.30935,13.4,-0.74244,-0.04573,13.4,-0.109752,0.0,13.4,0.0,-0.0,13.4,-0.0,-0.0,13.4,-0.0
3.009654785,0.13181,13.600000000000001,0.316344,-0.82045,13.5,-1.96908,-0.30666,13.4,-0.735984,-0.048420000000000005,13.4,-0.116208,0.0,13.4,0.0,-0.0,13.4,-0.0,-0.0,13.4,-0.0
3.043694799,0.12374,13.600000000000001,0.296976,-0.8150700000000001,13.4,-1.9561680000000001,-0.30666,13.4,-0.735984,-0.040350000000000004,13.4,-0.09684000000000001,0.0,13.4,0.0,-0.0,13.4,-0.0,-0.0,13.4,-0.0
3.076725367,0.12374,13.600000000000001,0.296976,-0.8150700000000001,13.5,-1.9561680000000001,-0.30935,13.4,-0.74244,-0.0269,13.4,-0.06455999999999999,0.0,13.4,0.0,-0.0,13.4,-0.0,-0.0,13.4,-0.0
3.109669032,0.12374,13.600000000000001,0.296976,-0.807,13.4,-1.9368,-0.31473,13.4,-0.755352,-0.03766,13.4,-0.09038399999999999,0.0,13.4,0.0,-0.0,13.4,-0.0,-0.0,13.4,-0.0
3.143581538,0.12374,13.600000000000001,0.296976,-0.80969,13.5,-1.9432559999999999,-0.31473,13.4,-0.755352,-0.05918,13.4,-0.142032,0.0,13.4,0.0,-0.0,13.4,-0.0,-0.0,13.4,-0.0
3.176629977,0.12374,13.600000000000001,0.296976,-0.82045,13.5,-1.96908,-0.30666,13.4,-0.735984,-0.048420000000000005,13.4,-0.116208,0.0,13.4,0.0,-0.0,13.4,-0.0,-0.0,13.4,-0.0
3.209724213,0.12374,13.600000000000001,0.296976,-0.8150700000000001,13.5,-1.9561680000000001,-0.31742000000000004,13.4,-0.761808,-0.04304,13.4,-0.103296,0.0,13.4,0.0,-0.0,13.4,-0.0,-0.0,13.4,-0.0
3.243756726,0.12374,13.600000000000001,0.296976,-0.83121,13.600000000000001,-1.994904,-0.30935,13.4,-0.74244,-0.056490000000000005,13.4,-0.135576,0.0,13.4,0.0,-0.0,13.4,-0.0,-0.0,13.4,-0.0
3.27665717,0.12374,13.600000000000001,0.296976,-0.8150700000000001,13.5,-1.9561680000000001,-0.31742000000000004,13.4,-0.761808,-0.03766,13.4,-0.09038399999999999,0.0,13.4,0.0,-0.0,13.4,-0.0,-0.0,13.4,-0.0
3.309584443,0.13181,13.600000000000001,0.316344,-0.81776,13.5,-1.962624,-0.30935,13.4,-0.74244,-0.05111,13.4,-0.122664,0.0,13.4,0.0,-0.0,13.4,-0.0,-0.0,13.4,-0.0
3.343529911,0.12374,13.600000000000001,0.296976,-0.8150700000000001,13.600000000000001,-1.9561680000000001,-0.30666,13.4,-0.735984,-0.03766,13.4,-0.09038399999999999,0.0,13.4,0.0,-0.0,13.4,-0.0,-0.0,13.4,-0.0
3.376532951,0.12374,13.600000000000001,0.296976,-0.80969,13.5,-1.9432559999999999,-0.2959,13.4,-0.71016,-0.02959,13.4,-0.071016,0.0,13.4,0.0,-0.0,13.4,-0.0,-0.0,13.4,-0.0
3.409618921,0.12374,13.600000000000001,0.296976,-0.8150700000000001,13.5,-1.9561680000000001,-0.30666,13.4,-0.735984,-0.03228,13.4,-0.077472,0.0,13.4,0.0,-0.0,13.4,-0.0,-0.0,13.4,-0.0
3.443551623,0.12374,13.600000000000001,0.296976,-0.8258300000000001,13.5,-1.981992,-0.30666,13.4,-0.735984,-0.05111,13.4,-0.122664,0.0,13.4,0.0,-0.0,13.4,-0.0,-0.0,13.4,-0.0
3.476578133,0.12643000000000001,13.600000000000001,0.30343200000000004,-0.81776,13.4,-1.962624,-0.30666,13.4,-0.735984,-0.03228,13.4,-0.077472,0.0,13.4,0.0,-0.0,13.4,-0.0,-0.0,13.4,-0.0
3.510609331,0.13181,13.600000000000001,0.316344,-0.82045,13.5,-1.96908,-0.30128,13.4,-0.7230719999999999,-0.03228,13.4,-0.077472,0.0,13.4,0.0,-0.0,13.4,-0.0,-0.0,13.4,-0.0
3.543433192,0.12374,13.600000000000001,0.296976,-0.82045,13.4,-1.96908,-0.2959,13.4,-0.71016,-0.04573,13.4,-0.109752,0.0,13.4,0.0,-0.0,13.4,-0.0,-0.0,13.4,-0.0
3.576444619,0.12374,13.600000000000001,0.296976,-0.82852,13.5,-1.988448,-0.30128,13.4,-0.7230719999999999,-0.048420000000000005,13.4,-0.116208,0.0,13.4,0.0,-0.0,13.4,-0.0,-0.0,13.4,-0.0
3.610535467,0.12912,13.600000000000001,0.309888,-0.82045,13.5,-1.96908,-0.31742000000000004,13.4,-0.761808,-0.04304,13.4,-0.103296,0.0,13.4,0.0,-0.0,13.4,-0.0,-0.0,13.4,-0.0
3.64339445,0.12105,13.600000000000001,0.29052,-0.82045,13.5,-1.96908,-0.30935,13.4,-0.74244,-0.0538,13.4,-0.12911999999999998,0.0,13.4,0.0,-0.0,13.4,-0.0,-0.0,13.4,-0.0
3.676502245,0.1345,13.600000000000001,0.32280000000000003,-0.81776,13.5,-1.962624,-0.31473,13.4,-0.755352,-0.03497,13.4,-0.083928,0.0,13.4,0.0,-0.0,13.4,-0.0,-0.0,13.4,-0.0
3.709556263,0.12374,13.600000000000001,0.296976,-0.82314,13.5,-1.975536,-0.31204000000000004,13.4,-0.7488960000000001,-0.03497,13.4,-0.083928,0.0,13.4,0.0,-0.0,13.4,-0.0,-0.0,13.4,-0.0
3.743489834,0.12105,13.600000000000001,0.29052,-0.807,13.5,-1.9368,-0.31473,13.4,-0.755352,-0.03766,13.4,-0.09038399999999999,0.0,13.4,0.0,-0.0,13.4,-0.0,-0.0,13.4,-0.0
3.77634488,0.12105,13.600000000000001,0.29052,-0.82045,13.600000000000001,-1.96908,-0.31742000000000004,13.4,-0.761808,-0.04573,13.4,-0.109752,0.0,13.4,0.0,-0.0,13.4,-0.0,-0.0,13.4,-0.0
3.810496954,0.12374,13.600000000000001,0.296976,-0.81238,13.600000000000001,-1.949712,-0.31742000000000004,13.4,-0.761808,-0.048420000000000005,13.4,-0.116208,0.0,13.4,0.0,-0.0,13.4,-0.0,-0.0,13.4,-0.0
3.843432733,0.13181,13.600000000000001,0.316344,-0.82314,13.5,-1.975536,-0.31204000000000004,13.4,-0.7488960000000001,-0.03766,13.4,-0.09038399999999999,0.0,13.4,0.0,-0.0,13.4,-0.0,-0.0,13.4,-0.0
3.876279007,0.12374,13.600000000000001,0.296976,-0.83121,13.5,-1.994904,-0.31742000000000004,13.4,-0.761808,-0.05111,13.4,-0.122664,0.0,13.4,0.0,-0.0,13.4,-0.0,-0.0,13.4,-0.0
3.910376521,0.12374,13.600000000000001,0.296976,-0.82314,13.5,-1.975536,-0.30666,13.4,-0.735984,-0.03766,13.4,-0.09038399999999999,0.0,13.4,0.0,-0.0,13.4,-0.0,-0.0,13.4,-0.0
3.944102804,0.12374,13.600000000000001,0.296976,-0.80969,13.5,-1.9432559999999999,-0.30128,13.4,-0.7230719999999999,-0.040350000000000004,13.4,-0.09684000000000001,0.0,13.4,0.0,-0.0,13.4,-0.0,-0.0,13.4,-0.0
3.97649557,0.12374,13.600000000000001,0.296976,-0.82314,13.4,-1.975536,-0.30397,13.4,-0.7295280000000001,-0.04304,13.4,-0.103296,0.0,13.4,0.0,-0.0,13.4,-0.0,-0.0,13.4,-0.0
4.010402097,0.12374,13.600000000000001,0.296976,-0.82314,13.5,-1.975536,-0.30128,13.4,-0.7230719999999999,-0.03497,13.4,-0.083928,0.0,13.4,0.0,-0.0,13.4,-0.0,-0.0,13.4,-0.0
4.043216386,0.1345,13.600000000000001,0.32280000000000003,-0.82045,13.4,-1.96908,-0.31742000000000004,13.4,-0.761808,-0.040350000000000004,13.4,-0.09684000000000001,0.0,13.4,0.0,-0.0,13.4,-0.0,-0.0,13.4,-0.0
4.076378199,0.12105,13.600000000000001,0.29052,-0.81776,13.5,-1.962624,-0.30935,13.4,-0.74244,-0.040350000000000004,13.4,-0.09684000000000001,0.0,13.4,0.0,-0.0,13.4,-0.0,-0.0,13.4,-0.0
4.110301725,0.12374,13.600000000000001,0.296976,-0.81238,13.5,-1.949712,-0.30128,13.4,-0.7230719999999999,-0.048420000000000005,13.4,-0.116208,0.0,13.4,0.0,-0.0,13.4,-0.0,-0.0,13.4,-0.0
4.143266387,0.12374,13.600000000000001,0.296976,-0.81238,13.5,-1.949712,-0.31473,13.4,-0.755352,-0.02959,13.4,-0.071016,0.0,13.4,0.0,-0.0,13.4,-0.0,-0.0,13.4,-0.0
4.176312797,0.12374,13.600000000000001,0.296976,-0.82314,13.600000000000001,-1.975536,-0.30935,13.4,-0.74244,-0.05918,13.4,-0.142032,0.0,13.4,0.0,-0.0,13.4,-0.0,-0.0,13.4,-0.0
4.209580563,0.12374,13.600000000000001,0.296976,-0.81776,13.600000000000001,-1.962624,-0.30397,13.4,-0.7295280000000001,-0.03766,13.4,-0.09038399999999999,0.0,13.4,0.0,-0.0,13.4,-0.0,-0.0,13.4,-0.0
4.243346213,0.12374,13.600000000000001,0.296976,-0.82852,13.600000000000001,-1.988448,-0.31742000000000004,13.4,-0.761808,-0.03497,13.4,-0.083928,0.0,13.4,0.0,-0.0,13.4,-0.0,-0.0,13.4,-0.0
4.276252108,0.12374,13.600000000000001,0.296976,-0.81776,13.5,-1.962624,-0.30935,13.5,-0.74244,-0.040350000000000004,13.4,-0.09684000000000001,0.0,13.4,0.0,-0.0,13.4,-0.0,-0.0,13.4,-0.0
4.3093208,0.12374,13.600000000000001,0.296976,-0.8150700000000001,13.5,-1.9561680000000001,-0.30935,13.4,-0.74244,-0.03497,13.4,-0.083928,0.0,13.4,0.0,-0.0,13.4,-0.0,-0.0,13.4,-0.0
4.343281008,0.12374,13.600000000000001,0.296976,-0.80969,13.600000000000001,-1.9432559999999999,-0.31742000000000004,13.4,-0.761808,-0.040350000000000004,13.4,-0.09684000000000001,0.0,13.4,0.0,-0.0,13.4,-0.0,-0.0,13.4,-0.0
4.375974268,0.12374,13.600000000000001,0.296976,-0.83121,13.5,-1.994904,-0.30128,13.4,-0.7230719999999999,-0.048420000000000005,13.4,-0.116208,0.0,13.4,0.0,-0.0,13.4,-0.0,-0.0,13.4,-0.0
4.410168304,0.12374,13.600000000000001,0.296976,-0.82314,13.4,-1.975536,-0.30666,13.4,-0.735984,-0.056490000000000005,13.4,-0.135576,0.0,13.4,0.0,-0.0,13.4,-0.0,-0.0,13.4,-0.0
4.443303252,0.12374,13.600000000000001,0.296976,-0.807,13.600000000000001,-1.9368,-0.31742000000000004,13.4,-0.761808,-0.02959,13.4,-0.071016,0.0,13.4,0.0,-0.0,13.4,-0.0,-0.0,13.4,-0.0
4.476240321,0.12374,13.600000000000001,0.296976,-0.81238,13.600000000000001,-1.949712,-0.31742000000000004,13.4,-0.761808,-0.0538,13.4,-0.12911999999999998,0.0,13.4,0.0,-0.0,13.4,-0.0,-0.0,13.4,-0.0
4.510116171,0.12374,13.600000000000001,0.296976,-0.81776,13.5,-1.962624,-0.31473,13.4,-0.755352,-0.040350000000000004,13.4,-0.09684000000000001,0.0,13.4,0.0,-0.0,13.4,-0.0,-0.0,13.4,-0.0
4.543192778,0.12912,13.600000000000001,0.309888,-0.82314,13.600000000000001,-1.975536,-0.30666,13.4,-0.735984,-0.0538,13.4,-0.12911999999999998,0.0,13.4,0.0,-0.0,13.4,-0.0,-0.0,13.4,-0.0
4.576099747,0.12374,13.600000000000001,0.296976,-0.82314,13.5,-1.975536,-0.31204000000000004,13.4,-0.7488960000000001,-0.05111,13.4,-0.122664,0.0,13.4,0.0,-0.0,13.4,-0.0,-0.0,13.4,-0.0
4.61032388,0.12374,13.600000000000001,0.296976,-0.8150700000000001,13.600000000000001,-1.9561680000000001,-0.30128,13.4,-0.7230719999999999,-0.04573,13.4,-0.109752,0.0,13.4,0.0,-0.0,13.4,-0.0,-0.0,13.4,-0.0
4.64314782,0.12374,13.600000000000001,0.296976,-0.8150700000000001,13.5,-1.9561680000000001,-0.31742000000000004,13.4,-0.761808,-0.0538,13.4,-0.12911999999999998,0.0,13.4,0.0,-0.0,13.4,-0.0,-0.0,13.4,-0.0
4.676402679,0.12374,13.600000000000001,0.296976,-0.81776,13.600000000000001,-1.962624,-0.31742000000000004,13.4,-0.761808,-0.040350000000000004,13.4,-0.09684000000000001,0.0,13.4,0.0,-0.0,13.4,-0.0,-0.0,13.4,-0.0
4.710015839,0.12643000000000001,13.600000000000001,0.30343200000000004,-0.80969,13.600000000000001,-1.9432559999999999,-0.30666,13.4,-0.735984,-0.04573,13.4,-0.109752,0.0,13.4,0.0,-0.0,13.4,-0.0,-0.0,13.4,-0.0
4.743216964,0.12374,13.600000000000001,0.296976,-0.81238,13.600000000000001,-1.949712,-0.30666,13.4,-0.735984,-0.02959,13.4,-0.071016,0.0,13.4,0.0,-0.0,13.4,-0.0,-0.0,13.4,-0.0
4.776084024,0.12374,13.600000000000001,0.296976,-0.82852,13.5,-1.988448,-0.30128,13.4,-0.7230719999999999,-0.04304,13.4,-0.103296,0.0,13.4,0.0,-0.0,13.4,-0.0,-0.0,13.4,-0.0
4.810210916,0.12374,13.600000000000001,0.296976,-0.807,13.5,-1.9368,-0.30935,13.4,-0.74244,-0.040350000000000004,13.4,-0.09684000000000001,0.0,13.4,0.0,-0.0,13.4,-0.0,-0.0,13.4,-0.0
4.843039314,0.03228,13.700000000000001,0.077472,-0.31742000000000004,13.600000000000001,-0.761808,-0.17216,13.5,-0.413184,-0.03497,13.5,-0.083928,0.0,13.5,0.0,-0.0,13.5,-0.0,-0.0,13.5,-0.0
4.876078493,0.02152,13.700000000000001,0.051648,-0.33625,13.600000000000001,-0.8069999999999999,-0.26631,13.5,-0.6391439999999999,-0.04573,13.5,-0.109752,0.0,13.5,0.0,-0.0,13.5,-0.0,-0.0,13.5,-0.0
4.909945042,0.00807,13.700000000000001,0.019368,-0.36584,13.600000000000001,-0.878016,-0.36584,13.600000000000001,-0.878016,-0.08339,13.5,-0.200136,0.0,13.5,0.0,-0.0,13.5,-0.0,-0.0,13.5,-0.0
4.943191633,0.01345,13.700000000000001,0.032279999999999996,-0.41695000000000004,13.600000000000001,-1.00068,-0.33894,13.600000000000001,-0.8134560000000001,-0.1076,13.5,-0.25823999999999997,0.0,13.5,0.0,-0.0,13.5,-0.0,-0.0,13.5,-0.0
4.976065913,0.01614,13.700000000000001,0.038736,-0.47075,13.600000000000001,-1.1298,-0.4035,13.600000000000001,-0.9684,-0.10491,13.5,-0.251784,0.0,13.5,0.0,-0.0,13.5,-0.0,-0.0,13.5,-0.0
5.010081543,0.01345,13.700000000000001,0.032279999999999996,-0.48958,13.600000000000001,-1.174992,-0.46537,13.600000000000001,-1.1168879999999999,-0.10491,13.5,-0.251784,0.0,13.5,0.0,-0.0,13.5,-0.0,-0.0,13.5,-0.0
5.043061526,0.01076,13.700000000000001,0.025824,-0.44923,13.600000000000001,-1.078152,-0.5057200000000001,13.600000000000001,-1.2137280000000001,-0.12912,13.5,-0.309888,0.0,13.5,0.0,-0.0,13.5,-0.0,-0.0,13.5,-0.0
5.076038017,0.01076,13.700000000000001,0.025824,-0.30128,13.600000000000001,-0.7230719999999999,-0.51648,13.5,-1.239552,-0.10222,13.5,-0.245328,0.0,13.5,0.0,-0.0,13.5,-0.0,-0.0,13.5,-0.0
5.110059837,0.00538,13.700000000000001,0.012912,-0.30128,13.600000000000001,-0.7230719999999999,-0.5649000000000001,13.5,-1.35576,-0.1076,13.5,-0.25823999999999997,0.0,13.5,0.0,-0.0,13.5,-0.0,-0.0,13.5,-0.0
5.142676462,0.00538,13.700000000000001,0.012912,-0.30935,13.5,-0.74244,-0.61063,13.4,-1.465512,-0.11836,13.5,-0.284064,0.0,13.5,0.0,-0.0,13.5,-0.0,-0.0,13.5,-0.0
5.175876581,0.00807,13.700000000000001,0.019368,-0.36853,13.600000000000001,-0.884472,-0.6940200000000001,13.4,-1.6656480000000002,-0.11567000000000001,13.4,-0.277608,0.0,13.4,0.0,-0.0,13.5,-0.0,-0.0,13.4,-0.0
5.209972202,0.00807,13.700000000000001,0.019368,-0.39543,13.5,-0.949032,-0.7747200000000001,13.5,-1.859328,-0.12374,13.4,-0.296976,0.0,13.4,0.0,-0.0,13.4,-0.0,-0.0,13.4,-0.0
5.243048767,0.01076,13.700000000000001,0.025824,-0.42233000000000004,13.5,-1.013592,-0.75051,13.5,-1.801224,-0.12105,13.4,-0.29052,0.0,13.4,0.0,-0.0,13.4,-0.0,-0.0,13.4,-0.0
5.276031584,0.00807,13.600000000000001,0.019368,-0.44654,13.5,-1.071696,-0.72899,13.4,-1.749576,-0.13181,13.4,-0.316344,0.0,13.3,0.0,-0.0,13.4,-0.0,-0.0,13.4,-0.0
5.310039718,0.00807,13.600000000000001,0.019368,-0.41964,13.5,-1.007136,-0.6994,13.4,-1.67856,-0.14526,13.4,-0.348624,0.0,13.3,0.0,-0.0,13.4,-0.0,-0.0,13.4,-0.0
5.343076185,0.05111,13.600000000000001,0.122664,-0.42233000000000004,13.5,-1.013592,-0.65636,13.5,-1.575264,-0.1345,13.4,-0.32280000000000003,0.0,13.4,0.0,-0.0,13.4,-0.0,-0.0,13.4,-0.0
5.3758939,0.06456,13.600000000000001,0.154944,-0.4304,13.5,-1.0329599999999999,-0.64022,13.4,-1.536528,-0.12912,13.3,-0.309888,0.0,13.4,0.0,-0.0,13.4,-0.0,-0.0,13.4,-0.0
5.40992889,0.06725,13.600000000000001,0.16140000000000002,-0.44923,13.5,-1.078152,-0.61332,13.4,-1.471968,-0.1345,13.4,-0.32280000000000003,0.0,13.3,0.0,-0.0,13.4,-0.0,-0.0,13.4,-0.0
5.442856038,0.06725,13.600000000000001,0.16140000000000002,-0.4304,13.5,-1.0329599999999999,-0.6160100000000001,13.4,-1.4784240000000002,-0.13988,13.4,-0.335712,0.0,13.4,0.0,-0.0,13.4,-0.0,-0.0,13.4,-0.0
5.475909765,0.06725,13.600000000000001,0.16140000000000002,-0.45192000000000004,13.5,-1.084608,-0.6240800000000001,13.4,-1.4977920000000002,-0.14795,13.4,-0.35508,0.0,13.3,0.0,-0.0,13.4,-0.0,-0.0,13.3,-0.0
5.509757545,0.06725,13.600000000000001,0.16140000000000002,-0.45192000000000004,13.5,-1.084608,-0.64829,13.4,-1.555896,-0.12374,13.4,-0.296976,0.0,13.3,0.0,-0.0,13.3,-0.0,-0.0,13.3,-0.0
5.542774992,0.06725,13.600000000000001,0.16140000000000002,-0.46268000000000004,13.5,-1.110432,-0.66174,13.3,-1.588176,-0.16140000000000002,13.4,-0.38736000000000004,0.0,13.3,0.0,-0.0,13.4,-0.0,-0.0,13.4,-0.0
5.576150403,0.08877,13.600000000000001,0.213048,-0.47344,13.5,-1.136256,-0.6456000000000001,13.4,-1.5494400000000002,-0.1345,13.4,-0.32280000000000003,0.0,13.3,0.0,-0.0,13.3,-0.0,-0.0,13.3,-0.0
5.609937098,0.1076,13.600000000000001,0.25823999999999997,-0.5649000000000001,13.5,-1.35576,-0.68864,13.4,-1.652736,-0.12105,13.3,-0.29052,0.0,13.3,0.0,-0.0,13.4,-0.0,-0.0,13.3,-0.0
5.642977124,0.11567000000000001,13.600000000000001,0.277608,-0.5756600000000001,13.5,-1.3815840000000001,-0.68057,13.5,-1.633368,-0.13719,13.4,-0.329256,0.0,13.3,0.0,-0.0,13.4,-0.0,-0.0,13.3,-0.0
5.675830778,0.11567000000000001,13.600000000000001,0.277608,-0.55683,13.5,-1.336392,-0.6644300000000001,13.4,-1.594632,-0.13181,13.4,-0.316344,0.0,13.4,0.0,-0.0,13.4,-0.0,-0.0,13.3,-0.0
5.70977074,0.11567000000000001,13.600000000000001,0.277608,-0.5541400000000001,13.5,-1.3299360000000002,-0.70747,13.4,-1.697928,-0.10222,13.4,-0.245328,0.0,13.4,0.0,-0.0,13.4,-0.0,-0.0,13.4,-0.0
5.742773325,0.11567000000000001,13.600000000000001,0.277608,-0.5245500000000001,13.5,-1.25892,-0.73975,13.4,-1.7754,-0.1345,13.4,-0.32280000000000003,0.0,13.3,0.0,-0.0,13.4,-0.0,-0.0,13.4,-0.0
5.775944724,0.11567000000000001,13.600000000000001,0.277608,-0.54338,13.5,-1.304112,-0.73168,13.4,-1.756032,-0.1076,13.4,-0.25823999999999997,0.0,13.3,0.0,-0.0,13.4,-0.0,-0.0,13.4,-0.0
5.809787932,0.13719,13.600000000000001,0.329256,-0.54338,13.5,-1.304112,-0.75051,13.4,-1.801224,-0.08070000000000001,13.4,-0.19368000000000002,0.0,13.3,0.0,-0.0,13.4,-0.0,-0.0,13.4,-0.0
5.842938884,0.15333,13.600000000000001,0.367992,-0.4842,13.5,-1.16208,-0.7451300000000001,13.4,-1.7883120000000001,-0.12643000000000001,13.4,-0.30343200000000004,0.0,13.3,0.0,-0.0,13.3,-0.0,-0.0,13.4,-0.0
5.875912074,0.16409,13.600000000000001,0.393816,-0.58642,13.5,-1.407408,-0.6940200000000001,13.4,-1.6656480000000002,-0.08339,13.4,-0.200136,0.0,13.3,0.0,-0.0,13.3,-0.0,-0.0,13.4,-0.0
5.909745271,0.15602000000000002,13.600000000000001,0.37444800000000006,-0.58642,13.5,-1.407408,-0.66712,13.4,-1.601088,-0.11029,13.4,-0.264696,0.0,13.3,0.0,-0.0,13.4,-0.0,-0.0,13.4,-0.0
5.942627406,0.16140000000000002,13.600000000000001,0.38736000000000004,-0.54338,13.5,-1.304112,-0.70747,13.4,-1.697928,-0.09953000000000001,13.3,-0.238872,0.0,13.3,0.0,-0.0,13.4,-0.0,-0.0,13.4,-0.0
5.975799986,0.14795,13.600000000000001,0.35508,-0.68326,13.5,-1.639824,-0.68864,13.3,-1.652736,-0.08877,13.4,-0.213048,0.0,13.4,0.0,-0.0,13.4,-0.0,-0.0,13.4,-0.0
6.009673144,0.15333,13.600000000000001,0.367992,-0.64022,13.5,-1.536528,-0.71016,13.4,-1.704384,-0.06994,13.4,-0.167856,0.0,13.4,0.0,-0.0,13.4,-0.0,-0.0,13.4,-0.0
6.042712169,0.14795,13.600000000000001,0.35508,-0.58642,13.5,-1.407408,-0.7962400000000001,13.4,-1.910976,-0.08070000000000001,13.4,-0.19368000000000002,0.0,13.4,0.0,-0.0,13.4,-0.0,-0.0,13.4,-0.0
6.075705572,0.15064,13.600000000000001,0.36153599999999997,-0.62946,13.5,-1.510704,-0.79086,13.4,-1.898064,-0.06725,13.4,-0.16140000000000002,0.0,13.4,0.0,-0.0,13.4,-0.0,-0.0,13.4,-0.0
6.109737134,0.15064,13.600000000000001,0.36153599999999997,-0.63215,13.5,-1.5171599999999998,-0.72899,13.5,-1.749576,-0.07263,13.4,-0.174312,0.0,13.4,0.0,-0.0,13.4,-0.0,-0.0,13.4,-0.0
6.142672471,0.15602000000000002,13.600000000000001,0.37444800000000006,-0.6456000000000001,13.600000000000001,-1.5494400000000002,-0.7343700000000001,13.4,-1.762488,-0.07263,13.4,-0.174312,0.0,13.4,0.0,-0.0,13.4,-0.0,-0.0,13.4,-0.0
6.175581946,0.14257,13.600000000000001,0.34216799999999997,-0.59987,13.5,-1.439688,-0.79086,13.4,-1.898064,-0.0538,13.4,-0.12911999999999998,0.0,13.4,0.0,-0.0,13.4,-0.0,-0.0,13.4,-0.0
6.209602028,0.13719,13.600000000000001,0.329256,-0.64022,13.5,-1.536528,-0.76665,13.5,-1.83996,-0.06187,13.4,-0.148488,0.0,13.3,0.0,-0.0,13.4,-0.0,-0.0,13.4,-0.0
6.243959678,0.12374,13.600000000000001,0.296976,-0.59987,13.600000000000001,-1.439688,-0.8043100000000001,13.3,-1.930344,-0.08339,13.4,-0.200136,0.0,13.3,0.0,-0.0,13.4,-0.0,-0.0,13.4,-0.0
6.275538302,0.15602000000000002,13.600000000000001,0.37444800000000006,-0.65905,13.5,-1.58172,-0.807,13.4,-1.9368,-0.07801000000000001,13.4,-0.18722400000000003,0.0,13.3,0.0,-0.0,13.4,-0.0,-0.0,13.4,-0.0
6.309522638,0.15333,13.600000000000001,0.367992,-0.63753,13.5,-1.530072,-0.807,13.4,-1.9368,-0.06725,13.3,-0.16140000000000002,0.0,13.3,0.0,-0.0,13.4,-0.0,-0.0,13.4,-0.0
6.342690975,0.13988,13.600000000000001,0.335712,-0.65905,13.5,-1.58172,-0.807,13.4,-1.9368,-0.06187,13.3,-0.148488,0.0,13.3,0.0,-0.0,13.4,-0.0,-0.0,13.4,-0.0
6.375957152,0.13181,13.600000000000001,0.316344,-0.6644300000000001,13.5,-1.594632,-0.807,13.4,-1.9368,-0.06725,13.3,-0.16140000000000002,0.0,13.3,0.0,-0.0,13.4,-0.0,-0.0,13.4,-0.0
6.409572704,0.13181,13.600000000000001,0.316344,-0.65098,13.5,-1.562352,-0.807,13.3,-1.9368,-0.08070000000000001,13.3,-0.19368000000000002,0.0,13.3,0.0,-0.0,13.4,-0.0,-0.0,13.4,-0.0
6.442644454,0.13988,13.600000000000001,0.335712,-0.6725,13.5,-1.6139999999999999,-0.807,13.4,-1.9368,-0.07801000000000001,13.3,-0.18722400000000003,0.0,13.3,0.0,-0.0,13.4,-0.0,-0.0,13.4,-0.0
6.476531928,0.14526,13.600000000000001,0.348624,-0.65905,13.4,-1.58172,-0.807,13.3,-1.9368,-0.08608,13.4,-0.206592,0.0,13.3,0.0,-0.0,13.4,-0.0,-0.0,13.4,-0.0
6.50956397,0.14257,13.600000000000001,0.34216799999999997,-0.66981,13.5,-1.607544,-0.807,13.4,-1.9368,-0.08070000000000001,13.4,-0.19368000000000002,0.0,13.3,0.0,-0.0,13.4,-0.0,-0.0,13.4,-0.0
6.542766462,0.12643000000000001,13.600000000000001,0.30343200000000004,-0.6725,13.5,-1.6139999999999999,-0.807,13.4,-1.9368,-0.08070000000000001,13.4,-0.19368000000000002,0.0,13.3,0.0,-0.0,13.4,-0.0,-0.0,13.4,-0.0
6.576452902,0.12374,13.600000000000001,0.296976,-0.6725,13.5,-1.6139999999999999,-0.807,13.4,-1.9368,-0.08070000000000001,13.4,-0.19368000000000002,0.0,13.3,0.0,-0.0,13.4,-0.0,-0.0,13.4,-0.0
6.609553754,0.13988,13.600000000000001,0.335712,-0.6725,13.5,-1.6139999999999999,-0.807,13.4,-1.9368,-0.08070000000000001,13.4,-0.19368000000000002,0.0,13.3,0.0,-0.0,13.4,-0.0,-0.0,13.4,-0.0
6.642636792,0.14257,13.600000000000001,0.34216799999999997,-0.6725,13.5,-1.6139999999999999,-0.807,13.4,-1.9368,-0.08070000000000001,13.3,-0.19368000000000002,0.0,13.3,0.0,-0.0,13.4,-0.0,-0.0,13.4,-0.0
6.676527022,0.15064,13.600000000000001,0.36153599999999997,-0.6725,13.4,-1.6139999999999999,-0.807,13.3,-1.9368,-0.08070000000000001,13.4,-0.19368000000000002,0.0,13.3,0.0,-0.0,13.4,-0.0,-0.0,13.4,-0.0
6.709382818,0.13988,13.600000000000001,0.335712,-0.6725,13.5,-1.6139999999999999,-0.807,13.4,-1.9368,-0.08339,13.4,-0.200136,0.0,13.3,0.0,-0.0,13.4,-0.0,-0.0,13.4,-0.0
6.742472862,0.12643000000000001,13.600000000000001,0.30343200000000004,-0.6725,13.5,-1.6139999999999999,-0.807,13.4,-1.9368,-0.08339,13.4,-0.200136,0.0,13.3,0.0,-0.0,13.4,-0.0,-0.0,13.4,-0.0
6.776534138,0.1345,13.600000000000001,0.32280000000000003,-0.6725,13.5,-1.6139999999999999,-0.807,13.4,-1.9368,-0.08339,13.4,-0.200136,0.0,13.3,0.0,-0.0,13.4,-0.0,-0.0,13.4,-0.0
6.809462138,0.14257,13.600000000000001,0.34216799999999997,-0.66174,13.5,-1.588176,-0.807,13.4,-1.9368,-0.08339,13.4,-0.200136,0.0,13.3,0.0,-0.0,13.4,-0.0,-0.0,13.4,-0.0
6.84245764,0.13719,13.600000000000001,0.329256,-0.6725,13.4,-1.6139999999999999,-0.807,13.3,-1.9368,-0.08070000000000001,13.4,-0.19368000000000002,0.0,13.3,0.0,-0.0,13.4,-0.0,-0.0,13.4,-0.0
6.876561919,0.15333,13.600000000000001,0.367992,-0.65636,13.5,-1.575264,-0.807,13.4,-1.9368,-0.08070000000000001,13.4,-0.19368000000000002,0.0,13.3,0.0,-0.0,13.4,-0.0,-0.0,13.4,-0.0
6.90957905,0.14526,13.600000000000001,0.348624,-0.6751900000000001,13.5,-1.6204560000000001,-0.807,13.4,-1.9368,-0.08070000000000001,13.3,-0.19368000000000002,0.0,13.3,0.0,-0.0,13.4,-0.0,-0.0,13.4,-0.0
6.94253391,0.15871000000000002,13.600000000000001,0.380904,-0.66174,13.5,-1.588176,-0.807,13.4,-1.9368,-0.08070000000000001,13.3,-0.19368000000000002,0.00269,13.3,0.006456,-0.0,13.4,-0.0,-0.0,13.4,-0.0
6.976631801,0.13988,13.600000000000001,0.335712,-0.6725,13.5,-1.6139999999999999,-0.807,13.3,-1.9368,-0.08070000000000001,13.3,-0.19368000000000002,0.0,13.3,0.0,-0.0,13.4,-0.0,-0.0,13.4,-0.0
7.009348935,0.13181,13.600000000000001,0.316344,-0.6725,13.5,-1.6139999999999999,-0.807,13.4,-1.9368,-0.08608,13.4,-0.206592,0.0,13.3,0.0,-0.0,13.4,-0.0,-0.0,13.4,-0.0
7.042440786,0.14795,13.600000000000001,0.35508,-0.6725,13.5,-1.6139999999999999,-0.807,13.4,-1.9368,-0.08339,13.4,-0.200136,0.0,13.3,0.0,-0.0,13.4,-0.0,-0.0,13.4,-0.0
7.076742794,0.14257,13.600000000000001,0.34216799999999997,-0.6725,13.5,-1.6139999999999999,-0.807,13.4,-1.9368,-0.08070000000000001,13.4,-0.19368000000000002,0.0,13.3,0.0,-0.0,13.4,-0.0,-0.0,13.4,-0.0
7.109293942,0.13719,13.600000000000001,0.329256,-0.6751900000000001,13.5,-1.6204560000000001,-0.807,13.5,-1.9368,-0.08339,13.4,-0.200136,0.0,13.3,0.0,-0.0,13.4,-0.0,-0.0,13.4,-0.0
7.142386443,0.14257,13.600000000000001,0.34216799999999997,-0.66174,13.5,-1.588176,-0.807,13.4,-1.9368,-0.08070000000000001,13.3,-0.19368000000000002,0.0,13.3,0.0,-0.0,13.4,-0.0,-0.0,13.4,-0.0
7.176312532,0.14257,13.600000000000001,0.34216799999999997,-0.66174,13.5,-1.588176,-0.807,13.3,-1.9368,-0.08608,13.3,-0.206592,0.0,13.3,0.0,-0.0,13.4,-0.0,-0.0,13.4,-0.0
7.209282425,0.13719,13.600000000000001,0.329256,-0.66174,13.4,-1.588176,-0.807,13.4,-1.9368,-0.08070000000000001,13.3,-0.19368000000000002,0.0,13.3,0.0,-0.0,13.4,-0.0,-0.0,13.4,-0.0
7.242330853,0.13181,13.600000000000001,0.316344,-0.66174,13.4,-1.588176,-0.80969,13.4,-1.9432559999999999,-0.08339,13.4,-0.200136,0.0,13.3,0.0,-0.0,13.4,-0.0,-0.0,13.4,-0.0
7.276179442,0.13988,13.600000000000001,0.335712,-0.66174,13.5,-1.588176,-0.80969,13.4,-1.9432559999999999,-0.08339,13.4,-0.200136,0.0,13.3,0.0,-0.0,13.4,-0.0,-0.0,13.4,-0.0
7.309153716,0.12374,13.600000000000001,0.296976,-0.6725,13.5,-1.6139999999999999,-0.80969,13.4,-1.9432559999999999,-0.09146,13.3,-0.219504,0.0,13.3,0.0,-0.0,13.4,-0.0,-0.0,13.4,-0.0
7.342556793,0.15333,13.600000000000001,0.367992,-0.65636,13.5,-1.575264,-0.80969,13.3,-1.9432559999999999,-0.08070000000000001,13.4,-0.19368000000000002,0.0,13.3,0.0,-0.0,13.4,-0.0,-0.0,13.3,-0.0
7.376268804,0.1345,13.600000000000001,0.32280000000000003,-0.6725,13.5,-1.6139999999999999,-0.80969,13.4,-1.9432559999999999,-0.08070000000000001,13.4,-0.19368000000000002,0.0,13.3,0.0,-0.0,13.4,-0.0,-0.0,13.3,-0.0
7.409237821,0.14526,13.600000000000001,0.348624,-0.66174,13.4,-1.588176,-0.80969,13.3,-1.9432559999999999,-0.08070000000000001,13.4,-0.19368000000000002,0.0,13.3,0.0,-0.0,13.4,-0.0,-0.0,13.3,-0.0
7.442416953,0.14257,13.600000000000001,0.34216799999999997,-0.6725,13.5,-1.6139999999999999,-0.80969,13.4,-1.9432559999999999,-0.08070000000000001,13.4,-0.19368000000000002,0.0,13.3,0.0,-0.0,13.4,-0.0,-0.0,13.3,-0.0
7.476175285,0.13719,13.600000000000001,0.329256,-0.6725,13.4,-1.6139999999999999,-0.80969,13.4,-1.9432559999999999,-0.08070000000000001,13.4,-0.19368000000000002,0.0,13.3,0.0,-0.0,13.4,-0.0,-0.0,13.3,-0.0
7.509077372,0.15064,13.600000000000001,0.36153599999999997,-0.66174,13.5,-1.588176,-0.80969,13.4,-1.9432559999999999,-0.08070000000000001,13.4,-0.19368000000000002,0.0,13.3,0.0,-0.0,13.4,-0.0,-0.0,13.3,-0.0
7.542210894,0.13988,13.600000000000001,0.335712,-0.66174,13.5,-1.588176,-0.80969,13.5,-1.9432559999999999,-0.07801000000000001,13.3,-0.18722400000000003,0.0,13.3,0.0,-0.0,13.4,-0.0,-0.0,13.3,-0.0
7.576163296,0.13719,13.600000000000001,0.329256,-0.6751900000000001,13.5,-1.6204560000000001,-0.80969,13.4,-1.9432559999999999,-0.07801000000000001,13.4,-0.18722400000000003,0.0,13.3,0.0,-0.0,13.4,-0.0,-0.0,13.3,-0.0
7.609080869,0.15602000000000002,13.600000000000001,0.37444800000000006,-0.6725,13.5,-1.6139999999999999,-0.80969,13.4,-1.9432559999999999,-0.07801000000000001,13.4,-0.18722400000000003,0.0,13.3,0.0,-0.0,13.4,-0.0,-0.0,13.3,-0.0
7.642107286,0.14526,13.600000000000001,0.348624,-0.6725,13.5,-1.6139999999999999,-0.80969,13.4,-1.9432559999999999,-0.07801000000000001,13.4,-0.18722400000000003,0.0,13.3,0.0,-0.0,13.4,-0.0,-0.0,13.3,-0.0
7.676080962,0.13988,13.600000000000001,0.335712,-0.6725,13.5,-1.6139999999999999,-0.80969,13.4,-1.9432559999999999,-0.07801000000000001,13.4,-0.18722400000000003,0.0,13.3,0.0,-0.0,13.4,-0.0,-0.0,13.3,-0.0
7.709124206,0.14795,13.600000000000001,0.35508,-0.65636,13.5,-1.575264,-0.80969,13.4,-1.9432559999999999,-0.08070000000000001,13.4,-0.19368000000000002,0.0,13.3,0.0,-0.0,13.4,-0.0,-0.0,13.3,-0.0
7.74209551,0.13181,13.600000000000001,0.316344,-0.66981,13.5,-1.607544,-0.80969,13.4,-1.9432559999999999,-0.08070000000000001,13.4,-0.19368000000000002,0.0,13.3,0.0,-0.0,13.4,-0.0,-0.0,13.3,-0.0
7.775969008,0.13988,13.600000000000001,0.335712,-0.6725,13.5,-1.6139999999999999,-0.80969,13.4,-1.9432559999999999,-0.08339,13.4,-0.200136,0.0,13.3,0.0,-0.0,13.4,-0.0,-0.0,13.3,-0.0
7.809122676,0.13988,13.600000000000001,0.335712,-0.6725,13.5,-1.6139999999999999,-0.80969,13.4,-1.9432559999999999,-0.08070000000000001,13.4,-0.19368000000000002,0.0,13.3,0.0,-0.0,13.4,-0.0,-0.0,13.3,-0.0
7.8417312,0.12374,13.600000000000001,0.296976,-0.6725,13.5,-1.6139999999999999,-0.80969,13.4,-1.9432559999999999,-0.08070000000000001,13.3,-0.19368000000000002,0.0,13.3,0.0,-0.0,13.4,-0.0,-0.0,13.3,-0.0
7.87616634,0.1345,13.600000000000001,0.32280000000000003,-0.6725,13.5,-1.6139999999999999,-0.80969,13.4,-1.9432559999999999,-0.08070000000000001,13.4,-0.19368000000000002,0.0,13.3,0.0,-0.0,13.4,-0.0,-0.0,13.3,-0.0
7.909128808,0.13719,13.600000000000001,0.329256,-0.6751900000000001,13.4,-1.6204560000000001,-0.80969,13.3,-1.9432559999999999,-0.08070000000000001,13.3,-0.19368000000000002,0.0,13.3,0.0,-0.0,13.4,-0.0,-0.0,13.3,-0.0
7.942666033,0.15064,13.600000000000001,0.36153599999999997,-0.6725,13.5,-1.6139999999999999,-0.80969,13.4,-1.9432559999999999,-0.08339,13.4,-0.200136,0.0,13.3,0.0,-0.0,13.4,-0.0,-0.0,13.3,-0.0
7.976154217,0.1345,13.600000000000001,0.32280000000000003,-0.6725,13.5,-1.6139999999999999,-0.80969,13.3,-1.9432559999999999,-0.08339,13.4,-0.200136,0.0,13.3,0.0,-0.0,13.4,-0.0,-0.0,13.3,-0.0
8.009119557,0.15871000000000002,13.600000000000001,0.380904,-0.66712,13.5,-1.601088,-0.80969,13.4,-1.9432559999999999,-0.08070000000000001,13.4,-0.19368000000000002,0.0,13.3,0.0,-0.0,13.4,-0.0,-0.0,13.3,-0.0
8.042357342,0.12374,13.600000000000001,0.296976,-0.66712,13.4,-1.601088,-0.80969,13.3,-1.9432559999999999,-0.08070000000000001,13.4,-0.19368000000000002,0.0,13.3,0.0,-0.0,13.4,-0.0,-0.0,13.3,-0.0
8.076095261,0.13988,13.600000000000001,0.335712,-0.65905,13.5,-1.58172,-0.80969,13.4,-1.9432559999999999,-0.08339,13.4,-0.200136,0.0,13.3,0.0,-0.0,13.4,-0.0,-0.0,13.3,-0.0
8.109083275,0.15871000000000002,13.600000000000001,0.380904,-0.6751900000000001,13.5,-1.6204560000000001,-0.80969,13.4,-1.9432559999999999,-0.08070000000000001,13.3,-0.19368000000000002,0.0,13.3,0.0,-0.0,13.4,-0.0,-0.0,13.3,-0.0
8.142193107,0.13719,13.600000000000001,0.329256,-0.66712,13.4,-1.601088,-0.80969,13.4,-1.9432559999999999,-0.08339,13.4,-0.200136,0.0,13.3,0.0,-0.0,13.4,-0.0,-0.0,13.3,-0.0
8.175944592,0.13988,13.600000000000001,0.335712,-0.6751900000000001,13.5,-1.6204560000000001,-0.80969,13.4,-1.9432559999999999,-0.08339,13.4,-0.200136,0.0,13.3,0.0,-0.0,13.4,-0.0,-0.0,13.3,-0.0
8.208904437,0.1345,13.600000000000001,0.32280000000000003,-0.6725,13.5,-1.6139999999999999,-0.80969,13.4,-1.9432559999999999,-0.08070000000000001,13.4,-0.19368000000000002,0.0,13.3,0.0,-0.0,13.4,-0.0,-0.0,13.3,-0.0
8.242037608,0.12374,13.600000000000001,0.296976,-0.6751900000000001,13.5,-1.6204560000000001,-0.80969,13.4,-1.9432559999999999,-0.08070000000000001,13.3,-0.19368000000000002,0.0,13.3,0.0,-0.0,13.4,-0.0,-0.0,13.3,-0.0
8.276079606,0.14257,13.600000000000001,0.34216799999999997,-0.6751900000000001,13.5,-1.6204560000000001,-0.80969,13.4,-1.9432559999999999,-0.08070000000000001,13.4,-0.19368000000000002,0.0,13.3,0.0,-0.0,13.4,-0.0,-0.0,13.3,-0.0
8.309190996,0.13719,13.600000000000001,0.329256,-0.66174,13.5,-1.588176,-0.80969,13.4,-1.9432559999999999,-0.08339,13.4,-0.200136,0.0,13.3,0.0,-0.0,13.4,-0.0,-0.0,13.3,-0.0
8.342090376,0.13719,13.600000000000001,0.329256,-0.6751900000000001,13.5,-1.6204560000000001,-0.80969,13.5,-1.9432559999999999,-0.08339,13.4,-0.200136,0.0,13.3,0.0,-0.0,13.4,-0.0,-0.0,13.3,-0.0
8.375935205,0.12912,13.600000000000001,0.309888,-0.6751900000000001,13.5,-1.6204560000000001,-0.80969,13.4,-1.9432559999999999,-0.08070000000000001,13.4,-0.19368000000000002,0.0,13.3,0.0,-0.0,13.4,-0.0,-0.0,13.3,-0.0
8.408928339,0.14795,13.600000000000001,0.35508,-0.6751900000000001,13.4,-1.6204560000000001,-0.80969,13.3,-1.9432559999999999,-0.08070000000000001,13.4,-0.19368000000000002,0.0,13.3,0.0,-0.0,13.4,-0.0,-0.0,13.3,-0.0
8.442995219,0.13988,13.600000000000001,0.335712,-0.6725,13.5,-1.6139999999999999,-0.80969,13.4,-1.9432559999999999,-0.08070000000000001,13.4,-0.19368000000000002,0.0,13.3,0.0,-0.0,13.4,-0.0,0.00269,13.3,0.006456
8.47580115,0.14257,13.600000000000001,0.34216799999999997,-0.66174,13.5,-1.588176,-0.80969,13.4,-1.9432559999999999,-0.08070000000000001,13.4,-0.19368000000000002,0.0,13.3,0.0,-0.0,13.4,-0.0,-0.0,13.3,-0.0
8.508954436,0.13719,13.600000000000001,0.329256,-0.6644300000000001,13.5,-1.594632,-0.80969,13.4,-1.9432559999999999,-0.08070000000000001,13.4,-0.19368000000000002,0.0,13.3,0.0,-0.0,13.4,-0.0,-0.0,13.3,-0.0
8.542187836,0.13719,13.600000000000001,0.329256,-0.6751900000000001,13.5,-1.6204560000000001,-0.80969,13.3,-1.9432559999999999,-0.07532,13.4,-0.18076799999999998,0.0,13.3,0.0,-0.0,13.4,-0.0,-0.0,13.3,-0.0
8.576033338,0.14526,13.600000000000001,0.348624,-0.6751900000000001,13.5,-1.6204560000000001,-0.80969,13.4,-1.9432559999999999,-0.07532,13.4,-0.18076799999999998,0.0,13.3,0.0,-0.0,13.4,-0.0,-0.0,13.3,-0.0
8.609175021,0.13988,13.600000000000001,0.335712,-0.6725,13.5,-1.6139999999999999,-0.80969,13.4,-1.9432559999999999,-0.08070000000000001,13.4,-0.19368000000000002,0.0,13.3,0.0,-0.0,13.4,-0.0,-0.0,13.3,-0.0
8.643044173,0.14795,13.600000000000001,0.35508,-0.6725,13.5,-1.6139999999999999,-0.80969,13.4,-1.9432559999999999,-0.08070000000000001,13.3,-0.19368000000000002,0.0,13.3,0.0,-0.0,13.4,-0.0,-0.0,13.3,-0.0
8.67590061,0.13181,13.600000000000001,0.316344,-0.6751900000000001,13.5,-1.6204560000000001,-0.80969,13.5,-1.9432559999999999,-0.08339,13.4,-0.200136,0.0,13.3,0.0,-0.0,13.3,-0.0,-0.0,13.3,-0.0
8.709189862,0.13988,13.600000000000001,0.335712,-0.6725,13.4,-1.6139999999999999,-0.80969,13.4,-1.9432559999999999,-0.07801000000000001,13.4,-0.18722400000000003,0.0,13.3,0.0,-0.0,13.3,-0.0,-0.0,13.3,-0.0
8.742182601,0.15064,13.600000000000001,0.36153599999999997,-0.66174,13.5,-1.588176,-0.80969,13.4,-1.9432559999999999,-0.07801000000000001,13.3,-0.18722400000000003,0.0,13.3,0.0,-0.0,13.3,-0.0,-0.0,13.3,-0.0
8.776239635,0.15602000000000002,13.600000000000001,0.37444800000000006,-0.6751900000000001,13.5,-1.6204560000000001,-0.80969,13.5,-1.9432559999999999,-0.08877,13.4,-0.213048,0.0,13.3,0.0,-0.0,13.3,-0.0,-0.0,13.3,-0.0
8.808891564,0.12374,13.600000000000001,0.296976,-0.6751900000000001,13.600000000000001,-1.6204560000000001,-0.80969,13.4,-1.9432559999999999,-0.08070000000000001,13.4,-0.19368000000000002,0.0,13.3,0.0,-0.0,13.3,-0.0,0.00269,13.3,0.006456
8.841941041,0.15064,13.600000000000001,0.36153599999999997,-0.66174,13.5,-1.588176,-0.80969,13.4,-1.9432559999999999,-0.08070000000000001,13.4,-0.19368000000000002,0.0,13.3,0.0,-0.0,13.3,-0.0,-0.0,13.3,-0.0
8.875849809,0.14795,13.600000000000001,0.35508,-0.6751900000000001,13.5,-1.6204560000000001,-0.80969,13.4,-1.9432559999999999,-0.08070000000000001,13.4,-0.19368000000000002,0.0,13.3,0.0,-0.0,13.3,-0.0,-0.0,13.3,-0.0
8.909044268,0.14526,13.600000000000001,0.348624,-0.6725,13.5,-1.6139999999999999,-0.80969,13.3,-1.9432559999999999,-0.08070000000000001,13.4,-0.19368000000000002,0.0,13.3,0.0,-0.0,13.3,-0.0,-0.0,13.3,-0.0
8.941945618,0.14257,13.600000000000001,0.34216799999999997,-0.66712,13.5,-1.601088,-0.80969,13.4,-1.9432559999999999,-0.08070000000000001,13.4,-0.19368000000000002,0.0,13.3,0.0,-0.0,13.3,-0.0,-0.0,13.3,-0.0
8.97587338,0.13988,13.600000000000001,0.335712,-0.6751900000000001,13.5,-1.6204560000000001,-0.80969,13.5,-1.9432559999999999,-0.08070000000000001,13.4,-0.19368000000000002,0.0,13.3,0.0,-0.0,13.3,-0.0,-0.0,13.3,-0.0
9.008867702,0.12912,13.600000000000001,0.309888,-0.65905,13.5,-1.58172,-0.80969,13.4,-1.9432559999999999,-0.08070000000000001,13.4,-0.19368000000000002,0.0,13.3,0.0,-0.0,13.3,-0.0,-0.0,13.3,-0.0
9.042706424,0.13719,13.600000000000001,0.329256,-0.6725,13.4,-1.6139999999999999,-0.80969,13.4,-1.9432559999999999,-0.08608,13.4,-0.206592,0.0,13.3,0.0,-0.0,13.3,-0.0,-0.0,13.3,-0.0
9.075845459,0.15064,13.600000000000001,0.36153599999999997,-0.6751900000000001,13.5,-1.6204560000000001,-0.80969,13.4,-1.9432559999999999,-0.08070000000000001,13.3,-0.19368000000000002,0.0,13.3,0.0,-0.0,13.3,-0.0,-0.0,13.3,-0.0
9.108919181,0.13988,13.600000000000001,0.335712,-0.6644300000000001,13.600000000000001,-1.594632,-0.80969,13.4,-1.9432559999999999,-0.08070000000000001,13.3,-0.19368000000000002,0.0,13.3,0.0,-0.0,13.3,-0.0,-0.0,13.3,-0.0
9.142683555,0.15333,13.600000000000001,0.367992,-0.6751900000000001,13.5,-1.6204560000000001,-0.80969,13.4,-1.9432559999999999,-0.08070000000000001,13.3,-0.19368000000000002,0.0,13.3,0.0,-0.0,13.3,-0.0,-0.0,13.3,-0.0
9.17569371,0.13181,13.600000000000001,0.316344,-0.6751900000000001,13.5,-1.6204560000000001,-0.80969,13.4,-1.9432559999999999,-0.08070000000000001,13.4,-0.19368000000000002,0.0,13.3,0.0,-0.0,13.3,-0.0,-0.0,13.3,-0.0
9.208746295,0.14526,13.600000000000001,0.348624,-0.6751900000000001,13.5,-1.6204560000000001,-0.80969,13.4,-1.9432559999999999,-0.08070000000000001,13.4,-0.19368000000000002,0.0,13.3,0.0,-0.0,13.3,-0.0,-0.0,13.3,-0.0
9.243038022,0.14257,13.600000000000001,0.34216799999999997,-0.6725,13.5,-1.6139999999999999,-0.80969,13.4,-1.9432559999999999,-0.08070000000000001,13.4,-0.19368000000000002,0.0,13.3,0.0,-0.0,13.3,-0.0,-0.0,13.3,-0.0
9.275866542,0.14795,13.600000000000001,0.35508,-0.6725,13.5,-1.6139999999999999,-0.80969,13.4,-1.9432559999999999,-0.08070000000000001,13.4,-0.19368000000000002,0.0,13.3,0.0,-0.0,13.3,-0.0,-0.0,13.3,-0.0
9.308628085,0.15064,13.600000000000001,0.36153599999999997,-0.6725,13.5,-1.6139999999999999,-0.80969,13.4,-1.9432559999999999,-0.09146,13.3,-0.219504,0.0,13.3,0.0,-0.0,13.3,-0.0,-0.0,13.3,-0.0
9.342746177,0.1345,13.600000000000001,0.32280000000000003,-0.6751900000000001,13.5,-1.6204560000000001,-0.80969,13.4,-1.9432559999999999,-0.08070000000000001,13.4,-0.19368000000000002,0.0,13.3,0.0,-0.0,13.3,-0.0,-0.0,13.3,-0.0
9.375665786,0.14795,13.600000000000001,0.35508,-0.6751900000000001,13.5,-1.6204560000000001,-0.80969,13.4,-1.9432559999999999,-0.08070000000000001,13.4,-0.19368000000000002,0.0,13.3,0.0,-0.0,13.3,-0.0,-0.0,13.3,-0.0
9.40866518,0.13988,13.600000000000001,0.335712,-0.6751900000000001,13.5,-1.6204560000000001,-0.80969,13.4,-1.9432559999999999,-0.08070000000000001,13.4,-0.19368000000000002,0.0,13.3,0.0,-0.0,13.3,-0.0,-0.0,13.3,-0.0
9.442708622,0.1345,13.600000000000001,0.32280000000000003,-0.66981,13.5,-1.607544,-0.80969,13.4,-1.9432559999999999,-0.08070000000000001,13.3,-0.19368000000000002,0.0,13.3,0.0,-0.0,13.3,-0.0,-0.0,13.3,-0.0
9.475517589,0.12912,13.600000000000001,0.309888,-0.6751900000000001,13.5,-1.6204560000000001,-0.80969,13.4,-1.9432559999999999,-0.08877,13.4,-0.213048,0.0,13.3,0.0,-0.0,13.3,-0.0,-0.0,13.3,-0.0
9.508340401,0.13719,13.600000000000001,0.329256,-0.6725,13.5,-1.6139999999999999,-0.80969,13.4,-1.9432559999999999,-0.08070000000000001,13.4,-0.19368000000000002,0.0,13.3,0.0,-0.0,13.3,-0.0,-0.0,13.3,-0.0
9.542600097,0.12912,13.600000000000001,0.309888,-0.6725,13.4,-1.6139999999999999,-0.80969,13.3,-1.9432559999999999,-0.08070000000000001,13.4,-0.19368000000000002,0.0,13.3,0.0,-0.0,13.3,-0.0,-0.0,13.3,-0.0
9.575349374,0.15333,13.600000000000001,0.367992,-0.6751900000000001,13.5,-1.6204560000000001,-0.80969,13.4,-1.9432559999999999,-0.08339,13.3,-0.200136,0.0,13.3,0.0,-0.0,13.3,-0.0,-0.0,13.3,-0.0
9.6085373,0.14257,13.600000000000001,0.34216799999999997,-0.6751900000000001,13.5,-1.6204560000000001,-0.80969,13.4,-1.9432559999999999,-0.08070000000000001,13.4,-0.19368000000000002,0.0,13.3,0.0,-0.0,13.3,-0.0,-0.0,13.3,-0.0
9.64273593,0.1345,13.600000000000001,0.32280000000000003,-0.6725,13.5,-1.6139999999999999,-0.80969,13.4,-1.9432559999999999,-0.08070000000000001,13.4,-0.19368000000000002,0.0,13.3,0.0,-0.0,13.3,-0.0,-0.0,13.3,-0.0
9.675570296,0.13719,13.600000000000001,0.329256,-0.6644300000000001,13.5,-1.594632,-0.80969,13.4,-1.9432559999999999,-0.08339,13.4,-0.200136,0.0,13.3,0.0,-0.0,13.3,-0.0,-0.0,13.3,-0.0
9.708580962,0.13181,13.600000000000001,0.316344,-0.6644300000000001,13.4,-1.594632,-0.80969,13.4,-1.9432559999999999,-0.08070000000000001,13.4,-0.19368000000000002,0.0,13.3,0.0,-0.0,13.3,-0.0,-0.0,13.3,-0.0
9.742934299,0.13988,13.600000000000001,0.335712,-0.66174,13.5,-1.588176,-0.80969,13.4,-1.9432559999999999,-0.08070000000000001,13.4,-0.19368000000000002,0.0,13.3,0.0,-0.0,13.3,-0.0,-0.0,13.3,-0.0
9.775752498,0.15602000000000002,13.600000000000001,0.37444800000000006,-0.6725,13.5,-1.6139999999999999,-0.80969,13.4,-1.9432559999999999,-0.08070000000000001,13.4,-0.19368000000000002,0.0,13.3,0.0,-0.0,13.3,-0.0,-0.0,13.3,-0.0
9.808603355,0.13181,13.600000000000001,0.316344,-0.6725,13.5,-1.6139999999999999,-0.80969,13.4,-1.9432559999999999,-0.08070000000000001,13.4,-0.19368000000000002,0.0,13.3,0.0,-0.0,13.3,-0.0,-0.0,13.3,-0.0
9.842509649,0.1345,13.600000000000001,0.32280000000000003,-0.6751900000000001,13.5,-1.6204560000000001,-0.80969,13.4,-1.9432559999999999,-0.08339,13.4,-0.200136,0.0,13.3,0.0,-0.0,13.3,-0.0,-0.0,13.3,-0.0
9.875437226,0.14526,13.600000000000001,0.348624,-0.6751900000000001,13.5,-1.6204560000000001,-0.80969,13.4,-1.9432559999999999,-0.08070000000000001,13.4,-0.19368000000000002,0.0,13.3,0.0,-0.0,13.3,-0.0,-0.0,13.3,-0.0
9.908284141,0.14526,13.600000000000001,0.348624,-0.66981,13.5,-1.607544,-0.80969,13.4,-1.9432559999999999,-0.08070000000000001,13.4,-0.19368000000000002,0.0,13.3,0.0,-0.0,13.3,-0.0,-0.0,13.3,-0.0
9.942273702,0.12643000000000001,13.600000000000001,0.30343200000000004,-0.6751900000000001,13.5,-1.6204560000000001,-0.80969,13.4,-1.9432559999999999,-0.08339,13.4,-0.200136,0.0,13.3,0.0,-0.0,13.3,-0.0,-0.0,13.3,-0.0
9.975573792,0.14795,13.600000000000001,0.35508,-0.6751900000000001,13.5,-1.6204560000000001,-0.80969,13.4,-1.9432559999999999,-0.08070000000000001,13.3,-0.19368000000000002,0.0,13.3,0.0,-0.0,13.3,-0.0,-0.0,13.3,-0.0
10.008513136,0.13181,13.600000000000001,0.316344,-0.6644300000000001,13.5,-1.594632,-0.80969,13.4,-1.9432559999999999,-0.08070000000000001,13.4,-0.19368000000000002,0.0,13.3,0.0,-0.0,13.3,-0.0,-0.0,13.3,-0.0
10.042468707,0.13719,13.600000000000001,0.329256,-0.6751900000000001,13.4,-1.6204560000000001,-0.80969,13.3,-1.9432559999999999,-0.08070000000000001,13.4,-0.19368000000000002,0.0,13.3,0.0,-0.0,13.3,-0.0,-0.0,13.3,-0.0
10.075252829,0.14257,13.600000000000001,0.34216799999999997,-0.6751900000000001,13.5,-1.6204560000000001,-0.80969,13.4,-1.9432559999999999,-0.08877,13.4,-0.213048,0.0,13.3,0.0,-0.0,13.3,-0.0,-0.0,13.3,-0.0
10.108519639,0.13988,13.600000000000001,0.335712,-0.6751900000000001,13.5,-1.6204560000000001,-0.80969,13.4,-1.9432559999999999,-0.08070000000000001,13.4,-0.19368000000000002,0.0,13.3,0.0,-0.0,13.3,-0.0,-0.0,13.3,-0.0
10.142436694,0.13181,13.600000000000001,0.316344,-0.66174,13.5,-1.588176,-0.80969,13.4,-1.9432559999999999,-0.08070000000000001,13.4,-0.19368000000000002,0.0,13.3,0.0,-0.0,13.3,-0.0,-0.0,13.3,-0.0
10.175580007,0.15602000000000002,13.600000000000001,0.37444800000000006,-0.6751900000000001,13.5,-1.6204560000000001,-0.80969,13.4,-1.9432559999999999,-0.08070000000000001,13.4,-0.19368000000000002,0.0,13.3,0.0,-0.0,13.3,-0.0,-0.0,13.3,-0.0
10.208437247,0.14795,13.600000000000001,0.35508,-0.6751900000000001,13.5,-1.6204560000000001,-0.80969,13.4,-1.9432559999999999,-0.08070000000000001,13.4,-0.19368000000000002,0.0,13.3,0.0,-0.0,13.3,-0.0,-0.0,13.3,-0.0
10.242680589,0.14795,13.600000000000001,0.35508,-0.6751900000000001,13.5,-1.6204560000000001,-0.80969,13.4,-1.9432559999999999,-0.08070000000000001,13.4,-0.19368000000000002,0.0,13.3,0.0,-0.0,13.3,-0.0,-0.0,13.3,-0.0
10.275518064,0.13181,13.600000000000001,0.316344,-0.66981,13.5,-1.607544,-0.80969,13.4,-1.9432559999999999,-0.08070000000000001,13.4,-0.19368000000000002,0.0,13.3,0.0,-0.0,13.3,-0.0,-0.0,13.3,-0.0
10.308310775,0.12912,13.600000000000001,0.309888,-0.6751900000000001,13.5,-1.6204560000000001,-0.80969,13.4,-1.9432559999999999,-0.08070000000000001,13.4,-0.19368000000000002,0.0,13.3,0.0,-0.0,13.3,-0.0,-0.0,13.3,-0.0
10.342396612,0.12374,13.600000000000001,0.296976,-0.6751900000000001,13.5,-1.6204560000000001,-0.80969,13.4,-1.9432559999999999,-0.08070000000000001,13.4,-0.19368000000000002,0.0,13.3,0.0,-0.0,13.3,-0.0,-0.0,13.3,-0.0
10.375485409,0.12912,13.600000000000001,0.309888,-0.6751900000000001,13.5,-1.6204560000000001,-0.80969,13.4,-1.9432559999999999,-0.08070000000000001,13.4,-0.19368000000000002,0.0,13.3,0.0,-0.0,13.3,-0.0,-0.0,13.3,-0.0
10.408518331,0.15333,13.600000000000001,0.367992,-0.6725,13.4,-1.6139999999999999,-0.80969,13.4,-1.9432559999999999,-0.08339,13.4,-0.200136,0.0,13.3,0.0,-0.0,13.3,-0.0,-0.0,13.3,-0.0
10.442624264,0.12912,13.600000000000001,0.309888,-0.6751900000000001,13.5,-1.6204560000000001,-0.80969,13.4,-1.9432559999999999,-0.08070000000000001,13.4,-0.19368000000000002,0.0,13.3,0.0,-0.0,13.3,-0.0,-0.0,13.3,-0.0
10.475487342,0.1345,13.600000000000001,0.32280000000000003,-0.6644300000000001,13.5,-1.594632,-0.80969,13.3,-1.9432559999999999,-0.08070000000000001,13.4,-0.19368000000000002,0.0,13.3,0.0,-0.0,13.3,-0.0,-0.0,13.3,-0.0
10.508481106,0.13988,13.600000000000001,0.335712,-0.6751900000000001,13.4,-1.6204560000000001,-0.80969,13.4,-1.9432559999999999,-0.08070000000000001,13.4,-0.19368000000000002,0.0,13.3,0.0,-0.0,13.3,-0.0,-0.0,13.3,-0.0
10.542477544,0.13181,13.600000000000001,0.316344,-0.66174,13.5,-1.588176,-0.80969,13.3,-1.9432559999999999,-0.08070000000000001,13.4,-0.19368000000000002,0.0,13.3,0.0,-0.0,13.3,-0.0,-0.0,13.3,-0.0
10.575427232,0.15871000000000002,13.600000000000001,0.380904,-0.6751900000000001,13.5,-1.6204560000000001,-0.80969,13.4,-1.9432559999999999,-0.08070000000000001,13.4,-0.19368000000000002,0.0,13.3,0.0,-0.0,13.3,-0.0,-0.0,13.3,-0.0
10.608671726,0.12643000000000001,13.600000000000001,0.30343200000000004,-0.6725,13.5,-1.6139999999999999,-0.80969,13.4,-1.9432559999999999,-0.08070000000000001,13.4,-0.19368000000000002,0.0,13.3,0.0,-0.0,13.3,-0.0,-0.0,13.3,-0.0
10.642381568,0.14257,13.600000000000001,0.34216799999999997,-0.6751900000000001,13.5,-1.6204560000000001,-0.80969,13.4,-1.9432559999999999,-0.08070000000000001,13.4,-0.19368000000000002,0.0,13.3,0.0,-0.0,13.3,-0.0,-0.0,13.3,-0.0
10.675499442,0.14795,13.600000000000001,0.35508,-0.6751900000000001,13.5,-1.6204560000000001,-0.80969,13.4,-1.9432559999999999,-0.08070000000000001,13.4,-0.19368000000000002,0.0,13.3,0.0,-0.0,13.3,-0.0,-0.0,13.3,-0.0
10.708319055,0.15064,13.600000000000001,0.36153599999999997,-0.6751900000000001,13.5,-1.6204560000000001,-0.80969,13.4,-1.9432559999999999,-0.08070000000000001,13.3,-0.19368000000000002,0.0,13.3,0.0,-0.0,13.3,-0.0,-0.0,13.3,-0.0
10.742199166,0.12912,13.600000000000001,0.309888,-0.6751900000000001,13.5,-1.6204560000000001,-0.80969,13.4,-1.9432559999999999,-0.08070000000000001,13.4,-0.19368000000000002,0.0,13.3,0.0,-0.0,13.3,-0.0,-0.0,13.3,-0.0
10.775215433,0.15064,13.600000000000001,0.36153599999999997,-0.66981,13.4,-1.607544,-0.80969,13.5,-1.9432559999999999,-0.08339,13.4,-0.200136,0.0,13.3,0.0,-0.0,13.3,-0.0,-0.0,13.3,-0.0
10.808128877,0.14257,13.600000000000001,0.34216799999999997,-0.6751900000000001,13.5,-1.6204560000000001,-0.80969,13.5,-1.9432559999999999,-0.08070000000000001,13.4,-0.19368000000000002,0.0,13.3,0.0,-0.0,13.3,-0.0,-0.0,13.3,-0.0
10.842278469,0.13719,13.600000000000001,0.329256,-0.6751900000000001,13.5,-1.6204560000000001,-0.80969,13.5,-1.9432559999999999,-0.08070000000000001,13.3,-0.19368000000000002,0.0,13.3,0.0,-0.0,13.3,-0.0,-0.0,13.3,-0.0
10.875356248,0.14257,13.600000000000001,0.34216799999999997,-0.6456000000000001,13.5,-1.5494400000000002,-0.80969,13.4,-1.9432559999999999,-0.08070000000000001,13.4,-0.19368000000000002,0.0,13.3,0.0,-0.0,13.3,-0.0,-0.0,13.3,-0.0
10.908402869,0.1345,13.600000000000001,0.32280000000000003,-0.6751900000000001,13.4,-1.6204560000000001,-0.80969,13.4,-1.9432559999999999,-0.08070000000000001,13.4,-0.19368000000000002,0.0,13.3,0.0,-0.0,13.3,-0.0,-0.0,13.3,-0.0
10.942406734,0.12643000000000001,13.600000000000001,0.30343200000000004,-0.6751900000000001,13.5,-1.6204560000000001,-0.80969,13.4,-1.9432559999999999,-0.08339,13.4,-0.200136,0.0,13.3,0.0,-0.0,13.3,-0.0,-0.0,13.3,-0.0
10.975273197,0.13988,13.600000000000001,0.335712,-0.66712,13.5,-1.601088,-0.80969,13.4,-1.9432559999999999,-0.08070000000000001,13.4,-0.19368000000000002,0.0,13.3,0.0,-0.0,13.3,-0.0,-0.0,13.3,-0.0
11.008347817,0.12912,13.600000000000001,0.309888,-0.6751900000000001,13.5,-1.6204560000000001,-0.80969,13.5,-1.9432559999999999,-0.08070000000000001,13.4,-0.19368000000000002,0.0,13.3,0.0,-0.0,13.3,-0.0,-0.0,13.3,-0.0
11.042498573,0.12912,13.600000000000001,0.309888,-0.6751900000000001,13.5,-1.6204560000000001,-0.80969,13.4,-1.9432559999999999,-0.08070000000000001,13.4,-0.19368000000000002,0.0,13.3,0.0,-0.0,13.3,-0.0,-0.0,13.3,-0.0
11.075269796,0.13719,13.600000000000001,0.329256,-0.6751900000000001,13.5,-1.6204560000000001,-0.80969,13.4,-1.9432559999999999,-0.08070000000000001,13.4,-0.19368000000000002,0.0,13.3,0.0,-0.0,13.3,-0.0,-0.0,13.3,-0.0
11.109584184,0.14526,13.600000000000001,0.348624,-0.6751900000000001,13.600000000000001,-1.6204560000000001,-0.80969,13.5,-1.9432559999999999,-0.08070000000000001,13.4,-0.19368000000000002,0.0,13.3,0.0,-0.0,13.3,-0.0,-0.0,13.3,-0.0
11.142311022,0.13719,13.600000000000001,0.329256,-0.6751900000000001,13.5,-1.6204560000000001,-0.80969,13.4,-1.9432559999999999,-0.08070000000000001,13.4,-0.19368000000000002,0.0,13.3,0.0,-0.0,13.3,-0.0,-0.0,13.3,-0.0
11.175262644,0.14257,13.600000000000001,0.34216799999999997,-0.6751900000000001,13.5,-1.6204560000000001,-0.80969,13.4,-1.9432559999999999,-0.08339,13.3,-0.200136,0.0,13.3,0.0,-0.0,13.3,-0.0,-0.0,13.3,-0.0
11.208879908,0.15064,13.600000000000001,0.36153599999999997,-0.6725,13.5,-1.6139999999999999,-0.80969,13.4,-1.9432559999999999,-0.08339,13.4,-0.200136,0.0,13.3,0.0,-0.0,13.3,-0.0,-0.0,13.3,-0.0
11.242141417,0.13181,13.600000000000001,0.316344,-0.6751900000000001,13.5,-1.6204560000000001,-0.80969,13.4,-1.9432559999999999,-0.08070000000000001,13.4,-0.19368000000000002,0.0,13.3,0.0,-0.0,13.3,-0.0,-0.0,13.3,-0.0
11.275340857,0.14526,13.600000000000001,0.348624,-0.6751900000000001,13.5,-1.6204560000000001,-0.80969,13.3,-1.9432559999999999,-0.08070000000000001,13.4,-0.19368000000000002,0.0,13.3,0.0,-0.0,13.3,-0.0,-0.0,13.3,-0.0
11.3092205,0.14795,13.600000000000001,0.35508,-0.66981,13.5,-1.607544,-0.80969,13.4,-1.9432559999999999,-0.08070000000000001,13.3,-0.19368000000000002,0.0,13.3,0.0,-0.0,13.3,-0.0,-0.0,13.3,-0.0
11.342202027,0.1345,13.600000000000001,0.32280000000000003,-0.6725,13.4,-1.6139999999999999,-0.80969,13.4,-1.9432559999999999,-0.08070000000000001,13.4,-0.19368000000000002,0.0,13.3,0.0,-0.0,13.3,-0.0,-0.0,13.3,-0.0
11.375303875,0.13181,13.600000000000001,0.316344,-0.6644300000000001,13.5,-1.594632,-0.80969,13.4,-1.9432559999999999,-0.08070000000000001,13.4,-0.19368000000000002,0.0,13.3,0.0,-0.0,13.3,-0.0,-0.0,13.3,-0.0
11.409261909,0.1345,13.600000000000001,0.32280000000000003,-0.6644300000000001,13.4,-1.594632,-0.80969,13.3,-1.9432559999999999,-0.08070000000000001,13.4,-0.19368000000000002,0.0,13.3,0.0,-0.0,13.3,-0.0,-0.0,13.3,-0.0
11.442110814,0.13181,13.600000000000001,0.316344,-0.6725,13.5,-1.6139999999999999,-0.80969,13.4,-1.9432559999999999,-0.08070000000000001,13.3,-0.19368000000000002,0.0,13.3,0.0,-0.0,13.3,-0.0,-0.0,13.3,-0.0
11.474923281,0.15064,13.600000000000001,0.36153599999999997,-0.6725,13.5,-1.6139999999999999,-0.80969,13.4,-1.9432559999999999,-0.08070000000000001,13.4,-0.19368000000000002,0.0,13.3,0.0,-0.0,13.3,-0.0,-0.0,13.3,-0.0
11.50892968,0.12374,13.600000000000001,0.296976,-0.6751900000000001,13.5,-1.6204560000000001,-0.80969,13.4,-1.9432559999999999,-0.08070000000000001,13.3,-0.19368000000000002,0.0,13.3,0.0,-0.0,13.3,-0.0,-0.0,13.3,-0.0
11.54189464,0.14795,13.600000000000001,0.35508,-0.6725,13.5,-1.6139999999999999,-0.80969,13.5,-1.9432559999999999,-0.08070000000000001,13.4,-0.19368000000000002,0.0,13.3,0.0,-0.0,13.3,-0.0,-0.0,13.3,-0.0
11.575066716,0.1345,13.600000000000001,0.32280000000000003,-0.6644300000000001,13.5,-1.594632,-0.80969,13.4,-1.9432559999999999,-0.08070000000000001,13.4,-0.19368000000000002,0.0,13.3,0.0,-0.0,13.3,-0.0,-0.0,13.3,-0.0
11.609089412,0.1345,13.600000000000001,0.32280000000000003,-0.66174,13.5,-1.588176,-0.80969,13.4,-1.9432559999999999,-0.07801000000000001,13.4,-0.18722400000000003,0.0,13.3,0.0,-0.0,13.3,-0.0,-0.0,13.3,-0.0
11.642196097,0.1345,13.600000000000001,0.32280000000000003,-0.6751900000000001,13.5,-1.6204560000000001,-0.807,13.4,-1.9368,-0.07801000000000001,13.3,-0.18722400000000003,0.0,13.3,0.0,-0.0,13.3,-0.0,-0.0,13.3,-0.0
11.675014441,0.15602000000000002,13.600000000000001,0.37444800000000006,-0.6751900000000001,13.5,-1.6204560000000001,-0.807,13.4,-1.9368,-0.07801000000000001,13.4,-0.18722400000000003,0.0,13.3,0.0,-0.0,13.3,-0.0,-0.0,13.3,-0.0
11.709028629,0.16140000000000002,13.600000000000001,0.38736000000000004,-0.6751900000000001,13.5,-1.6204560000000001,-0.807,13.5,-1.9368,-0.08070000000000001,13.4,-0.19368000000000002,0.0,13.3,0.0,-0.0,13.3,-0.0,-0.0,13.3,-0.0
11.742019052,0.15333,13.600000000000001,0.367992,-0.66174,13.600000000000001,-1.588176,-0.807,13.5,-1.9368,-0.08070000000000001,13.3,-0.19368000000000002,0.0,13.3,0.0,-0.0,13.3,-0.0,-0.0,13.3,-0.0
11.77506972,0.14526,13.600000000000001,0.348624,-0.65905,13.5,-1.58172,-0.807,13.4,-1.9368,-0.08339,13.4,-0.200136,0.0,13.3,0.0,-0.0,13.3,-0.0,-0.0,13.3,-0.0
11.8090227,0.15064,13.600000000000001,0.36153599999999997,-0.6751900000000001,13.5,-1.6204560000000001,-0.807,13.4,-1.9368,-0.08070000000000001,13.3,-0.19368000000000002,0.0,13.3,0.0,-0.0,13.3,-0.0,-0.0,13.3,-0.0
11.842033475,0.13719,13.600000000000001,0.329256,-0.6725,13.4,-1.6139999999999999,-0.807,13.4,-1.9368,-0.08339,13.4,-0.200136,0.0,13.3,0.0,-0.0,13.3,-0.0,-0.0,13.3,-0.0
11.874968107,0.14526,13.600000000000001,0.348624,-0.65636,13.5,-1.575264,-0.807,13.4,-1.9368,-0.08070000000000001,13.4,-0.19368000000000002,0.00807,13.3,0.019368,-0.0,13.3,-0.0,-0.0,13.3,-0.0
11.908981085,0.14526,13.600000000000001,0.348624,-0.6644300000000001,13.4,-1.594632,-0.807,13.4,-1.9368,-0.08070000000000001,13.4,-0.19368000000000002,0.0,13.3,0.0,-0.0,13.3,-0.0,-0.0,13.3,-0.0
11.941968056,0.1345,13.600000000000001,0.32280000000000003,-0.6751900000000001,13.5,-1.6204560000000001,-0.807,13.4,-1.9368,-0.08070000000000001,13.4,-0.19368000000000002,0.0,13.3,0.0,-0.0,13.3,-0.0,-0.0,13.3,-0.0
11.974827906,0.12374,13.600000000000001,0.296976,-0.6751900000000001,13.4,-1.6204560000000001,-0.80969,13.4,-1.9432559999999999,-0.08070000000000001,13.4,-0.19368000000000002,0.0,13.3,0.0,-0.0,13.3,-0.0,-0.0,13.3,-0.0
12.008835017,0.13988,13.600000000000001,0.335712,-0.6751900000000001,13.5,-1.6204560000000001,-0.80969,13.5,-1.9432559999999999,-0.08070000000000001,13.4,-0.19368000000000002,0.0,13.3,0.0,-0.0,13.3,-0.0,-0.0,13.3,-0.0
12.041867002,0.13181,13.600000000000001,0.316344,-0.6751900000000001,13.5,-1.6204560000000001,-0.80969,13.4,-1.9432559999999999,-0.08070000000000001,13.3,-0.19368000000000002,0.0,13.3,0.0,-0.0,13.3,-0.0,-0.0,13.3,-0.0
12.074918732,0.12374,13.600000000000001,0.296976,-0.6751900000000001,13.5,-1.6204560000000001,-0.80969,13.4,-1.9432559999999999,-0.08070000000000001,13.4,-0.19368000000000002,0.0,13.3,0.0,-0.0,13.3,-0.0,-0.0,13.3,-0.0
12.108769791,0.14526,13.600000000000001,0.348624,-0.6751900000000001,13.5,-1.6204560000000001,-0.80969,13.4,-1.9432559999999999,-0.08070000000000001,13.4,-0.19368000000000002,0.0,13.3,0.0,-0.0,13.3,-0.0,-0.0,13.3,-0.0
12.141905207,0.14795,13.600000000000001,0.35508,-0.6751900000000001,13.5,-1.6204560000000001,-0.80969,13.4,-1.9432559999999999,-0.08070000000000001,13.4,-0.19368000000000002,0.0,13.3,0.0,-0.0,13.3,-0.0,-0.0,13.3,-0.0
12.175117081,0.15602000000000002,13.600000000000001,0.37444800000000006,-0.6751900000000001,13.5,-1.6204560000000001,-0.807,13.4,-1.9368,-0.08070000000000001,13.4,-0.19368000000000002,0.0,13.3,0.0,-0.0,13.3,-0.0,-0.0,13.3,-0.0
12.20869846,0.14526,13.600000000000001,0.348624,-0.6751900000000001,13.600000000000001,-1.6204560000000001,-0.807,13.4,-1.9368,-0.08070000000000001,13.4,-0.19368000000000002,0.0,13.3,0.0,-0.0,13.3,-0.0,-0.0,13.3,-0.0
12.241738003,0.15064,13.600000000000001,0.36153599999999997,-0.6751900000000001,13.5,-1.6204560000000001,-0.807,13.4,-1.9368,-0.08339,13.4,-0.200136,0.0,13.3,0.0,-0.0,13.3,-0.0,-0.0,13.3,-0.0
12.274737536,0.13719,13.600000000000001,0.329256,-0.65905,13.5,-1.58172,-0.807,13.4,-1.9368,-0.08070000000000001,13.3,-0.19368000000000002,0.0,13.3,0.0,-0.0,13.3,-0.0,-0.0,13.3,-0.0
12.308856178,0.13988,13.600000000000001,0.335712,-0.6751900000000001,13.5,-1.6204560000000001,-0.807,13.4,-1.9368,-0.08070000000000001,13.4,-0.19368000000000002,0.0,13.3,0.0,-0.0,13.3,-0.0,-0.0,13.3,-0.0
12.341916518,0.15871000000000002,13.600000000000001,0.380904,-0.6751900000000001,13.600000000000001,-1.6204560000000001,-0.80969,13.3,-1.9432559999999999,-0.08070000000000001,13.4,-0.19368000000000002,0.0,13.3,0.0,-0.0,13.3,-0.0,-0.0,13.3,-0.0
12.374477341,0.13988,13.5,0.335712,-0.6644300000000001,13.5,-1.594632,-0.80969,13.4,-1.9432559999999999,-0.08070000000000001,13.4,-0.19368000000000002,0.0,13.3,0.0,-0.0,13.3,-0.0,-0.0,13.3,-0.0
12.408638601,0.12643000000000001,13.600000000000001,0.30343200000000004,-0.6725,13.5,-1.6139999999999999,-0.80969,13.4,-1.9432559999999999,-0.08070000000000001,13.4,-0.19368000000000002,0.0,13.3,0.0,-0.0,13.3,-0.0,-0.0,13.3,-0.0
12.441933068,0.15064,13.600000000000001,0.36153599999999997,-0.6751900000000001,13.5,-1.6204560000000001,-0.8043100000000001,13.4,-1.930344,-0.08070000000000001,13.4,-0.19368000000000002,0.0,13.3,0.0,-0.0,13.3,-0.0,-0.0,13.3,-0.0
12.474660541,0.12912,13.600000000000001,0.309888,-0.6751900000000001,13.4,-1.6204560000000001,-0.8043100000000001,13.4,-1.930344,-0.08339,13.4,-0.200136,0.0,13.3,0.0,-0.0,13.3,-0.0,-0.0,13.3,-0.0
12.508698508,0.12912,13.600000000000001,0.309888,-0.6751900000000001,13.5,-1.6204560000000001,-0.8043100000000001,13.4,-1.930344,-0.08877,13.3,-0.213048,0.0,13.3,0.0,-0.0,13.3,-0.0,-0.0,13.3,-0.0
12.54166781,0.14526,13.600000000000001,0.348624,-0.6725,13.5,-1.6139999999999999,-0.8043100000000001,13.4,-1.930344,-0.08339,13.4,-0.200136,0.0,13.3,0.0,-0.0,13.3,-0.0,-0.0,13.3,-0.0
12.57462914,0.12912,13.600000000000001,0.309888,-0.66174,13.5,-1.588176,-0.8043100000000001,13.4,-1.930344,-0.08070000000000001,13.4,-0.19368000000000002,0.0,13.3,0.0,-0.0,13.3,-0.0,-0.0,13.3,-0.0
12.608668487,0.12374,13.600000000000001,0.296976,-0.6751900000000001,13.5,-1.6204560000000001,-0.8043100000000001,13.4,-1.930344,-0.08070000000000001,13.4,-0.19368000000000002,0.0,13.3,0.0,-0.0,13.3,-0.0,-0.0,13.3,-0.0
12.641608639,0.13988,13.600000000000001,0.335712,-0.6751900000000001,13.5,-1.6204560000000001,-0.8043100000000001,13.4,-1.930344,-0.08608,13.4,-0.206592,0.0,13.3,0.0,-0.0,13.3,-0.0,-0.0,13.3,-0.0
12.67463225,0.13988,13.600000000000001,0.335712,-0.6751900000000001,13.5,-1.6204560000000001,-0.8043100000000001,13.4,-1.930344,-0.08070000000000001,13.4,-0.19368000000000002,0.0,13.3,0.0,-0.0,13.3,-0.0,-0.0,13.3,-0.0
12.708720798,0.13988,13.600000000000001,0.335712,-0.6751900000000001,13.5,-1.6204560000000001,-0.8043100000000001,13.4,-1.930344,-0.08070000000000001,13.4,-0.19368000000000002,0.0,13.3,0.0,-0.0,13.3,-0.0,-0.0,13.3,-0.0
12.741580362,0.14795,13.600000000000001,0.35508,-0.6751900000000001,13.5,-1.6204560000000001,-0.8043100000000001,13.5,-1.930344,-0.08070000000000001,13.4,-0.19368000000000002,0.0,13.3,0.0,-0.0,13.3,-0.0,-0.0,13.3,-0.0
12.774911712,0.13988,13.600000000000001,0.335712,-0.6751900000000001,13.5,-1.6204560000000001,-0.8043100000000001,13.4,-1.930344,-0.08070000000000001,13.3,-0.19368000000000002,0.0,13.3,0.0,-0.0,13.3,-0.0,-0.0,13.3,-0.0
12.808572167,0.14795,13.600000000000001,0.35508,-0.6751900000000001,13.5,-1.6204560000000001,-0.8043100000000001,13.4,-1.930344,-0.08070000000000001,13.3,-0.19368000000000002,0.0,13.3,0.0,-0.0,13.3,-0.0,-0.0,13.3,-0.0
12.841579785,0.13988,13.600000000000001,0.335712,-0.6725,13.5,-1.6139999999999999,-0.8043100000000001,13.3,-1.930344,-0.08070000000000001,13.4,-0.19368000000000002,0.0,13.3,0.0,-0.0,13.3,-0.0,-0.0,13.3,-0.0
12.874654865,0.14257,13.600000000000001,0.34216799999999997,-0.6725,13.5,-1.6139999999999999,-0.8043100000000001,13.4,-1.930344,-0.08339,13.4,-0.200136,0.0,13.3,0.0,-0.0,13.3,-0.0,-0.0,13.3,-0.0
12.908761433,0.12912,13.600000000000001,0.309888,-0.6725,13.5,-1.6139999999999999,-0.8043100000000001,13.4,-1.930344,-0.08339,13.4,-0.200136,0.0,13.3,0.0,-0.0,13.3,-0.0,-0.0,13.3,-0.0
12.941514211,0.14795,13.600000000000001,0.35508,-0.6751900000000001,13.5,-1.6204560000000001,-0.8043100000000001,13.3,-1.930344,-0.08339,13.4,-0.200136,0.0,13.3,0.0,-0.0,13.3,-0.0,-0.0,13.3,-0.0
12.974581457,0.1345,13.600000000000001,0.32280000000000003,-0.6751900000000001,13.5,-1.6204560000000001,-0.8043100000000001,13.3,-1.930344,-0.08070000000000001,13.4,-0.19368000000000002,0.0,13.3,0.0,-0.0,13.3,-0.0,-0.0,13.3,-0.0
13.0084787,0.12374,13.600000000000001,0.296976,-0.6644300000000001,13.5,-1.594632,-0.8043100000000001,13.4,-1.930344,-0.08070000000000001,13.4,-0.19368000000000002,0.0,13.3,0.0,-0.0,13.3,-0.0,-0.0,13.3,-0.0
13.04163458,0.14526,13.600000000000001,0.348624,-0.66981,13.5,-1.607544,-0.8043100000000001,13.4,-1.930344,-0.08070000000000001,13.4,-0.19368000000000002,0.0,13.3,0.0,-0.0,13.3,-0.0,-0.0,13.3,-0.0
13.074780041,0.12912,13.600000000000001,0.309888,-0.65905,13.5,-1.58172,-0.8043100000000001,13.4,-1.930344,-0.08070000000000001,13.4,-0.19368000000000002,0.0,13.3,0.0,-0.0,13.3,-0.0,-0.0,13.3,-0.0
13.108627713,0.1345,13.600000000000001,0.32280000000000003,-0.6644300000000001,13.5,-1.594632,-0.8043100000000001,13.4,-1.930344,-0.08070000000000001,13.4,-0.19368000000000002,0.0,13.3,0.0,-0.0,13.3,-0.0,-0.0,13.3,-0.0
13.141467373,0.12643000000000001,13.600000000000001,0.30343200000000004,-0.66981,13.5,-1.607544,-0.8043100000000001,13.4,-1.930344,-0.08070000000000001,13.4,-0.19368000000000002,0.0,13.3,0.0,-0.0,13.3,-0.0,-0.0,13.3,-0.0
13.174547149,0.13988,13.600000000000001,0.335712,-0.6751900000000001,13.5,-1.6204560000000001,-0.8043100000000001,13.4,-1.930344,-0.08070000000000001,13.3,-0.19368000000000002,0.0,13.3,0.0,-0.0,13.3,-0.0,-0.0,13.3,-0.0
13.208524276,0.15602000000000002,13.600000000000001,0.37444800000000006,-0.6751900000000001,13.5,-1.6204560000000001,-0.8043100000000001,13.4,-1.930344,-0.08070000000000001,13.3,-0.19368000000000002,0.0,13.3,0.0,-0.0,13.3,-0.0,-0.0,13.3,-0.0
13.241536237,0.12643000000000001,13.600000000000001,0.30343200000000004,-0.6751900000000001,13.5,-1.6204560000000001,-0.8043100000000001,13.4,-1.930344,-0.08070000000000001,13.4,-0.19368000000000002,0.0,13.3,0.0,-0.0,13.3,-0.0,-0.0,13.3,-0.0
13.274199528,0.13719,13.600000000000001,0.329256,-0.6725,13.5,-1.6139999999999999,-0.80969,13.4,-1.9432559999999999,-0.08070000000000001,13.4,-0.19368000000000002,0.0,13.3,0.0,-0.0,13.3,-0.0,-0.0,13.3,-0.0
13.308502739,0.15602000000000002,13.600000000000001,0.37444800000000006,-0.6751900000000001,13.5,-1.6204560000000001,-0.807,13.4,-1.9368,-0.08339,13.4,-0.200136,0.0,13.3,0.0,-0.0,13.3,-0.0,-0.0,13.3,-0.0
13.341438542,0.1345,13.600000000000001,0.32280000000000003,-0.6751900000000001,13.4,-1.6204560000000001,-0.807,13.3,-1.9368,-0.08070000000000001,13.4,-0.19368000000000002,0.0,13.3,0.0,-0.0,13.3,-0.0,-0.0,13.3,-0.0
13.375358839,0.15602000000000002,13.600000000000001,0.37444800000000006,-0.6644300000000001,13.5,-1.594632,-0.807,13.4,-1.9368,-0.08070000000000001,13.4,-0.19368000000000002,0.0,13.3,0.0,-0.0,13.3,-0.0,-0.0,13.3,-0.0
13.408372833,0.13988,13.600000000000001,0.335712,-0.6751900000000001,13.5,-1.6204560000000001,-0.807,13.3,-1.9368,-0.08070000000000001,13.4,-0.19368000000000002,0.0,13.3,0.0,-0.0,13.3,-0.0,-0.0,13.3,-0.0
13.441403053,0.14257,13.600000000000001,0.34216799999999997,-0.6751900000000001,13.5,-1.6204560000000001,-0.807,13.4,-1.9368,-0.08070000000000001,13.4,-0.19368000000000002,0.0,13.3,0.0,-0.0,13.3,-0.0,-0.0,13.3,-0.0
13.475429329,0.14257,13.600000000000001,0.34216799999999997,-0.6751900000000001,13.5,-1.6204560000000001,-0.807,13.3,-1.9368,-0.08070000000000001,13.4,-0.19368000000000002,0.0,13.3,0.0,-0.0,13.3,-0.0,-0.0,13.3,-0.0
13.50819295,0.14795,13.600000000000001,0.35508,-0.6751900000000001,13.5,-1.6204560000000001,-0.807,13.4,-1.9368,-0.08070000000000001,13.4,-0.19368000000000002,0.0,13.3,0.0,-0.0,13.3,-0.0,-0.0,13.3,-0.0
13.541401763,0.12912,13.600000000000001,0.309888,-0.6751900000000001,13.600000000000001,-1.6204560000000001,-0.807,13.5,-1.9368,-0.08608,13.4,-0.206592,0.0,13.3,0.0,-0.0,13.3,-0.0,0.00538,13.3,0.012912
13.574246941,0.14795,13.600000000000001,0.35508,-0.6751900000000001,13.5,-1.6204560000000001,-0.807,13.4,-1.9368,-0.08070000000000001,13.4,-0.19368000000000002,0.0,13.3,0.0,-0.0,13.3,-0.0,-0.0,13.3,-0.0
13.608361409,0.14795,13.600000000000001,0.35508,-0.66981,13.5,-1.607544,-0.807,13.4,-1.9368,-0.08070000000000001,13.4,-0.19368000000000002,0.0,13.3,0.0,-0.0,13.3,-0.0,-0.0,13.3,-0.0
13.641302319,0.14795,13.600000000000001,0.35508,-0.6751900000000001,13.5,-1.6204560000000001,-0.807,13.4,-1.9368,-0.08608,13.4,-0.206592,0.0,13.3,0.0,-0.0,13.3,-0.0,-0.0,13.3,-0.0
13.675269257,0.1345,13.600000000000001,0.32280000000000003,-0.6725,13.5,-1.6139999999999999,-0.807,13.5,-1.9368,-0.08070000000000001,13.4,-0.19368000000000002,0.0,13.3,0.0,-0.0,13.3,-0.0,-0.0,13.3,-0.0
13.7084747,0.14257,13.600000000000001,0.34216799999999997,-0.6751900000000001,13.5,-1.6204560000000001,-0.807,13.4,-1.9368,-0.08070000000000001,13.4,-0.19368000000000002,0.0,13.3,0.0,-0.0,13.3,-0.0,-0.0,13.3,-0.0
13.741446087,0.1345,13.600000000000001,0.32280000000000003,-0.6751900000000001,13.5,-1.6204560000000001,-0.807,13.4,-1.9368,-0.08070000000000001,13.4,-0.19368000000000002,0.0,13.3,0.0,-0.0,13.3,-0.0,-0.0,13.3,-0.0
13.775300875,0.14257,13.600000000000001,0.34216799999999997,-0.6751900000000001,13.4,-1.6204560000000001,-0.807,13.4,-1.9368,-0.08070000000000001,13.4,-0.19368000000000002,0.0,13.3,0.0,-0.0,13.3,-0.0,-0.0,13.3,-0.0
13.808242407,0.14795,13.600000000000001,0.35508,-0.6751900000000001,13.5,-1.6204560000000001,-0.807,13.4,-1.9368,-0.08070000000000001,13.4,-0.19368000000000002,0.0,13.3,0.0,-0.0,13.3,-0.0,-0.0,13.3,-0.0
13.841256309,0.12912,13.600000000000001,0.309888,-0.6751900000000001,13.5,-1.6204560000000001,-0.807,13.4,-1.9368,-0.08070000000000001,13.4,-0.19368000000000002,0.0,13.3,0.0,-0.0,13.3,-0.0,-0.0,13.3,-0.0
13.875317349,0.1345,13.600000000000001,0.32280000000000003,-0.66712,13.5,-1.601088,-0.807,13.4,-1.9368,-0.08070000000000001,13.4,-0.19368000000000002,0.0,13.3,0.0,-0.0,13.3,-0.0,-0.0,13.3,-0.0
13.90856624,0.15602000000000002,13.600000000000001,0.37444800000000006,-0.6751900000000001,13.5,-1.6204560000000001,-0.807,13.3,-1.9368,-0.08070000000000001,13.4,-0.19368000000000002,0.0,13.3,0.0,-0.0,13.3,-0.0,-0.0,13.3,-0.0
13.941484116,0.14795,13.600000000000001,0.35508,-0.6751900000000001,13.5,-1.6204560000000001,-0.807,13.4,-1.9368,-0.08070000000000001,13.4,-0.19368000000000002,0.0,13.3,0.0,-0.0,13.3,-0.0,-0.0,13.3,-0.0
13.975461916,0.15333,13.600000000000001,0.367992,-0.6644300000000001,13.5,-1.594632,-0.807,13.4,-1.9368,-0.08070000000000001,13.3,-0.19368000000000002,0.0,13.3,0.0,-0.0,13.3,-0.0,-0.0,13.3,-0.0
14.008541901,0.15064,13.600000000000001,0.36153599999999997,-0.6751900000000001,13.5,-1.6204560000000001,-0.807,13.4,-1.9368,-0.08339,13.4,-0.200136,0.0,13.3,0.0,-0.0,13.3,-0.0,-0.0,13.3,-0.0
14.041509082,0.13719,13.600000000000001,0.329256,-0.6751900000000001,13.5,-1.6204560000000001,-0.807,13.4,-1.9368,-0.07532,13.4,-0.18076799999999998,0.0,13.3,0.0,-0.0,13.3,-0.0,-0.0,13.3,-0.0
14.075324244,0.14795,13.600000000000001,0.35508,-0.6751900000000001,13.5,-1.6204560000000001,-0.807,13.4,-1.9368,-0.07532,13.4,-0.18076799999999998,0.0,13.3,0.0,-0.0,13.3,-0.0,-0.0,13.3,-0.0
14.108335187,0.15064,13.600000000000001,0.36153599999999997,-0.6751900000000001,13.5,-1.6204560000000001,-0.807,13.4,-1.9368,-0.07532,13.4,-0.18076799999999998,0.0,13.3,0.0,-0.0,13.3,-0.0,-0.0,13.3,-0.0
14.141217721,0.13988,13.600000000000001,0.335712,-0.6644300000000001,13.5,-1.594632,-0.807,13.4,-1.9368,-0.07532,13.4,-0.18076799999999998,0.0,13.3,0.0,-0.0,13.3,-0.0,-0.0,13.3,-0.0
14.175214791,0.13181,13.600000000000001,0.316344,-0.6751900000000001,13.5,-1.6204560000000001,-0.807,13.4,-1.9368,-0.07532,13.4,-0.18076799999999998,0.0,13.3,0.0,-0.0,13.3,-0.0,-0.0,13.3,-0.0
14.208202177,0.15602000000000002,13.600000000000001,0.37444800000000006,-0.6751900000000001,13.5,-1.6204560000000001,-0.807,13.4,-1.9368,-0.07532,13.4,-0.18076799999999998,0.0,13.3,0.0,-0.0,13.3,-0.0,-0.0,13.3,-0.0
14.241213288,0.13719,13.600000000000001,0.329256,-0.6725,13.5,-1.6139999999999999,-0.807,13.4,-1.9368,-0.07532,13.4,-0.18076799999999998,0.0,13.3,0.0,-0.0,13.3,-0.0,-0.0,13.3,-0.0
14.275178971,0.15064,13.600000000000001,0.36153599999999997,-0.6725,13.5,-1.6139999999999999,-0.807,13.4,-1.9368,-0.08070000000000001,13.4,-0.19368000000000002,0.0,13.3,0.0,-0.0,13.3,-0.0,-0.0,13.3,-0.0
14.308189468,0.13181,13.600000000000001,0.316344,-0.6751900000000001,13.600000000000001,-1.6204560000000001,-0.807,13.4,-1.9368,-0.08070000000000001,13.4,-0.19368000000000002,0.0,13.3,0.0,-0.0,13.3,-0.0,-0.0,13.3,-0.0
14.341640206,0.14795,13.600000000000001,0.35508,-0.66981,13.5,-1.607544,-0.807,13.5,-1.9368,-0.08339,13.4,-0.200136,0.0,13.3,0.0,-0.0,13.3,-0.0,-0.0,13.3,-0.0
14.375091539,0.14526,13.600000000000001,0.348624,-0.6751900000000001,13.5,-1.6204560000000001,-0.807,13.5,-1.9368,-0.08070000000000001,13.3,-0.19368000000000002,0.0,13.3,0.0,-0.0,13.3,-0.0,-0.0,13.3,-0.0
14.408081611,0.14257,13.600000000000001,0.34216799999999997,-0.66712,13.4,-1.601088,-0.807,13.3,-1.9368,-0.08070000000000001,13.4,-0.19368000000000002,0.0,13.3,0.0,-0.0,13.3,-0.0,-0.0,13.3,-0.0
14.441197752,0.13719,13.600000000000001,0.329256,-0.6751900000000001,13.4,-1.6204560000000001,-0.807,13.4,-1.9368,-0.08070000000000001,13.4,-0.19368000000000002,0.0,13.3,0.0,-0.0,13.3,-0.0,-0.0,13.3,-0.0
14.47507518,0.14795,13.600000000000001,0.35508,-0.6751900000000001,13.5,-1.6204560000000001,-0.807,13.4,-1.9368,-0.08070000000000001,13.4,-0.19368000000000002,0.0,13.3,0.0,-0.0,13.3,-0.0,-0.0,13.3,-0.0
14.508076232,0.14257,13.600000000000001,0.34216799999999997,-0.6751900000000001,13.5,-1.6204560000000001,-0.807,13.4,-1.9368,-0.08339,13.3,-0.200136,0.0,13.3,0.0,-0.0,13.3,-0.0,-0.0,13.3,-0.0
14.541303977,0.13988,13.600000000000001,0.335712,-0.6644300000000001,13.5,-1.594632,-0.807,13.4,-1.9368,-0.08070000000000001,13.3,-0.19368000000000002,0.0,13.3,0.0,-0.0,13.3,-0.0,-0.0,13.3,-0.0
14.575463492,0.13719,13.600000000000001,0.329256,-0.6751900000000001,13.5,-1.6204560000000001,-0.807,13.4,-1.9368,-0.08070000000000001,13.4,-0.19368000000000002,0.0,13.3,0.0,-0.0,13.3,-0.0,-0.0,13.3,-0.0
14.608185462,0.14526,13.600000000000001,0.348624,-0.6751900000000001,13.5,-1.6204560000000001,-0.807,13.4,-1.9368,-0.08339,13.4,-0.200136,0.0,13.3,0.0,-0.0,13.3,-0.0,-0.0,13.3,-0.0
14.641182709,0.15871000000000002,13.600000000000001,0.380904,-0.6751900000000001,13.5,-1.6204560000000001,-0.807,13.4,-1.9368,-0.08070000000000001,13.4,-0.19368000000000002,0.0,13.3,0.0,-0.0,13.3,-0.0,-0.0,13.3,-0.0
14.675273882,0.13181,13.600000000000001,0.316344,-0.6751900000000001,13.5,-1.6204560000000001,-0.807,13.4,-1.9368,-0.08070000000000001,13.4,-0.19368000000000002,0.0,13.3,0.0,-0.0,13.3,-0.0,-0.0,13.3,-0.0
14.708158894,0.14526,13.600000000000001,0.348624,-0.6751900000000001,13.5,-1.6204560000000001,-0.807,13.4,-1.9368,-0.08070000000000001,13.3,-0.19368000000000002,0.0,13.3,0.0,-0.0,13.3,-0.0,-0.0,13.3,-0.0
14.7414609,0.13719,13.600000000000001,0.329256,-0.6725,13.5,-1.6139999999999999,-0.807,13.4,-1.9368,-0.08070000000000001,13.4,-0.19368000000000002,0.0,13.3,0.0,-0.0,13.3,-0.0,-0.0,13.3,-0.0
14.775072325,0.12912,13.600000000000001,0.309888,-0.6751900000000001,13.5,-1.6204560000000001,-0.807,13.4,-1.9368,-0.08070000000000001,13.4,-0.19368000000000002,0.0,13.3,0.0,-0.0,13.3,-0.0,-0.0,13.3,-0.0
14.80805588,0.14526,13.600000000000001,0.348624,-0.6751900000000001,13.4,-1.6204560000000001,-0.807,13.4,-1.9368,-0.08339,13.4,-0.200136,0.0,13.3,0.0,-0.0,13.3,-0.0,-0.0,13.3,-0.0
14.841113795,0.16140000000000002,13.600000000000001,0.38736000000000004,-0.6725,13.5,-1.6139999999999999,-0.807,13.4,-1.9368,-0.08070000000000001,13.4,-0.19368000000000002,0.0,13.3,0.0,-0.0,13.3,-0.0,-0.0,13.3,-0.0
14.875051044,0.15602000000000002,13.600000000000001,0.37444800000000006,-0.6751900000000001,13.5,-1.6204560000000001,-0.807,13.4,-1.9368,-0.08070000000000001,13.4,-0.19368000000000002,0.0,13.3,0.0,-0.0,13.3,-0.0,-0.0,13.3,-0.0
14.908058658,0.13181,13.600000000000001,0.316344,-0.6751900000000001,13.5,-1.6204560000000001,-0.807,13.4,-1.9368,-0.08070000000000001,13.4,-0.19368000000000002,0.0,13.3,0.0,-0.0,13.3,-0.0,-0.0,13.3,-0.0
14.941072868,0.15064,13.600000000000001,0.36153599999999997,-0.6751900000000001,13.5,-1.6204560000000001,-0.807,13.4,-1.9368,-0.08339,13.4,-0.200136,0.0,13.3,0.0,-0.0,13.3,-0.0,-0.0,13.3,-0.0
14.975048807,0.13988,13.600000000000001,0.335712,-0.6751900000000001,13.5,-1.6204560000000001,-0.807,13.5,-1.9368,-0.08339,13.4,-0.200136,0.0,13.3,0.0,-0.0,13.3,-0.0,-0.0,13.3,-0.0
15.008115108,0.1345,13.600000000000001,0.32280000000000003,-0.6751900000000001,13.5,-1.6204560000000001,-0.807,13.5,-1.9368,-0.08339,13.4,-0.200136,0.0,13.3,0.0,-0.0,13.3,-0.0,-0.0,13.3,-0.0
15.040651632,0.14526,13.600000000000001,0.348624,-0.6751900000000001,13.5,-1.6204560000000001,-0.807,13.5,-1.9368,-0.08070000000000001,13.4,-0.19368000000000002,0.0,13.3,0.0,-0.0,13.3,-0.0,-0.0,13.3,-0.0
15.074887025,0.12912,13.600000000000001,0.309888,-0.6751900000000001,13.5,-1.6204560000000001,-0.807,13.4,-1.9368,-0.08070000000000001,13.4,-0.19368000000000002,0.0,13.3,0.0,-0.0,13.3,-0.0,-0.0,13.3,-0.0
15.107910998,0.15064,13.600000000000001,0.36153599999999997,-0.6751900000000001,13.5,-1.6204560000000001,-0.807,13.4,-1.9368,-0.08070000000000001,13.4,-0.19368000000000002,0.0,13.3,0.0,-0.0,13.3,-0.0,-0.0,13.3,-0.0
15.141217468,0.13181,13.5,0.316344,-0.66981,13.5,-1.607544,-0.807,13.4,-1.9368,-0.08070000000000001,13.3,-0.19368000000000002,0.0,13.3,0.0,-0.0,13.3,-0.0,-0.0,13.3,-0.0
15.175006317,0.15333,13.600000000000001,0.367992,-0.6751900000000001,13.5,-1.6204560000000001,-0.807,13.4,-1.9368,-0.08070000000000001,13.4,-0.19368000000000002,0.0,13.3,0.0,-0.0,13.3,-0.0,-0.0,13.3,-0.0
15.208117757,0.15064,13.600000000000001,0.36153599999999997,-0.6751900000000001,13.4,-1.6204560000000001,-0.807,13.4,-1.9368,-0.08608,13.4,-0.206592,0.0,13.3,0.0,-0.0,13.3,-0.0,-0.0,13.3,-0.0
15.240748962,0.12912,13.600000000000001,0.309888,-0.6751900000000001,13.5,-1.6204560000000001,-0.807,13.4,-1.9368,-0.08070000000000001,13.4,-0.19368000000000002,0.0,13.3,0.0,-0.0,13.3,-0.0,-0.0,13.3,-0.0
15.274926115,0.14795,13.600000000000001,0.35508,-0.6725,13.5,-1.6139999999999999,-0.807,13.4,-1.9368,-0.08070000000000001,13.4,-0.19368000000000002,0.0,13.3,0.0,-0.0,13.3,-0.0,-0.0,13.3,-0.0
15.3078328,0.13181,13.600000000000001,0.316344,-0.6751900000000001,13.5,-1.6204560000000001,-0.807,13.4,-1.9368,-0.08070000000000001,13.4,-0.19368000000000002,0.0,13.3,0.0,-0.0,13.3,-0.0,-0.0,13.3,-0.0
15.340850387,0.12643000000000001,13.600000000000001,0.30343200000000004,-0.66712,13.5,-1.601088,-0.807,13.3,-1.9368,-0.08070000000000001,13.4,-0.19368000000000002,0.0,13.3,0.0,-0.0,13.3,-0.0,-0.0,13.3,-0.0
15.374986861,0.13719,13.600000000000001,0.329256,-0.66981,13.5,-1.607544,-0.807,13.4,-1.9368,-0.08070000000000001,13.4,-0.19368000000000002,0.0,13.3,0.0,-0.0,13.3,-0.0,-0.0,13.3,-0.0
15.407729715,0.13181,13.600000000000001,0.316344,-0.6644300000000001,13.5,-1.594632,-0.807,13.5,-1.9368,-0.08070000000000001,13.3,-0.19368000000000002,0.0,13.3,0.0,-0.0,13.3,-0.0,-0.0,13.3,-0.0
15.440706247,0.13719,13.600000000000001,0.329256,-0.6751900000000001,13.5,-1.6204560000000001,-0.807,13.4,-1.9368,-0.08070000000000001,13.4,-0.19368000000000002,0.0,13.3,0.0,-0.0,13.3,-0.0,-0.0,13.3,-0.0
15.474747761,0.13181,13.600000000000001,0.316344,-0.6725,13.5,-1.6139999999999999,-0.807,13.4,-1.9368,-0.08070000000000001,13.4,-0.19368000000000002,0.0,13.3,0.0,-0.0,13.3,-0.0,-0.0,13.3,-0.0
15.507916863,0.15333,13.600000000000001,0.367992,-0.6751900000000001,13.5,-1.6204560000000001,-0.807,13.4,-1.9368,-0.08070000000000001,13.4,-0.19368000000000002,0.0,13.3,0.0,-0.0,13.3,-0.0,-0.0,13.3,-0.0
15.540781546,0.13719,13.600000000000001,0.329256,-0.6644300000000001,13.4,-1.594632,-0.807,13.3,-1.9368,-0.08070000000000001,13.4,-0.19368000000000002,0.0,13.3,0.0,-0.0,13.3,-0.0,-0.0,13.3,-0.0
15.575000301,0.12912,13.600000000000001,0.309888,-0.6751900000000001,13.5,-1.6204560000000001,-0.807,13.4,-1.9368,-0.08070000000000001,13.4,-0.19368000000000002,0.0,13.3,0.0,-0.0,13.3,-0.0,-0.0,13.3,-0.0
15.60775163,0.15333,13.600000000000001,0.367992,-0.6644300000000001,13.5,-1.594632,-0.807,13.4,-1.9368,-0.08339,13.4,-0.200136,0.0,13.3,0.0,-0.0,13.3,-0.0,-0.0,13.3,-0.0
15.640756907,0.15064,13.600000000000001,0.36153599999999997,-0.6751900000000001,13.5,-1.6204560000000001,-0.807,13.4,-1.9368,-0.08070000000000001,13.4,-0.19368000000000002,0.0,13.3,0.0,-0.0,13.3,-0.0,-0.0,13.3,-0.0
15.674666793,0.14526,13.600000000000001,0.348624,-0.6751900000000001,13.5,-1.6204560000000001,-0.807,13.4,-1.9368,-0.08070000000000001,13.4,-0.19368000000000002,0.0,13.3,0.0,-0.0,13.3,-0.0,-0.0,13.3,-0.0
15.707717389,0.13181,13.600000000000001,0.316344,-0.66712,13.4,-1.601088,-0.807,13.3,-1.9368,-0.08339,13.4,-0.200136,0.0,13.3,0.0,-0.0,13.3,-0.0,-0.0,13.3,-0.0
15.740774366,0.13719,13.600000000000001,0.329256,-0.6751900000000001,13.5,-1.6204560000000001,-0.807,13.4,-1.9368,-0.08070000000000001,13.4,-0.19368000000000002,0.0,13.3,0.0,-0.0,13.3,-0.0,-0.0,13.3,-0.0
15.774707039,0.12912,13.600000000000001,0.309888,-0.6751900000000001,13.4,-1.6204560000000001,-0.8043100000000001,13.4,-1.930344,-0.08070000000000001,13.4,-0.19368000000000002,0.0,13.3,0.0,-0.0,13.3,-0.0,-0.0,13.3,-0.0
15.807587465,0.12912,13.600000000000001,0.309888,-0.6751900000000001,13.5,-1.6204560000000001,-0.8043100000000001,13.4,-1.930344,-0.08070000000000001,13.4,-0.19368000000000002,0.0,13.3,0.0,-0.0,13.3,-0.0,-0.0,13.3,-0.0
15.8405512,0.12374,13.600000000000001,0.296976,-0.6725,13.5,-1.6139999999999999,-0.8043100000000001,13.3,-1.930344,-0.08070000000000001,13.4,-0.19368000000000002,0.0,13.3,0.0,-0.0,13.3,-0.0,-0.0,13.3,-0.0
15.874826716,0.15333,13.600000000000001,0.367992,-0.6751900000000001,13.5,-1.6204560000000001,-0.8043100000000001,13.4,-1.930344,-0.08070000000000001,13.4,-0.19368000000000002,0.0,13.3,0.0,-0.0,13.3,-0.0,-0.0,13.3,-0.0
15.907803012,0.16678,13.600000000000001,0.400272,-0.6725,13.5,-1.6139999999999999,-0.8043100000000001,13.4,-1.930344,-0.08070000000000001,13.4,-0.19368000000000002,0.0,13.3,0.0,-0.0,13.3,-0.0,-0.0,13.3,-0.0
15.940563044,0.12912,13.600000000000001,0.309888,-0.6751900000000001,13.5,-1.6204560000000001,-0.8043100000000001,13.4,-1.930344,-0.08070000000000001,13.4,-0.19368000000000002,0.0,13.3,0.0,-0.0,13.3,-0.0,-0.0,13.3,-0.0
15.974411716,0.12374,13.600000000000001,0.296976,-0.6751900000000001,13.5,-1.6204560000000001,-0.8043100000000001,13.3,-1.930344,-0.08070000000000001,13.4,-0.19368000000000002,0.0,13.3,0.0,-0.0,13.3,-0.0,-0.0,13.3,-0.0
16.007912884,0.15064,13.600000000000001,0.36153599999999997,-0.6751900000000001,13.5,-1.6204560000000001,-0.8043100000000001,13.4,-1.930344,-0.08070000000000001,13.4,-0.19368000000000002,0.0,13.3,0.0,-0.0,13.3,-0.0,-0.0,13.3,-0.0
16.041765515,0.14526,13.600000000000001,0.348624,-0.6751900000000001,13.5,-1.6204560000000001,-0.8043100000000001,13.3,-1.930344,-0.08070000000000001,13.3,-0.19368000000000002,0.0,13.3,0.0,-0.0,13.3,-0.0,-0.0,13.3,-0.0
16.074860433,0.13719,13.600000000000001,0.329256,-0.6751900000000001,13.5,-1.6204560000000001,-0.8043100000000001,13.4,-1.930344,-0.08070000000000001,13.4,-0.19368000000000002,0.0,13.3,0.0,-0.0,13.3,-0.0,-0.0,13.3,-0.0
16.107652435,0.14257,13.600000000000001,0.34216799999999997,-0.6751900000000001,13.5,-1.6204560000000001,-0.8043100000000001,13.4,-1.930344,-0.08070000000000001,13.4,-0.19368000000000002,0.0,13.3,0.0,-0.0,13.3,-0.0,-0.0,13.3,-0.0
16.141785142,0.14257,13.600000000000001,0.34216799999999997,-0.6751900000000001,13.5,-1.6204560000000001,-0.8043100000000001,13.4,-1.930344,-0.08070000000000001,13.4,-0.19368000000000002,0.0,13.3,0.0,-0.0,13.3,-0.0,-0.0,13.3,-0.0
16.174591348,0.14526,13.600000000000001,0.348624,-0.6751900000000001,13.5,-1.6204560000000001,-0.8043100000000001,13.4,-1.930344,-0.07532,13.4,-0.18076799999999998,0.0,13.3,0.0,-0.0,13.3,-0.0,-0.0,13.3,-0.0
16.207597527,0.14257,13.600000000000001,0.34216799999999997,-0.6725,13.4,-1.6139999999999999,-0.8043100000000001,13.3,-1.930344,-0.07801000000000001,13.4,-0.18722400000000003,0.0,13.3,0.0,-0.0,13.3,-0.0,-0.0,13.3,-0.0
16.241553605,0.1345,13.600000000000001,0.32280000000000003,-0.6751900000000001,13.5,-1.6204560000000001,-0.8043100000000001,13.4,-1.930344,-0.07801000000000001,13.4,-0.18722400000000003,0.0,13.3,0.0,-0.0,13.3,-0.0,-0.0,13.3,-0.0
16.274640343,0.14526,13.600000000000001,0.348624,-0.6751900000000001,13.4,-1.6204560000000001,-0.8043100000000001,13.4,-1.930344,-0.07801000000000001,13.3,-0.18722400000000003,0.0,13.3,0.0,-0.0,13.3,-0.0,-0.0,13.3,-0.0
16.307569829,0.14795,13.600000000000001,0.35508,-0.6751900000000001,13.5,-1.6204560000000001,-0.8043100000000001,13.4,-1.930344,-0.07801000000000001,13.3,-0.18722400000000003,0.0,13.3,0.0,-0.0,13.3,-0.0,-0.0,13.3,-0.0
16.341624427,0.13988,13.600000000000001,0.335712,-0.6751900000000001,13.5,-1.6204560000000001,-0.8043100000000001,13.4,-1.930344,-0.07801000000000001,13.3,-0.18722400000000003,0.0,13.3,0.0,-0.0,13.3,-0.0,-0.0,13.3,-0.0
16.374954065,0.13719,13.600000000000001,0.329256,-0.6751900000000001,13.5,-1.6204560000000001,-0.8043100000000001,13.4,-1.930344,-0.07801000000000001,13.4,-0.18722400000000003,0.0,13.3,0.0,-0.0,13.3,-0.0,-0.0,13.3,-0.0
16.407407515,0.15064,13.600000000000001,0.36153599999999997,-0.6751900000000001,13.5,-1.6204560000000001,-0.8043100000000001,13.4,-1.930344,-0.07801000000000001,13.4,-0.18722400000000003,0.0,13.3,0.0,-0.0,13.3,-0.0,-0.0,13.3,-0.0
16.441620517,0.15602000000000002,13.600000000000001,0.37444800000000006,-0.6751900000000001,13.5,-1.6204560000000001,-0.8043100000000001,13.4,-1.930344,-0.07801000000000001,13.4,-0.18722400000000003,0.0,13.3,0.0,-0.0,13.3,-0.0,-0.0,13.3,-0.0
16.474416571,0.12374,13.600000000000001,0.296976,-0.6751900000000001,13.5,-1.6204560000000001,-0.8043100000000001,13.4,-1.930344,-0.07801000000000001,13.4,-0.18722400000000003,0.0,13.3,0.0,-0.0,13.3,-0.0,-0.0,13.3,-0.0
