RoboFEI-Work/manip_ws/pick_telemetry/pick_telemetry_20260626_145724.csv
time,manip_joint1/current,manip_joint1/voltage,manip_joint1/effort,manip_joint2/current,manip_joint2/voltage,manip_joint2/effort,manip_joint3/current,manip_joint3/voltage,manip_joint3/effort,manip_joint4/current,manip_joint4/voltage,manip_joint4/effort,manip_joint5/current,manip_joint5/voltage,manip_joint5/effort,manip_joint6/current,manip_joint6/voltage,manip_joint6/effort,manip_joint7/current,manip_joint7/voltage,manip_joint7/effort
0.002605493,-0.1883,13.600000000000001,-0.45192,-0.7747200000000001,13.5,-1.859328,-0.6751900000000001,13.4,-1.6204560000000001,-0.01076,13.4,-0.025824,0.01614,13.3,0.038736,-0.0,13.4,-0.0,-0.0,13.3,-0.0
0.003152749,-0.1883,13.600000000000001,-0.45192,-0.7532,13.5,-1.80768,-0.6725,13.4,-1.6139999999999999,-0.01345,13.4,-0.032279999999999996,0.02152,13.3,0.051648,-0.0,13.4,-0.0,-0.0,13.3,-0.0
0.003622114,-0.1883,13.600000000000001,-0.45192,-0.7532,13.5,-1.80768,-0.6751900000000001,13.3,-1.6204560000000001,-0.00807,13.4,-0.019368,0.01614,13.3,0.038736,-0.0,13.4,-0.0,-0.0,13.3,-0.0
0.004054936,-0.1883,13.600000000000001,-0.45192,-0.7747200000000001,13.5,-1.859328,-0.6725,13.4,-1.6139999999999999,-0.01345,13.4,-0.032279999999999996,0.01883,13.3,0.045191999999999996,-0.0,13.4,-0.0,-0.0,13.3,-0.0
0.004498031,-0.19368000000000002,13.600000000000001,-0.464832,-0.76665,13.5,-1.83996,-0.66712,13.4,-1.601088,-0.01614,13.4,-0.038736,0.01345,13.3,0.032279999999999996,-0.0,13.4,-0.0,-0.0,13.3,-0.0
0.004926845,-0.18561,13.600000000000001,-0.44546399999999997,-0.76665,13.5,-1.83996,-0.66712,13.4,-1.601088,-0.01076,13.4,-0.025824,0.0,13.3,0.0,-0.0,13.4,-0.0,-0.0,13.3,-0.0
0.005373962,-0.18561,13.600000000000001,-0.44546399999999997,-0.77203,13.5,-1.8528719999999999,-0.66981,13.4,-1.607544,-0.01345,13.4,-0.032279999999999996,0.00807,13.3,0.019368,-0.0,13.4,-0.0,-0.0,13.3,-0.0
0.005842133,-0.1883,13.600000000000001,-0.45192,-0.77203,13.5,-1.8528719999999999,-0.66712,13.4,-1.601088,-0.01345,13.4,-0.032279999999999996,0.00538,13.3,0.012912,-0.0,13.4,-0.0,-0.0,13.3,-0.0
0.006290808,-0.1883,13.600000000000001,-0.45192,-0.77203,13.5,-1.8528719999999999,-0.6725,13.4,-1.6139999999999999,-0.01345,13.4,-0.032279999999999996,0.01345,13.3,0.032279999999999996,-0.0,13.4,-0.0,-0.0,13.3,-0.0
0.006718148,-0.1883,13.600000000000001,-0.45192,-0.7747200000000001,13.5,-1.859328,-0.66712,13.4,-1.601088,-0.01614,13.4,-0.038736,0.0,13.3,0.0,-0.0,13.4,-0.0,-0.0,13.3,-0.0
0.007167898,-0.19368000000000002,13.600000000000001,-0.464832,-0.7639600000000001,13.5,-1.833504,-0.68057,13.4,-1.633368,-0.00807,13.4,-0.019368,0.01883,13.3,0.045191999999999996,-0.0,13.4,-0.0,-0.0,13.3,-0.0
0.007655675,-0.1883,13.600000000000001,-0.45192,-0.7639600000000001,13.5,-1.833504,-0.66981,13.4,-1.607544,-0.01076,13.4,-0.025824,0.0,13.3,0.0,-0.0,13.4,-0.0,-0.0,13.3,-0.0
0.008100409,-0.19368000000000002,13.600000000000001,-0.464832,-0.76934,13.600000000000001,-1.846416,-0.67788,13.4,-1.6269120000000001,-0.01345,13.4,-0.032279999999999996,0.00269,13.3,0.006456,-0.0,13.4,-0.0,-0.0,13.3,-0.0
0.008538702,-0.18561,13.600000000000001,-0.44546399999999997,-0.77203,13.5,-1.8528719999999999,-0.66981,13.5,-1.607544,-0.00807,13.4,-0.019368,0.01076,13.3,0.025824,-0.0,13.4,-0.0,-0.0,13.3,-0.0
0.008951376,-0.1883,13.600000000000001,-0.45192,-0.77741,13.5,-1.865784,-0.6751900000000001,13.4,-1.6204560000000001,-0.01076,13.4,-0.025824,0.01345,13.3,0.032279999999999996,-0.0,13.4,-0.0,-0.0,13.3,-0.0
0.009372009,-0.1883,13.600000000000001,-0.45192,-0.76934,13.5,-1.846416,-0.66712,13.3,-1.601088,-0.01345,13.4,-0.032279999999999996,0.0,13.3,0.0,-0.0,13.4,-0.0,-0.0,13.3,-0.0
0.00978485,-0.20175,13.600000000000001,-0.4842,-0.7801,13.5,-1.87224,-0.6725,13.4,-1.6139999999999999,-0.01614,13.4,-0.038736,0.00538,13.3,0.012912,-0.0,13.4,-0.0,-0.0,13.3,-0.0
0.010190696,-0.06994,13.700000000000001,-0.167856,-0.269,13.700000000000001,-0.6456000000000001,-0.25017,13.5,-0.6004079999999999,0.0,13.5,0.0,0.0,13.5,0.0,-0.0,13.5,-0.0,-0.0,13.5,-0.0
0.010610201,-0.05111,13.700000000000001,-0.122664,-0.26631,13.700000000000001,-0.6391439999999999,-0.28245000000000003,13.600000000000001,-0.67788,-0.01076,13.5,-0.025824,0.0,13.5,0.0,-0.0,13.5,-0.0,-0.0,13.5,-0.0
0.011022189,-0.01883,13.700000000000001,-0.045191999999999996,-0.34163,13.700000000000001,-0.819912,-0.32011,13.600000000000001,-0.768264,-0.01076,13.5,-0.025824,-0.00807,13.5,-0.019368,-0.0,13.5,-0.0,-0.0,13.5,-0.0
0.035748345,0.00538,13.700000000000001,0.012912,-0.43309000000000003,13.700000000000001,-1.0394160000000001,-0.30397,13.600000000000001,-0.7295280000000001,-0.00269,13.5,-0.006456,0.0,13.5,0.0,-0.0,13.5,-0.0,-0.0,13.5,-0.0
0.06972535,0.05111,13.700000000000001,0.122664,-0.4304,13.600000000000001,-1.0329599999999999,-0.35508,13.5,-0.852192,0.0,13.5,0.0,0.00269,13.5,0.006456,-0.0,13.5,-0.0,-0.0,13.5,-0.0
0.102737597,0.06456,13.700000000000001,0.154944,-0.36584,13.600000000000001,-0.878016,-0.30935,13.5,-0.74244,0.0,13.5,0.0,-0.01883,13.5,-0.045191999999999996,-0.0,13.5,-0.0,-0.0,13.5,-0.0
0.135574993,0.06725,13.700000000000001,0.16140000000000002,-0.36584,13.600000000000001,-0.878016,-0.33356,13.5,-0.800544,0.0,13.5,0.0,-0.02152,13.5,-0.051648,-0.0,13.5,-0.0,-0.0,13.5,-0.0
0.169674885,0.12912,13.700000000000001,0.309888,-0.35508,13.600000000000001,-0.852192,-0.36046,13.5,-0.865104,-0.00269,13.5,-0.006456,-0.02152,13.4,-0.051648,-0.0,13.5,-0.0,-0.0,13.5,-0.0
0.203233503,0.17216,13.700000000000001,0.413184,-0.36315000000000003,13.5,-0.87156,-0.37122,13.5,-0.8909279999999999,0.0,13.5,0.0,-0.01345,13.4,-0.032279999999999996,-0.0,13.5,-0.0,-0.0,13.5,-0.0
0.235673471,0.25824,13.600000000000001,0.619776,-0.36584,13.600000000000001,-0.878016,-0.36584,13.5,-0.878016,-0.00807,13.5,-0.019368,-0.04304,13.4,-0.103296,-0.0,13.5,-0.0,-0.0,13.5,-0.0
0.269969586,0.31204000000000004,13.600000000000001,0.7488960000000001,-0.36584,13.600000000000001,-0.878016,-0.41426,13.5,-0.994224,-0.00269,13.5,-0.006456,-0.04573,13.3,-0.109752,-0.0,13.4,-0.0,-0.0,13.4,-0.0
0.302676202,0.33087,13.700000000000001,0.794088,-0.32011,13.600000000000001,-0.768264,-0.41695000000000004,13.4,-1.00068,0.0,13.5,0.0,-0.04573,13.4,-0.109752,-0.0,13.4,-0.0,-0.0,13.4,-0.0
0.335662706,0.2959,13.700000000000001,0.71016,-0.31742000000000004,13.5,-0.761808,-0.40888,13.5,-0.981312,-0.01345,13.4,-0.032279999999999996,-0.03766,13.4,-0.09038399999999999,-0.0,13.4,-0.0,-0.0,13.4,-0.0
0.369583072,0.26631,13.5,0.6391439999999999,-0.31742000000000004,13.5,-0.761808,-0.46806000000000003,13.4,-1.1233440000000001,-0.00807,13.4,-0.019368,-0.05918,13.3,-0.142032,-0.0,13.4,-0.0,-0.0,13.3,-0.0
0.402624432,0.30128,13.600000000000001,0.7230719999999999,-0.31473,13.5,-0.755352,-0.47075,13.4,-1.1298,0.0,13.4,0.0,-0.08070000000000001,13.3,-0.19368000000000002,-0.0,13.3,-0.0,-0.0,13.3,-0.0
0.435573546,0.30128,13.5,0.7230719999999999,-0.33087,13.5,-0.794088,-0.52993,13.4,-1.271832,-0.00538,13.4,-0.012912,-0.07532,13.3,-0.18076799999999998,-0.0,13.3,-0.0,-0.0,13.3,-0.0
0.46964672,0.32818,13.600000000000001,0.787632,-0.31204000000000004,13.4,-0.7488960000000001,-0.52993,13.3,-1.271832,0.0,13.3,0.0,-0.06725,13.200000000000001,-0.16140000000000002,-0.0,13.3,-0.0,-0.0,13.200000000000001,-0.0
0.502710655,0.31742000000000004,13.600000000000001,0.761808,-0.30935,13.5,-0.74244,-0.56759,13.4,-1.362216,-0.00538,13.3,-0.012912,-0.07263,13.200000000000001,-0.174312,-0.0,13.200000000000001,-0.0,-0.0,13.200000000000001,-0.0
0.535622162,0.32011,13.5,0.768264,-0.29321,13.5,-0.703704,-0.5649000000000001,13.4,-1.35576,-0.00538,13.3,-0.012912,-0.09415,13.100000000000001,-0.22596,-0.0,13.200000000000001,-0.0,-0.0,13.200000000000001,-0.0
0.569550167,0.32549,13.600000000000001,0.781176,-0.30397,13.4,-0.7295280000000001,-0.55683,13.3,-1.336392,-0.01076,13.3,-0.025824,-0.09146,13.200000000000001,-0.219504,-0.0,13.200000000000001,-0.0,-0.0,13.200000000000001,-0.0
0.602509086,0.36584,13.5,0.878016,-0.27707000000000004,13.4,-0.6649680000000001,-0.60256,13.3,-1.4461439999999999,0.0,13.200000000000001,0.0,-0.09146,13.100000000000001,-0.219504,-0.0,13.200000000000001,-0.0,-0.0,13.200000000000001,-0.0
0.63551466,0.35239000000000004,13.5,0.845736,-0.31204000000000004,13.4,-0.7488960000000001,-0.65098,13.3,-1.562352,-0.00538,13.3,-0.012912,-0.10491,13.200000000000001,-0.251784,-0.0,13.100000000000001,-0.0,-0.0,13.200000000000001,-0.0
0.669616857,0.35777000000000003,13.5,0.8586480000000001,-0.34163,13.4,-0.819912,-0.66981,13.200000000000001,-1.607544,0.00538,13.200000000000001,0.012912,-0.07532,13.0,-0.18076799999999998,-0.0,13.100000000000001,-0.0,-0.0,13.100000000000001,-0.0
0.70252284,0.3766,13.5,0.90384,-0.30397,13.3,-0.7295280000000001,-0.6859500000000001,13.200000000000001,-1.6462800000000002,0.00538,13.200000000000001,0.012912,-0.13719,13.100000000000001,-0.329256,-0.0,13.100000000000001,-0.0,-0.0,13.0,-0.0
0.735511061,0.33894,13.4,0.8134560000000001,-0.33356,13.3,-0.800544,-0.72092,13.100000000000001,-1.730208,-0.02152,13.200000000000001,-0.051648,-0.07532,13.0,-0.18076799999999998,-0.0,13.0,-0.0,-0.0,13.100000000000001,-0.0
0.769450652,0.34701000000000004,13.4,0.8328240000000001,-0.34432,13.3,-0.826368,-0.68326,13.200000000000001,-1.639824,-0.01076,13.200000000000001,-0.025824,-0.06456,13.0,-0.154944,-0.0,13.0,-0.0,-0.0,13.100000000000001,-0.0
0.802514885,0.38198000000000004,13.3,0.916752,-0.30935,13.3,-0.74244,-0.7532,13.200000000000001,-1.80768,0.00807,13.100000000000001,0.019368,-0.10222,12.9,-0.245328,-0.0,12.9,-0.0,-0.0,13.0,-0.0
0.83545873,0.40619,13.5,0.974856,-0.33087,13.200000000000001,-0.794088,-0.7155400000000001,13.200000000000001,-1.7172960000000002,0.0,13.100000000000001,0.0,-0.1076,13.0,-0.25823999999999997,-0.0,13.0,-0.0,-0.0,13.0,-0.0
0.869831946,0.37391,13.3,0.8973840000000001,-0.29052,13.200000000000001,-0.697248,-0.6456000000000001,13.100000000000001,-1.5494400000000002,-0.01345,13.100000000000001,-0.032279999999999996,-0.07801000000000001,13.0,-0.18722400000000003,-0.0,13.0,-0.0,-0.0,13.0,-0.0
0.902534381,0.42771000000000003,13.4,1.026504,-0.30128,13.200000000000001,-0.7230719999999999,-0.68057,13.100000000000001,-1.633368,0.0,13.0,0.0,-0.15333,12.9,-0.367992,-0.0,12.9,-0.0,-0.0,12.9,-0.0
0.935607661,0.37929,13.3,0.910296,-0.32818,13.200000000000001,-0.787632,-0.6644300000000001,13.100000000000001,-1.594632,-0.00269,13.0,-0.006456,-0.09953000000000001,12.9,-0.238872,-0.0,12.9,-0.0,0.00269,13.0,0.006456
0.969455779,0.35777000000000003,13.4,0.8586480000000001,-0.30666,13.200000000000001,-0.735984,-0.70747,13.100000000000001,-1.697928,0.0,13.100000000000001,0.0,-0.06456,12.9,-0.154944,-0.0,12.9,-0.0,-0.0,13.0,-0.0
1.002502544,0.38467,13.3,0.923208,-0.29859,13.200000000000001,-0.716616,-0.73975,13.100000000000001,-1.7754,-0.00269,13.0,-0.006456,-0.1076,12.9,-0.25823999999999997,-0.0,12.9,-0.0,-0.0,12.9,-0.0
1.035475202,0.39812000000000003,13.3,0.955488,-0.27438,13.200000000000001,-0.658512,-0.7047800000000001,13.100000000000001,-1.691472,0.0,13.100000000000001,0.0,-0.09146,12.9,-0.219504,-0.0,12.9,-0.0,-0.0,13.0,-0.0
1.069427612,0.36046,13.4,0.865104,-0.31204000000000004,13.200000000000001,-0.7488960000000001,-0.65636,13.100000000000001,-1.575264,-0.01345,13.100000000000001,-0.032279999999999996,-0.08877,12.9,-0.213048,-0.0,12.9,-0.0,-0.0,12.9,-0.0
1.102430651,0.41157,13.3,0.987768,-0.2959,13.200000000000001,-0.71016,-0.6456000000000001,13.100000000000001,-1.5494400000000002,0.0,13.100000000000001,0.0,-0.08339,12.9,-0.200136,-0.0,12.9,-0.0,-0.0,12.9,-0.0
1.135443374,0.41157,13.4,0.987768,-0.31473,13.100000000000001,-0.755352,-0.63215,13.100000000000001,-1.5171599999999998,0.0,13.100000000000001,0.0,-0.10491,13.0,-0.251784,-0.0,12.9,-0.0,-0.0,12.9,-0.0
1.169430505,0.40619,13.3,0.974856,-0.33625,13.3,-0.8069999999999999,-0.65905,13.100000000000001,-1.58172,0.0,13.100000000000001,0.0,-0.09146,12.9,-0.219504,-0.0,12.9,-0.0,-0.0,12.9,-0.0
1.202496802,0.41964,13.4,1.007136,-0.29859,13.200000000000001,-0.716616,-0.6456000000000001,13.100000000000001,-1.5494400000000002,0.0,13.0,0.0,-0.10222,12.9,-0.245328,-0.0,12.9,-0.0,-0.0,12.9,-0.0
1.235371467,0.41426,13.3,0.994224,-0.37929,13.3,-0.910296,-0.6160100000000001,13.0,-1.4784240000000002,0.0,13.100000000000001,0.0,-0.07801000000000001,12.9,-0.18722400000000003,-0.0,12.9,-0.0,-0.0,12.9,-0.0
1.269619814,0.40619,13.4,0.974856,-0.35239000000000004,13.200000000000001,-0.845736,-0.61063,13.100000000000001,-1.465512,-0.01614,13.100000000000001,-0.038736,-0.09415,12.9,-0.22596,-0.0,13.0,-0.0,-0.0,12.9,-0.0
1.302343887,0.44385,13.200000000000001,1.06524,-0.32011,13.3,-0.768264,-0.64022,13.100000000000001,-1.536528,-0.02152,13.0,-0.051648,-0.09953000000000001,12.9,-0.238872,-0.0,12.9,-0.0,-0.0,12.9,-0.0
1.335446328,0.44923,13.3,1.078152,-0.32011,13.200000000000001,-0.768264,-0.6644300000000001,13.100000000000001,-1.594632,0.0,13.0,0.0,-0.11836,12.9,-0.284064,-0.0,12.9,-0.0,-0.0,12.9,-0.0
1.369370028,0.40888,13.3,0.981312,-0.33087,13.200000000000001,-0.794088,-0.71285,13.0,-1.71084,0.0,13.100000000000001,0.0,-0.06725,13.0,-0.16140000000000002,-0.0,12.9,-0.0,-0.0,12.9,-0.0
1.402390016,0.44385,13.3,1.06524,-0.34701000000000004,13.200000000000001,-0.8328240000000001,-0.7236100000000001,13.0,-1.7366640000000002,-0.00269,13.0,-0.006456,-0.09684000000000001,12.9,-0.232416,-0.0,12.9,-0.0,-0.0,12.9,-0.0
1.435431218,0.42233000000000004,13.5,1.013592,-0.30397,13.200000000000001,-0.7295280000000001,-0.68326,13.100000000000001,-1.639824,-0.01883,13.0,-0.045191999999999996,-0.09415,12.8,-0.22596,-0.0,12.9,-0.0,-0.0,12.9,-0.0
1.469426039,0.41157,13.3,0.987768,-0.2959,13.200000000000001,-0.71016,-0.6859500000000001,13.100000000000001,-1.6462800000000002,-0.01614,13.100000000000001,-0.038736,-0.09146,12.9,-0.219504,-0.0,12.9,-0.0,-0.0,12.9,-0.0
1.502368474,0.44385,13.3,1.06524,-0.28783000000000003,13.100000000000001,-0.6907920000000001,-0.69671,13.100000000000001,-1.672104,-0.01345,13.0,-0.032279999999999996,-0.11298000000000001,12.9,-0.271152,-0.0,12.9,-0.0,-0.0,12.8,-0.0
1.535314657,0.44116,13.3,1.058784,-0.34701000000000004,13.200000000000001,-0.8328240000000001,-0.6751900000000001,13.0,-1.6204560000000001,0.0,13.100000000000001,0.0,-0.07263,12.9,-0.174312,-0.0,12.9,-0.0,-0.0,12.9,-0.0
1.569313825,0.44116,13.4,1.058784,-0.32280000000000003,13.200000000000001,-0.7747200000000001,-0.66712,13.0,-1.601088,0.0,13.0,0.0,-0.09684000000000001,12.9,-0.232416,-0.0,12.9,-0.0,-0.0,12.9,-0.0
1.60246742,0.47344,13.3,1.136256,-0.35777000000000003,13.200000000000001,-0.8586480000000001,-0.6859500000000001,13.0,-1.6462800000000002,-0.024210000000000002,13.0,-0.058104,-0.09684000000000001,12.9,-0.232416,-0.0,12.9,-0.0,-0.0,12.9,-0.0
1.635278555,0.44923,13.4,1.078152,-0.35239000000000004,13.200000000000001,-0.845736,-0.66712,13.100000000000001,-1.601088,-0.00538,13.100000000000001,-0.012912,-0.10491,12.9,-0.251784,-0.0,12.9,-0.0,-0.0,12.9,-0.0
1.669221299,0.43309000000000003,13.3,1.0394160000000001,-0.37391,13.200000000000001,-0.8973840000000001,-0.66712,13.0,-1.601088,-0.00538,13.100000000000001,-0.012912,-0.08339,12.9,-0.200136,-0.0,12.9,-0.0,-0.0,12.9,-0.0
1.702348395,0.47882,13.3,1.149168,-0.38736000000000004,13.100000000000001,-0.929664,-0.74244,13.100000000000001,-1.7818559999999999,-0.01614,12.9,-0.038736,-0.11029,12.9,-0.264696,-0.0,12.9,-0.0,-0.0,12.9,-0.0
1.736189386,0.44923,13.3,1.078152,-0.34432,13.200000000000001,-0.826368,-0.6994,13.0,-1.67856,-0.00538,13.100000000000001,-0.012912,-0.10222,12.9,-0.245328,-0.0,12.9,-0.0,0.00269,12.9,0.006456
1.769192713,0.45461,13.3,1.091064,-0.34701000000000004,13.100000000000001,-0.8328240000000001,-0.6751900000000001,13.100000000000001,-1.6204560000000001,0.0,13.0,0.0,-0.16678,12.9,-0.400272,-0.0,12.9,-0.0,0.00269,12.9,0.006456
1.802186254,0.44654,13.3,1.071696,-0.31204000000000004,13.200000000000001,-0.7488960000000001,-0.69133,13.0,-1.659192,0.0,13.0,0.0,-0.10222,12.8,-0.245328,-0.0,12.9,-0.0,-0.0,12.9,-0.0
1.836163145,0.42771000000000003,13.3,1.026504,-0.29859,13.200000000000001,-0.716616,-0.68057,13.100000000000001,-1.633368,-0.00269,13.0,-0.006456,-0.11029,12.9,-0.264696,-0.0,12.9,-0.0,-0.0,12.9,-0.0
1.869279521,0.46268000000000004,13.3,1.110432,-0.2959,13.200000000000001,-0.71016,-0.61332,13.100000000000001,-1.471968,-0.01883,13.100000000000001,-0.045191999999999996,-0.1345,12.9,-0.32280000000000003,-0.0,12.9,-0.0,-0.0,12.9,-0.0
1.902126447,0.44654,13.3,1.071696,-0.34163,13.200000000000001,-0.819912,-0.64291,13.100000000000001,-1.542984,-0.01883,13.0,-0.045191999999999996,-0.1345,12.9,-0.32280000000000003,-0.0,12.9,-0.0,-0.0,12.9,-0.0
1.936094373,0.44385,13.3,1.06524,-0.34432,13.200000000000001,-0.826368,-0.72092,13.100000000000001,-1.730208,-0.00807,13.0,-0.019368,-0.12374,12.9,-0.296976,-0.0,12.9,-0.0,0.00269,12.9,0.006456
1.969015211,0.46806000000000003,13.3,1.1233440000000001,-0.36584,13.200000000000001,-0.878016,-0.68864,13.100000000000001,-1.652736,-0.00538,13.0,-0.012912,-0.13719,12.9,-0.329256,-0.0,12.8,-0.0,-0.0,12.9,-0.0
2.002198349,0.42771000000000003,13.200000000000001,1.026504,-0.36853,13.100000000000001,-0.884472,-0.6994,13.0,-1.67856,-0.00807,13.0,-0.019368,-0.11567000000000001,12.9,-0.277608,-0.0,12.9,-0.0,-0.0,12.9,-0.0
2.036105814,0.4304,13.3,1.0329599999999999,-0.3497,13.200000000000001,-0.83928,-0.65367,13.100000000000001,-1.568808,-0.024210000000000002,13.0,-0.058104,-0.11029,12.8,-0.264696,-0.0,12.9,-0.0,0.00269,12.9,0.006456
2.069050802,0.45192000000000004,13.4,1.084608,-0.36315000000000003,13.200000000000001,-0.87156,-0.66174,13.0,-1.588176,0.0,13.0,0.0,-0.16947,12.9,-0.40672800000000003,-0.0,12.8,-0.0,0.00269,12.9,0.006456
2.102048703,0.4304,13.3,1.0329599999999999,-0.33087,13.200000000000001,-0.794088,-0.69133,13.100000000000001,-1.659192,-0.0269,13.100000000000001,-0.06455999999999999,-0.1345,12.9,-0.32280000000000003,-0.0,12.9,-0.0,0.00269,12.9,0.006456
2.136172603,0.41695000000000004,13.4,1.00068,-0.37122,13.200000000000001,-0.8909279999999999,-0.67788,13.100000000000001,-1.6269120000000001,-0.01345,13.0,-0.032279999999999996,-0.12912,12.9,-0.309888,-0.0,12.9,-0.0,0.00269,12.9,0.006456
2.169176255,0.42233000000000004,13.3,1.013592,-0.34701000000000004,13.200000000000001,-0.8328240000000001,-0.67788,13.100000000000001,-1.6269120000000001,-0.00807,13.0,-0.019368,-0.14795,12.9,-0.35508,-0.0,12.9,-0.0,0.00269,12.9,0.006456
2.202134811,0.42771000000000003,13.4,1.026504,-0.30935,13.200000000000001,-0.74244,-0.73168,13.100000000000001,-1.756032,-0.01345,13.0,-0.032279999999999996,-0.15602000000000002,12.9,-0.37444800000000006,-0.0,12.9,-0.0,0.00538,12.9,0.012912
2.236064279,0.41157,13.3,0.987768,-0.31473,13.200000000000001,-0.755352,-0.71823,13.0,-1.723752,-0.024210000000000002,13.0,-0.058104,-0.12105,12.9,-0.29052,-0.0,12.9,-0.0,0.00538,12.9,0.012912
2.269179829,0.42771000000000003,13.4,1.026504,-0.29321,13.200000000000001,-0.703704,-0.7236100000000001,13.100000000000001,-1.7366640000000002,-0.01345,13.100000000000001,-0.032279999999999996,-0.12105,12.9,-0.29052,-0.0,12.8,-0.0,0.00538,12.9,0.012912
2.30213758,0.40888,13.3,0.981312,-0.33087,13.200000000000001,-0.794088,-0.7155400000000001,13.0,-1.7172960000000002,-0.02152,13.0,-0.051648,-0.1345,12.8,-0.32280000000000003,-0.0,12.9,-0.0,0.00538,12.9,0.012912
2.336154256,0.39543,13.3,0.949032,-0.33356,13.3,-0.800544,-0.7155400000000001,13.100000000000001,-1.7172960000000002,-0.02959,13.0,-0.071016,-0.10222,12.9,-0.245328,-0.0,12.9,-0.0,0.00538,12.8,0.012912
2.369111591,0.42502,13.3,1.020048,-0.35239000000000004,13.100000000000001,-0.845736,-0.7047800000000001,13.100000000000001,-1.691472,-0.00538,13.0,-0.012912,-0.13181,12.8,-0.316344,-0.0,12.9,-0.0,0.00538,12.8,0.012912
2.40222757,0.41695000000000004,13.3,1.00068,-0.33356,13.200000000000001,-0.800544,-0.6994,13.100000000000001,-1.67856,-0.03228,13.100000000000001,-0.077472,-0.13719,12.9,-0.329256,-0.0,12.9,-0.0,0.00538,12.9,0.012912
2.436131928,0.36584,13.4,0.878016,-0.35239000000000004,13.200000000000001,-0.845736,-0.7263000000000001,13.100000000000001,-1.74312,-0.01883,13.0,-0.045191999999999996,-0.09953000000000001,12.9,-0.238872,-0.0,12.9,-0.0,0.00538,12.9,0.012912
2.469100559,0.39274000000000003,13.3,0.9425760000000001,-0.33356,13.200000000000001,-0.800544,-0.72092,13.100000000000001,-1.730208,-0.01883,13.100000000000001,-0.045191999999999996,-0.12105,12.9,-0.29052,-0.0,12.9,-0.0,0.00538,12.8,0.012912
2.502059104,0.38198000000000004,13.3,0.916752,-0.33625,13.200000000000001,-0.8069999999999999,-0.72092,13.100000000000001,-1.730208,-0.02959,13.100000000000001,-0.071016,-0.11567000000000001,12.9,-0.277608,-0.0,12.9,-0.0,0.00538,12.9,0.012912
2.536057678,0.34701000000000004,13.200000000000001,0.8328240000000001,-0.36853,13.3,-0.884472,-0.68864,13.0,-1.652736,-0.02959,13.0,-0.071016,-0.10491,12.9,-0.251784,-0.0,12.9,-0.0,0.00538,12.9,0.012912
2.569085106,0.37391,13.3,0.8973840000000001,-0.32011,13.200000000000001,-0.768264,-0.68326,13.0,-1.639824,-0.01345,13.0,-0.032279999999999996,-0.12912,12.9,-0.309888,-0.0,12.9,-0.0,0.00538,12.9,0.012912
2.602123319,0.37391,13.3,0.8973840000000001,-0.32549,13.200000000000001,-0.781176,-0.69671,13.100000000000001,-1.672104,-0.01345,13.0,-0.032279999999999996,-0.09684000000000001,12.9,-0.232416,-0.0,12.9,-0.0,0.00538,12.9,0.012912
2.636140392,0.36853,13.3,0.884472,-0.34163,13.200000000000001,-0.819912,-0.7343700000000001,13.100000000000001,-1.762488,-0.01076,13.100000000000001,-0.025824,-0.10491,12.9,-0.251784,-0.0,12.9,-0.0,0.00538,12.9,0.012912
2.669090916,0.38736000000000004,13.3,0.929664,-0.33087,13.200000000000001,-0.794088,-0.6994,13.0,-1.67856,-0.02152,13.0,-0.051648,-0.12105,12.9,-0.29052,-0.0,12.9,-0.0,0.00538,12.9,0.012912
2.702080158,0.37391,13.4,0.8973840000000001,-0.36584,13.200000000000001,-0.878016,-0.6994,13.100000000000001,-1.67856,-0.01345,13.0,-0.032279999999999996,-0.11567000000000001,12.9,-0.277608,-0.0,12.9,-0.0,0.00538,12.9,0.012912
2.736182151,0.35508,13.4,0.852192,-0.36046,13.200000000000001,-0.865104,-0.70747,13.100000000000001,-1.697928,-0.03228,13.0,-0.077472,-0.09684000000000001,13.0,-0.232416,-0.0,12.9,-0.0,0.00538,12.9,0.012912
2.769096217,0.37391,13.4,0.8973840000000001,-0.33894,13.200000000000001,-0.8134560000000001,-0.70209,13.100000000000001,-1.6850159999999998,-0.01883,13.0,-0.045191999999999996,-0.12105,12.9,-0.29052,-0.0,12.8,-0.0,0.00538,12.9,0.012912
2.802040139,0.37391,13.3,0.8973840000000001,-0.2959,13.200000000000001,-0.71016,-0.70747,13.100000000000001,-1.697928,-0.01883,13.0,-0.045191999999999996,-0.11029,12.9,-0.264696,-0.0,12.8,-0.0,0.00538,12.9,0.012912
2.836001767,0.32818,13.3,0.787632,-0.35239000000000004,13.3,-0.845736,-0.66981,13.100000000000001,-1.607544,-0.01883,13.100000000000001,-0.045191999999999996,-0.10491,12.9,-0.251784,-0.0,12.9,-0.0,0.00538,12.9,0.012912
2.869021908,0.35239000000000004,13.200000000000001,0.845736,-0.35239000000000004,13.200000000000001,-0.845736,-0.65905,13.100000000000001,-1.58172,-0.01614,13.0,-0.038736,-0.13719,12.9,-0.329256,-0.0,12.9,-0.0,0.00538,12.9,0.012912
2.902068231,0.3497,13.3,0.83928,-0.37929,13.200000000000001,-0.910296,-0.68326,13.100000000000001,-1.639824,-0.0269,13.100000000000001,-0.06455999999999999,-0.11029,12.9,-0.264696,-0.0,12.9,-0.0,-0.0,12.9,-0.0
2.935949092,0.34163,13.3,0.819912,-0.38736000000000004,13.200000000000001,-0.929664,-0.70209,13.0,-1.6850159999999998,-0.03228,13.100000000000001,-0.077472,-0.08070000000000001,12.9,-0.19368000000000002,-0.0,12.9,-0.0,-0.0,12.9,-0.0
2.968968292,0.36046,13.3,0.865104,-0.37929,13.200000000000001,-0.910296,-0.7236100000000001,13.0,-1.7366640000000002,-0.03766,13.100000000000001,-0.09038399999999999,-0.12643000000000001,12.9,-0.30343200000000004,-0.0,12.9,-0.0,-0.0,12.9,-0.0
3.001984516,0.33356,13.4,0.800544,-0.36315000000000003,13.200000000000001,-0.87156,-0.76127,13.100000000000001,-1.827048,-0.0269,13.0,-0.06455999999999999,-0.12643000000000001,12.9,-0.30343200000000004,-0.0,12.9,-0.0,-0.0,12.9,-0.0
3.035921277,0.33087,13.3,0.794088,-0.34701000000000004,13.200000000000001,-0.8328240000000001,-0.7639600000000001,13.100000000000001,-1.833504,-0.03497,13.0,-0.083928,-0.09415,12.8,-0.22596,-0.0,12.9,-0.0,0.00269,12.9,0.006456
3.069091959,0.34432,13.3,0.826368,-0.36853,13.200000000000001,-0.884472,-0.75858,13.0,-1.820592,-0.040350000000000004,13.0,-0.09684000000000001,-0.12105,12.9,-0.29052,-0.0,12.9,-0.0,0.00269,12.9,0.006456
3.102880956,0.33087,13.3,0.794088,-0.39812000000000003,13.200000000000001,-0.955488,-0.7236100000000001,13.0,-1.7366640000000002,-0.024210000000000002,13.100000000000001,-0.058104,-0.11298000000000001,12.9,-0.271152,-0.0,12.9,-0.0,0.00269,13.0,0.006456
3.13589495,0.32549,13.4,0.781176,-0.37122,13.3,-0.8909279999999999,-0.6994,13.100000000000001,-1.67856,-0.0269,13.0,-0.06455999999999999,-0.14795,12.9,-0.35508,-0.0,12.9,-0.0,0.00269,12.9,0.006456
3.169525923,0.31742000000000004,13.4,0.761808,-0.39274000000000003,13.3,-0.9425760000000001,-0.72092,13.100000000000001,-1.730208,-0.024210000000000002,13.100000000000001,-0.058104,-0.08877,12.9,-0.213048,-0.0,13.0,-0.0,-0.0,12.9,-0.0
3.202868742,0.2959,13.4,0.71016,-0.3497,13.200000000000001,-0.83928,-0.77741,13.200000000000001,-1.865784,-0.02959,13.100000000000001,-0.071016,-0.1076,13.0,-0.25823999999999997,-0.0,12.9,-0.0,-0.0,13.0,-0.0
3.235779273,0.28783000000000003,13.3,0.6907920000000001,-0.36315000000000003,13.3,-0.87156,-0.74244,13.200000000000001,-1.7818559999999999,-0.03497,13.100000000000001,-0.083928,-0.12105,13.0,-0.29052,-0.0,12.9,-0.0,0.00269,13.0,0.006456
3.269162366,0.25824,13.5,0.619776,-0.38467,13.3,-0.923208,-0.70747,13.200000000000001,-1.697928,-0.02959,13.100000000000001,-0.071016,-0.09146,13.0,-0.219504,-0.0,13.0,-0.0,-0.0,13.0,-0.0
3.302814718,0.26631,13.4,0.6391439999999999,-0.34163,13.3,-0.819912,-0.7047800000000001,13.100000000000001,-1.691472,-0.02959,13.100000000000001,-0.071016,-0.07801000000000001,13.0,-0.18722400000000003,-0.0,13.0,-0.0,-0.0,13.0,-0.0
3.336264081,0.27707000000000004,13.4,0.6649680000000001,-0.36584,13.3,-0.878016,-0.69671,13.200000000000001,-1.672104,-0.040350000000000004,13.200000000000001,-0.09684000000000001,-0.09146,13.0,-0.219504,-0.0,13.0,-0.0,-0.0,13.100000000000001,-0.0
3.368900726,0.27169,13.4,0.652056,-0.38736000000000004,13.4,-0.929664,-0.7155400000000001,13.200000000000001,-1.7172960000000002,-0.048420000000000005,13.100000000000001,-0.116208,-0.07801000000000001,13.0,-0.18722400000000003,-0.0,13.0,-0.0,-0.0,13.0,-0.0
3.402871295,0.25555,13.5,0.61332,-0.3497,13.4,-0.83928,-0.74244,13.200000000000001,-1.7818559999999999,-0.04304,13.200000000000001,-0.103296,-0.07532,13.100000000000001,-0.18076799999999998,-0.0,13.100000000000001,-0.0,-0.0,13.100000000000001,-0.0
3.435912108,0.25286000000000003,13.5,0.6068640000000001,-0.40081,13.4,-0.9619439999999999,-0.77203,13.200000000000001,-1.8528719999999999,-0.05918,13.200000000000001,-0.142032,-0.08608,13.100000000000001,-0.206592,-0.0,13.100000000000001,-0.0,-0.0,13.100000000000001,-0.0
3.468870733,0.25555,13.5,0.61332,-0.37391,13.4,-0.8973840000000001,-0.7801,13.200000000000001,-1.87224,-0.05111,13.200000000000001,-0.122664,-0.06725,13.100000000000001,-0.16140000000000002,-0.0,13.100000000000001,-0.0,-0.0,13.100000000000001,-0.0
3.502959685,0.22327,13.5,0.535848,-0.41695000000000004,13.4,-1.00068,-0.73168,13.3,-1.756032,-0.06725,13.200000000000001,-0.16140000000000002,-0.08070000000000001,13.100000000000001,-0.19368000000000002,-0.0,13.200000000000001,-0.0,-0.0,13.100000000000001,-0.0
3.535844842,0.23134000000000002,13.5,0.555216,-0.35777000000000003,13.4,-0.8586480000000001,-0.7747200000000001,13.3,-1.859328,-0.048420000000000005,13.200000000000001,-0.116208,-0.08070000000000001,13.200000000000001,-0.19368000000000002,-0.0,13.200000000000001,-0.0,-0.0,13.200000000000001,-0.0
3.568755869,0.1883,13.600000000000001,0.45192,-0.41695000000000004,13.5,-1.00068,-0.71016,13.3,-1.704384,-0.056490000000000005,13.3,-0.135576,-0.048420000000000005,13.200000000000001,-0.116208,-0.0,13.200000000000001,-0.0,-0.0,13.200000000000001,-0.0
3.602866762,0.20444,13.5,0.490656,-0.36046,13.5,-0.865104,-0.6644300000000001,13.3,-1.594632,-0.048420000000000005,13.3,-0.116208,-0.05111,13.200000000000001,-0.122664,-0.0,13.200000000000001,-0.0,-0.0,13.200000000000001,-0.0
3.63566053,0.18561,13.600000000000001,0.44546399999999997,-0.37391,13.5,-0.8973840000000001,-0.68326,13.4,-1.639824,-0.05111,13.3,-0.122664,-0.05918,13.200000000000001,-0.142032,-0.0,13.200000000000001,-0.0,-0.0,13.3,-0.0
3.668647749,0.20713,13.600000000000001,0.497112,-0.36584,13.5,-0.878016,-0.71285,13.4,-1.71084,-0.0538,13.3,-0.12911999999999998,-0.03497,13.3,-0.083928,-0.0,13.3,-0.0,-0.0,13.200000000000001,-0.0
3.702675586,0.17216,13.600000000000001,0.413184,-0.32818,13.5,-0.787632,-0.76934,13.3,-1.846416,-0.05918,13.4,-0.142032,-0.03497,13.3,-0.083928,-0.0,13.3,-0.0,-0.0,13.3,-0.0
3.735628923,0.19099000000000002,13.600000000000001,0.458376,-0.35239000000000004,13.5,-0.845736,-0.74782,13.4,-1.7947680000000001,-0.056490000000000005,13.4,-0.135576,-0.056490000000000005,13.200000000000001,-0.135576,-0.0,13.3,-0.0,-0.0,13.3,-0.0
3.768792101,0.19637000000000002,13.5,0.47128800000000004,-0.35777000000000003,13.4,-0.8586480000000001,-0.71823,13.4,-1.723752,-0.040350000000000004,13.4,-0.09684000000000001,-0.02959,13.3,-0.071016,-0.0,13.3,-0.0,-0.0,13.3,-0.0
3.802715267,0.16409,13.600000000000001,0.393816,-0.36046,13.5,-0.865104,-0.76665,13.4,-1.83996,-0.04573,13.4,-0.109752,-0.00538,13.3,-0.012912,-0.0,13.3,-0.0,-0.0,13.3,-0.0
3.835817988,0.16140000000000002,13.600000000000001,0.38736000000000004,-0.35508,13.5,-0.852192,-0.76127,13.4,-1.827048,-0.06187,13.4,-0.148488,-0.024210000000000002,13.3,-0.058104,-0.0,13.3,-0.0,-0.0,13.3,-0.0
3.86975879,0.14257,13.600000000000001,0.34216799999999997,-0.36046,13.5,-0.865104,-0.7747200000000001,13.4,-1.859328,-0.07532,13.4,-0.18076799999999998,-0.01076,13.3,-0.025824,-0.0,13.3,-0.0,-0.0,13.3,-0.0
3.902647646,0.13181,13.600000000000001,0.316344,-0.35239000000000004,13.5,-0.845736,-0.76127,13.4,-1.827048,-0.03766,13.4,-0.09038399999999999,-0.00807,13.3,-0.019368,-0.0,13.4,-0.0,-0.0,13.3,-0.0
3.935704275,0.13719,13.600000000000001,0.329256,-0.36046,13.5,-0.865104,-0.77741,13.3,-1.865784,-0.05111,13.4,-0.122664,0.0,13.3,0.0,-0.0,13.4,-0.0,-0.0,13.3,-0.0
3.969491588,0.1345,13.600000000000001,0.32280000000000003,-0.36046,13.5,-0.865104,-0.76127,13.4,-1.827048,-0.06456,13.4,-0.154944,0.0,13.4,0.0,-0.0,13.4,-0.0,-0.0,13.4,-0.0
4.002656801,0.1345,13.600000000000001,0.32280000000000003,-0.36315000000000003,13.5,-0.87156,-0.81238,13.4,-1.949712,-0.06725,13.4,-0.16140000000000002,-0.00269,13.4,-0.006456,-0.0,13.4,-0.0,-0.0,13.4,-0.0
4.035786679,0.12105,13.600000000000001,0.29052,-0.35777000000000003,13.600000000000001,-0.8586480000000001,-0.8150700000000001,13.5,-1.9561680000000001,-0.06456,13.4,-0.154944,0.0,13.4,0.0,-0.0,13.4,-0.0,0.00269,13.4,0.006456
4.069695062,0.12912,13.600000000000001,0.309888,-0.36315000000000003,13.5,-0.87156,-0.81238,13.5,-1.949712,-0.056490000000000005,13.4,-0.135576,0.0,13.4,0.0,-0.0,13.4,-0.0,-0.0,13.4,-0.0
4.102774593,0.13181,13.600000000000001,0.316344,-0.35508,13.5,-0.852192,-0.81238,13.4,-1.949712,-0.06725,13.4,-0.16140000000000002,0.0,13.4,0.0,-0.0,13.4,-0.0,0.00269,13.4,0.006456
4.135642011,0.13988,13.600000000000001,0.335712,-0.36315000000000003,13.5,-0.87156,-0.81238,13.5,-1.949712,-0.05111,13.4,-0.122664,-0.00269,13.4,-0.006456,-0.0,13.4,-0.0,-0.0,13.4,-0.0
4.169663587,0.13988,13.600000000000001,0.335712,-0.35777000000000003,13.5,-0.8586480000000001,-0.81776,13.5,-1.962624,-0.040350000000000004,13.4,-0.09684000000000001,-0.00269,13.4,-0.006456,-0.0,13.4,-0.0,-0.0,13.4,-0.0
4.203304122,0.14257,13.600000000000001,0.34216799999999997,-0.35777000000000003,13.5,-0.8586480000000001,-0.81238,13.5,-1.949712,-0.05111,13.4,-0.122664,-0.00269,13.4,-0.006456,-0.0,13.4,-0.0,-0.0,13.4,-0.0
4.235956087,0.13181,13.600000000000001,0.316344,-0.36315000000000003,13.5,-0.87156,-0.8150700000000001,13.4,-1.9561680000000001,-0.04304,13.4,-0.103296,-0.00538,13.4,-0.012912,-0.0,13.4,-0.0,-0.0,13.4,-0.0
4.270047959,0.14526,13.600000000000001,0.348624,-0.36315000000000003,13.600000000000001,-0.87156,-0.81238,13.4,-1.949712,-0.06456,13.4,-0.154944,-0.00269,13.4,-0.006456,-0.0,13.4,-0.0,-0.0,13.4,-0.0
4.30253736,0.14257,13.600000000000001,0.34216799999999997,-0.36046,13.600000000000001,-0.865104,-0.81776,13.4,-1.962624,-0.03766,13.4,-0.09038399999999999,-0.00538,13.4,-0.012912,-0.0,13.4,-0.0,-0.0,13.4,-0.0
4.335491621,0.14795,13.600000000000001,0.35508,-0.36315000000000003,13.5,-0.87156,-0.81238,13.4,-1.949712,-0.06456,13.4,-0.154944,-0.00538,13.4,-0.012912,-0.0,13.4,-0.0,-0.0,13.4,-0.0
4.369737392,0.12912,13.600000000000001,0.309888,-0.36584,13.5,-0.878016,-0.81238,13.4,-1.949712,-0.0538,13.4,-0.12911999999999998,-0.00538,13.4,-0.012912,-0.0,13.4,-0.0,0.00269,13.4,0.006456
4.402635246,0.12374,13.600000000000001,0.296976,-0.36046,13.600000000000001,-0.865104,-0.82045,13.4,-1.96908,-0.03497,13.4,-0.083928,-0.00807,13.4,-0.019368,-0.0,13.4,-0.0,-0.0,13.4,-0.0
4.435512567,0.14257,13.600000000000001,0.34216799999999997,-0.36046,13.5,-0.865104,-0.81238,13.3,-1.949712,-0.06994,13.4,-0.167856,-0.00538,13.4,-0.012912,-0.0,13.4,-0.0,-0.0,13.4,-0.0
4.469594577,0.12374,13.600000000000001,0.296976,-0.34432,13.5,-0.826368,-0.81238,13.4,-1.949712,-0.0538,13.4,-0.12911999999999998,-0.00807,13.4,-0.019368,-0.0,13.4,-0.0,-0.0,13.4,-0.0
4.502533417,0.12374,13.600000000000001,0.296976,-0.36315000000000003,13.5,-0.87156,-0.81238,13.3,-1.949712,-0.04573,13.4,-0.109752,-0.00538,13.4,-0.012912,-0.0,13.4,-0.0,-0.0,13.4,-0.0
4.535475457,0.12374,13.600000000000001,0.296976,-0.36315000000000003,13.5,-0.87156,-0.82314,13.4,-1.975536,-0.05918,13.4,-0.142032,-0.00807,13.4,-0.019368,-0.0,13.4,-0.0,-0.0,13.4,-0.0
4.569495597,0.12374,13.600000000000001,0.296976,-0.36315000000000003,13.5,-0.87156,-0.81238,13.4,-1.949712,-0.0538,13.4,-0.12911999999999998,-0.00269,13.4,-0.006456,-0.0,13.4,-0.0,-0.0,13.4,-0.0
4.602470127,0.12374,13.600000000000001,0.296976,-0.35239000000000004,13.5,-0.845736,-0.81238,13.4,-1.949712,-0.06994,13.4,-0.167856,-0.00538,13.4,-0.012912,-0.0,13.4,-0.0,-0.0,13.4,-0.0
4.636447973,0.12374,13.600000000000001,0.296976,-0.35508,13.5,-0.852192,-0.8258300000000001,13.4,-1.981992,-0.0538,13.4,-0.12911999999999998,-0.00807,13.4,-0.019368,-0.0,13.4,-0.0,-0.0,13.4,-0.0
4.669463423,0.1345,13.600000000000001,0.32280000000000003,-0.36315000000000003,13.5,-0.87156,-0.81238,13.5,-1.949712,-0.048420000000000005,13.4,-0.116208,-0.00538,13.4,-0.012912,-0.0,13.4,-0.0,-0.0,13.4,-0.0
4.702472056,0.12912,13.600000000000001,0.309888,-0.36315000000000003,13.5,-0.87156,-0.82852,13.5,-1.988448,-0.0538,13.4,-0.12911999999999998,-0.00538,13.4,-0.012912,-0.0,13.4,-0.0,-0.0,13.4,-0.0
4.736335383,0.1345,13.600000000000001,0.32280000000000003,-0.36315000000000003,13.5,-0.87156,-0.81238,13.4,-1.949712,-0.06994,13.4,-0.167856,-0.00269,13.4,-0.006456,-0.0,13.4,-0.0,-0.0,13.4,-0.0
4.769419776,0.1345,13.600000000000001,0.32280000000000003,-0.36584,13.5,-0.878016,-0.81238,13.4,-1.949712,-0.04304,13.4,-0.103296,-0.00538,13.4,-0.012912,-0.0,13.4,-0.0,-0.0,13.4,-0.0
4.802318295,0.12374,13.600000000000001,0.296976,-0.36584,13.5,-0.878016,-0.81238,13.4,-1.949712,-0.0538,13.4,-0.12911999999999998,-0.00807,13.4,-0.019368,-0.0,13.4,-0.0,-0.0,13.4,-0.0
4.836406989,0.12374,13.600000000000001,0.296976,-0.36584,13.5,-0.878016,-0.81238,13.4,-1.949712,-0.04304,13.4,-0.103296,-0.00807,13.4,-0.019368,-0.0,13.4,-0.0,-0.0,13.4,-0.0
4.869209515,0.1345,13.600000000000001,0.32280000000000003,-0.35508,13.600000000000001,-0.852192,-0.81238,13.4,-1.949712,-0.048420000000000005,13.4,-0.116208,-0.00538,13.4,-0.012912,-0.0,13.4,-0.0,-0.0,13.4,-0.0
4.902168506,0.12374,13.600000000000001,0.296976,-0.36584,13.5,-0.878016,-0.81238,13.4,-1.949712,-0.06187,13.4,-0.148488,-0.00807,13.4,-0.019368,-0.0,13.4,-0.0,-0.0,13.4,-0.0
4.936161361,0.12912,13.600000000000001,0.309888,-0.36584,13.5,-0.878016,-0.82045,13.3,-1.96908,-0.07263,13.4,-0.174312,-0.01076,13.4,-0.025824,-0.0,13.4,-0.0,-0.0,13.4,-0.0
4.969262279,0.12374,13.600000000000001,0.296976,-0.3497,13.5,-0.83928,-0.81238,13.4,-1.949712,-0.056490000000000005,13.4,-0.135576,-0.00807,13.4,-0.019368,-0.0,13.4,-0.0,-0.0,13.4,-0.0
5.002051898,0.12643000000000001,13.600000000000001,0.30343200000000004,-0.36315000000000003,13.5,-0.87156,-0.8150700000000001,13.3,-1.9561680000000001,-0.04304,13.4,-0.103296,-0.01076,13.4,-0.025824,-0.0,13.4,-0.0,-0.0,13.4,-0.0
5.036220339,0.12374,13.600000000000001,0.296976,-0.36584,13.5,-0.878016,-0.81776,13.5,-1.962624,-0.07532,13.4,-0.18076799999999998,-0.00538,13.4,-0.012912,-0.0,13.4,-0.0,-0.0,13.4,-0.0
5.069159034,0.13181,13.600000000000001,0.316344,-0.36046,13.600000000000001,-0.865104,-0.82045,13.5,-1.96908,-0.06994,13.4,-0.167856,-0.00538,13.4,-0.012912,-0.0,13.4,-0.0,-0.0,13.4,-0.0
5.102104384,0.14257,13.600000000000001,0.34216799999999997,-0.36584,13.600000000000001,-0.878016,-0.8150700000000001,13.4,-1.9561680000000001,-0.05111,13.4,-0.122664,-0.00538,13.4,-0.012912,-0.0,13.4,-0.0,-0.0,13.4,-0.0
5.136049435,0.12912,13.600000000000001,0.309888,-0.35777000000000003,13.600000000000001,-0.8586480000000001,-0.81776,13.4,-1.962624,-0.03766,13.4,-0.09038399999999999,-0.00807,13.4,-0.019368,-0.0,13.4,-0.0,-0.0,13.4,-0.0
5.169070678,0.12643000000000001,13.600000000000001,0.30343200000000004,-0.35777000000000003,13.600000000000001,-0.8586480000000001,-0.82045,13.4,-1.96908,-0.06187,13.4,-0.148488,-0.00538,13.4,-0.012912,-0.0,13.4,-0.0,-0.0,13.4,-0.0
5.202048953,0.12374,13.600000000000001,0.296976,-0.36046,13.600000000000001,-0.865104,-0.81238,13.4,-1.949712,-0.05918,13.4,-0.142032,-0.00807,13.4,-0.019368,-0.0,13.4,-0.0,-0.0,13.4,-0.0
5.236061134,0.12643000000000001,13.600000000000001,0.30343200000000004,-0.36584,13.5,-0.878016,-0.81238,13.5,-1.949712,-0.06187,13.4,-0.148488,-0.00807,13.4,-0.019368,-0.0,13.4,-0.0,-0.0,13.4,-0.0
5.269084543,0.1345,13.600000000000001,0.32280000000000003,-0.36046,13.5,-0.865104,-0.81238,13.4,-1.949712,-0.05111,13.4,-0.122664,-0.00807,13.4,-0.019368,-0.0,13.4,-0.0,-0.0,13.4,-0.0
5.302148336,0.12643000000000001,13.700000000000001,0.30343200000000004,-0.36584,13.5,-0.878016,-0.81238,13.4,-1.949712,-0.0538,13.4,-0.12911999999999998,-0.00807,13.4,-0.019368,-0.0,13.4,-0.0,-0.0,13.4,-0.0
5.336694684,0.13181,13.700000000000001,0.316344,-0.36315000000000003,13.5,-0.87156,-0.82045,13.4,-1.96908,-0.05111,13.4,-0.122664,-0.00807,13.4,-0.019368,-0.0,13.4,-0.0,-0.0,13.4,-0.0
5.369121795,0.12912,13.700000000000001,0.309888,-0.35777000000000003,13.5,-0.8586480000000001,-0.82314,13.4,-1.975536,-0.06456,13.4,-0.154944,-0.00269,13.4,-0.006456,-0.0,13.4,-0.0,-0.0,13.4,-0.0
5.402093585,0.12374,13.600000000000001,0.296976,-0.36584,13.5,-0.878016,-0.82045,13.4,-1.96908,-0.06456,13.4,-0.154944,-0.00538,13.4,-0.012912,-0.0,13.4,-0.0,-0.0,13.4,-0.0
5.43583107,0.13988,13.600000000000001,0.335712,-0.36584,13.5,-0.878016,-0.81238,13.4,-1.949712,-0.06994,13.4,-0.167856,-0.00807,13.4,-0.019368,-0.0,13.4,-0.0,-0.0,13.4,-0.0
5.46906494,0.12374,13.600000000000001,0.296976,-0.36584,13.5,-0.878016,-0.81238,13.4,-1.949712,-0.05918,13.4,-0.142032,-0.00807,13.4,-0.019368,-0.0,13.4,-0.0,-0.0,13.4,-0.0
5.501905471,0.12374,13.600000000000001,0.296976,-0.35508,13.5,-0.852192,-0.82852,13.4,-1.988448,-0.05111,13.4,-0.122664,0.0,13.4,0.0,-0.0,13.4,-0.0,-0.0,13.4,-0.0
5.535827418,0.12374,13.600000000000001,0.296976,-0.36315000000000003,13.5,-0.87156,-0.8150700000000001,13.4,-1.9561680000000001,-0.06725,13.4,-0.16140000000000002,-0.00538,13.4,-0.012912,-0.0,13.4,-0.0,-0.0,13.4,-0.0
5.568796483,0.1345,13.600000000000001,0.32280000000000003,-0.36584,13.5,-0.878016,-0.81238,13.5,-1.949712,-0.05918,13.4,-0.142032,-0.00538,13.4,-0.012912,-0.0,13.4,-0.0,-0.0,13.4,-0.0
5.60201048,0.12643000000000001,13.600000000000001,0.30343200000000004,-0.36584,13.5,-0.878016,-0.81238,13.5,-1.949712,-0.06187,13.4,-0.148488,-0.00538,13.4,-0.012912,-0.0,13.4,-0.0,-0.0,13.4,-0.0
5.635859674,0.12643000000000001,13.600000000000001,0.30343200000000004,-0.35777000000000003,13.5,-0.8586480000000001,-0.81238,13.4,-1.949712,-0.07532,13.4,-0.18076799999999998,-0.01076,13.4,-0.025824,-0.0,13.4,-0.0,-0.0,13.4,-0.0
5.668925435,0.12643000000000001,13.600000000000001,0.30343200000000004,-0.35777000000000003,13.5,-0.8586480000000001,-0.8150700000000001,13.4,-1.9561680000000001,-0.06187,13.4,-0.148488,-0.00538,13.4,-0.012912,-0.0,13.4,-0.0,-0.0,13.4,-0.0
5.703121245,0.1345,13.600000000000001,0.32280000000000003,-0.36315000000000003,13.600000000000001,-0.87156,-0.81238,13.4,-1.949712,-0.05111,13.4,-0.122664,-0.01076,13.4,-0.025824,-0.0,13.4,-0.0,-0.0,13.4,-0.0
5.735885366,0.12643000000000001,13.700000000000001,0.30343200000000004,-0.36046,13.600000000000001,-0.865104,-0.8150700000000001,13.4,-1.9561680000000001,-0.03766,13.4,-0.09038399999999999,0.0,13.4,0.0,-0.0,13.4,-0.0,-0.0,13.4,-0.0
5.768838345,0.12374,13.700000000000001,0.296976,-0.35777000000000003,13.600000000000001,-0.8586480000000001,-0.81238,13.4,-1.949712,-0.06725,13.4,-0.16140000000000002,-0.00538,13.4,-0.012912,-0.0,13.4,-0.0,-0.0,13.4,-0.0
5.802952362,0.12374,13.600000000000001,0.296976,-0.36315000000000003,13.600000000000001,-0.87156,-0.81238,13.4,-1.949712,-0.048420000000000005,13.4,-0.116208,-0.00269,13.4,-0.006456,-0.0,13.4,-0.0,-0.0,13.4,-0.0
5.835910725,0.12374,13.600000000000001,0.296976,-0.35777000000000003,13.5,-0.8586480000000001,-0.8150700000000001,13.4,-1.9561680000000001,-0.06725,13.4,-0.16140000000000002,-0.00807,13.4,-0.019368,-0.0,13.4,-0.0,-0.0,13.4,-0.0
5.86900352,0.12374,13.600000000000001,0.296976,-0.36584,13.600000000000001,-0.878016,-0.8150700000000001,13.4,-1.9561680000000001,-0.06456,13.4,-0.154944,-0.00807,13.4,-0.019368,-0.0,13.4,-0.0,-0.0,13.4,-0.0
5.90297804,0.12643000000000001,13.600000000000001,0.30343200000000004,-0.36315000000000003,13.5,-0.87156,-0.82314,13.4,-1.975536,-0.0538,13.4,-0.12911999999999998,-0.00538,13.4,-0.012912,-0.0,13.4,-0.0,-0.0,13.4,-0.0
5.93577761,0.12374,13.600000000000001,0.296976,-0.36315000000000003,13.600000000000001,-0.87156,-0.81238,13.4,-1.949712,-0.04304,13.4,-0.103296,-0.00538,13.4,-0.012912,-0.0,13.4,-0.0,0.00269,13.4,0.006456
5.969286781,0.12643000000000001,13.600000000000001,0.30343200000000004,-0.36584,13.600000000000001,-0.878016,-0.81238,13.4,-1.949712,-0.04304,13.4,-0.103296,-0.00538,13.4,-0.012912,-0.0,13.4,-0.0,-0.0,13.4,-0.0
6.003126649,0.12374,13.600000000000001,0.296976,-0.36584,13.5,-0.878016,-0.8150700000000001,13.4,-1.9561680000000001,-0.05918,13.4,-0.142032,-0.00807,13.4,-0.019368,-0.0,13.4,-0.0,-0.0,13.4,-0.0
6.036113032,0.12912,13.600000000000001,0.309888,-0.36046,13.5,-0.865104,-0.81238,13.4,-1.949712,-0.06187,13.4,-0.148488,-0.00538,13.4,-0.012912,-0.0,13.4,-0.0,-0.0,13.4,-0.0
6.069084371,0.12374,13.600000000000001,0.296976,-0.36315000000000003,13.600000000000001,-0.87156,-0.81238,13.4,-1.949712,-0.06725,13.4,-0.16140000000000002,-0.00538,13.4,-0.012912,-0.0,13.4,-0.0,-0.0,13.4,-0.0
6.105043058,0.12374,13.600000000000001,0.296976,-0.35508,13.5,-0.852192,-0.8150700000000001,13.5,-1.9561680000000001,-0.06725,13.4,-0.16140000000000002,-0.00269,13.4,-0.006456,-0.0,13.4,-0.0,-0.0,13.4,-0.0
6.136126466,0.12374,13.600000000000001,0.296976,-0.35239000000000004,13.5,-0.845736,-0.81238,13.4,-1.949712,-0.06456,13.4,-0.154944,-0.00269,13.4,-0.006456,-0.0,13.4,-0.0,-0.0,13.4,-0.0
6.168746447,0.13988,13.600000000000001,0.335712,-0.36584,13.5,-0.878016,-0.8150700000000001,13.4,-1.9561680000000001,-0.06725,13.4,-0.16140000000000002,-0.00538,13.4,-0.012912,-0.0,13.4,-0.0,-0.0,13.4,-0.0
6.203184575,0.12374,13.600000000000001,0.296976,-0.36584,13.5,-0.878016,-0.81776,13.5,-1.962624,-0.048420000000000005,13.4,-0.116208,-0.00807,13.4,-0.019368,-0.0,13.4,-0.0,-0.0,13.4,-0.0
6.236454786,0.12374,13.600000000000001,0.296976,-0.36584,13.5,-0.878016,-0.81776,13.4,-1.962624,-0.06187,13.4,-0.148488,-0.00807,13.4,-0.019368,-0.0,13.4,-0.0,-0.0,13.4,-0.0
6.268900342,0.12374,13.600000000000001,0.296976,-0.36315000000000003,13.5,-0.87156,-0.82314,13.4,-1.975536,-0.04573,13.4,-0.109752,-0.00807,13.4,-0.019368,-0.0,13.4,-0.0,-0.0,13.4,-0.0
6.304390715,0.12374,13.600000000000001,0.296976,-0.35777000000000003,13.600000000000001,-0.8586480000000001,-0.81238,13.5,-1.949712,-0.056490000000000005,13.4,-0.135576,-0.00807,13.4,-0.019368,-0.0,13.4,-0.0,-0.0,13.4,-0.0
6.335877633,0.12912,13.600000000000001,0.309888,-0.36046,13.600000000000001,-0.865104,-0.81238,13.4,-1.949712,-0.05918,13.4,-0.142032,-0.00269,13.4,-0.006456,-0.0,13.4,-0.0,-0.0,13.4,-0.0
6.368997931,0.12643000000000001,13.600000000000001,0.30343200000000004,-0.36315000000000003,13.5,-0.87156,-0.81776,13.4,-1.962624,-0.05918,13.4,-0.142032,-0.00807,13.4,-0.019368,-0.0,13.4,-0.0,-0.0,13.4,-0.0
6.403054226,0.12643000000000001,13.600000000000001,0.30343200000000004,-0.36315000000000003,13.5,-0.87156,-0.81238,13.4,-1.949712,-0.06725,13.4,-0.16140000000000002,-0.00807,13.4,-0.019368,-0.0,13.4,-0.0,-0.0,13.4,-0.0
6.435785411,0.1345,13.600000000000001,0.32280000000000003,-0.36584,13.5,-0.878016,-0.82045,13.3,-1.96908,-0.056490000000000005,13.4,-0.135576,-0.00538,13.4,-0.012912,-0.0,13.4,-0.0,0.00269,13.4,0.006456
6.469107991,0.12912,13.600000000000001,0.309888,-0.35777000000000003,13.5,-0.8586480000000001,-0.81238,13.4,-1.949712,-0.05918,13.4,-0.142032,-0.00269,13.4,-0.006456,-0.0,13.4,-0.0,-0.0,13.4,-0.0
6.50267948,0.12374,13.600000000000001,0.296976,-0.34432,13.5,-0.826368,-0.81238,13.4,-1.949712,-0.04573,13.4,-0.109752,-0.00807,13.4,-0.019368,-0.0,13.4,-0.0,-0.0,13.4,-0.0
6.536569942,0.12643000000000001,13.600000000000001,0.30343200000000004,-0.36584,13.5,-0.878016,-0.81238,13.4,-1.949712,-0.06187,13.4,-0.148488,-0.00538,13.4,-0.012912,-0.0,13.4,-0.0,-0.0,13.4,-0.0
6.570719714,0.12374,13.600000000000001,0.296976,-0.36315000000000003,13.5,-0.87156,-0.81238,13.4,-1.949712,-0.06725,13.4,-0.16140000000000002,-0.00807,13.4,-0.019368,-0.0,13.4,-0.0,-0.0,13.4,-0.0
6.602722941,0.12374,13.600000000000001,0.296976,-0.35777000000000003,13.5,-0.8586480000000001,-0.8150700000000001,13.4,-1.9561680000000001,-0.06456,13.4,-0.154944,-0.00538,13.4,-0.012912,-0.0,13.4,-0.0,-0.0,13.4,-0.0
6.636155636,0.12374,13.600000000000001,0.296976,-0.36584,13.5,-0.878016,-0.81238,13.4,-1.949712,-0.0538,13.4,-0.12911999999999998,-0.00538,13.4,-0.012912,-0.0,13.4,-0.0,-0.0,13.4,-0.0
6.669607343,0.12912,13.600000000000001,0.309888,-0.35508,13.5,-0.852192,-0.81238,13.5,-1.949712,-0.0538,13.4,-0.12911999999999998,-0.00538,13.4,-0.012912,-0.0,13.4,-0.0,-0.0,13.4,-0.0
6.704220161,0.12374,13.600000000000001,0.296976,-0.36584,13.5,-0.878016,-0.81238,13.4,-1.949712,-0.06725,13.4,-0.16140000000000002,-0.00538,13.4,-0.012912,-0.0,13.4,-0.0,-0.0,13.4,-0.0
6.735852557,0.13181,13.600000000000001,0.316344,-0.36584,13.5,-0.878016,-0.81238,13.4,-1.949712,-0.06187,13.4,-0.148488,-0.00269,13.4,-0.006456,-0.0,13.4,-0.0,-0.0,13.4,-0.0
6.769636457,0.1345,13.600000000000001,0.32280000000000003,-0.36584,13.5,-0.878016,-0.81776,13.4,-1.962624,-0.07532,13.4,-0.18076799999999998,-0.00807,13.4,-0.019368,-0.0,13.4,-0.0,-0.0,13.4,-0.0
6.802648088,0.12374,13.600000000000001,0.296976,-0.35508,13.600000000000001,-0.852192,-0.81238,13.3,-1.949712,-0.06187,13.4,-0.148488,-0.00269,13.4,-0.006456,-0.0,13.4,-0.0,-0.0,13.4,-0.0
6.835582817,0.12374,13.600000000000001,0.296976,-0.36315000000000003,13.600000000000001,-0.87156,-0.81238,13.4,-1.949712,-0.06187,13.4,-0.148488,-0.00269,13.4,-0.006456,-0.0,13.4,-0.0,-0.0,13.4,-0.0
6.869421465,0.13181,13.600000000000001,0.316344,-0.36584,13.600000000000001,-0.878016,-0.81238,13.4,-1.949712,-0.06725,13.4,-0.16140000000000002,0.0,13.4,0.0,-0.0,13.4,-0.0,-0.0,13.4,-0.0
6.902375954,0.12374,13.600000000000001,0.296976,-0.36584,13.5,-0.878016,-0.81776,13.4,-1.962624,-0.03766,13.4,-0.09038399999999999,-0.00538,13.4,-0.012912,-0.0,13.4,-0.0,-0.0,13.4,-0.0
6.935532566,0.12374,13.600000000000001,0.296976,-0.36584,13.5,-0.878016,-0.81776,13.4,-1.962624,-0.04573,13.4,-0.109752,-0.00807,13.4,-0.019368,-0.0,13.4,-0.0,-0.0,13.4,-0.0
6.969403514,0.12374,13.600000000000001,0.296976,-0.36046,13.5,-0.865104,-0.82852,13.4,-1.988448,-0.06456,13.4,-0.154944,0.0,13.4,0.0,-0.0,13.4,-0.0,-0.0,13.4,-0.0
7.002367509,0.12374,13.600000000000001,0.296976,-0.36584,13.5,-0.878016,-0.81238,13.5,-1.949712,-0.056490000000000005,13.4,-0.135576,-0.00538,13.4,-0.012912,-0.0,13.3,-0.0,-0.0,13.4,-0.0
7.036380346,0.1345,13.600000000000001,0.32280000000000003,-0.36584,13.5,-0.878016,-0.81238,13.4,-1.949712,-0.03766,13.4,-0.09038399999999999,-0.00807,13.4,-0.019368,-0.0,13.4,-0.0,-0.0,13.4,-0.0
7.069381581,0.12374,13.600000000000001,0.296976,-0.36584,13.5,-0.878016,-0.81238,13.3,-1.949712,-0.056490000000000005,13.4,-0.135576,0.0,13.4,0.0,-0.0,13.4,-0.0,-0.0,13.4,-0.0
7.102368281,0.1345,13.600000000000001,0.32280000000000003,-0.35777000000000003,13.5,-0.8586480000000001,-0.8150700000000001,13.4,-1.9561680000000001,-0.0538,13.4,-0.12911999999999998,-0.01076,13.4,-0.025824,-0.0,13.4,-0.0,-0.0,13.4,-0.0
7.136321184,0.12643000000000001,13.600000000000001,0.30343200000000004,-0.36584,13.5,-0.878016,-0.82045,13.5,-1.96908,-0.06725,13.4,-0.16140000000000002,-0.00269,13.4,-0.006456,-0.0,13.4,-0.0,-0.0,13.4,-0.0
7.169305233,0.12374,13.600000000000001,0.296976,-0.36584,13.5,-0.878016,-0.81238,13.4,-1.949712,-0.05111,13.4,-0.122664,-0.00807,13.4,-0.019368,-0.0,13.4,-0.0,-0.0,13.4,-0.0
7.202305063,0.12374,13.600000000000001,0.296976,-0.36584,13.600000000000001,-0.878016,-0.81238,13.4,-1.949712,-0.05111,13.4,-0.122664,-0.00538,13.4,-0.012912,-0.0,13.4,-0.0,-0.0,13.4,-0.0
7.236142572,0.12374,13.600000000000001,0.296976,-0.36315000000000003,13.5,-0.87156,-0.81238,13.4,-1.949712,-0.06456,13.4,-0.154944,-0.00807,13.4,-0.019368,-0.0,13.4,-0.0,-0.0,13.4,-0.0
7.269055575,0.12374,13.600000000000001,0.296976,-0.35777000000000003,13.5,-0.8586480000000001,-0.81238,13.4,-1.949712,-0.05111,13.4,-0.122664,-0.00538,13.4,-0.012912,-0.0,13.4,-0.0,-0.0,13.4,-0.0
7.302119029,0.12374,13.600000000000001,0.296976,-0.36584,13.600000000000001,-0.878016,-0.81238,13.4,-1.949712,-0.056490000000000005,13.4,-0.135576,-0.00269,13.4,-0.006456,-0.0,13.4,-0.0,-0.0,13.4,-0.0
7.336085366,0.12374,13.600000000000001,0.296976,-0.36584,13.5,-0.878016,-0.82314,13.4,-1.975536,-0.06187,13.4,-0.148488,-0.00538,13.4,-0.012912,-0.0,13.4,-0.0,-0.0,13.4,-0.0
7.369184026,0.12374,13.600000000000001,0.296976,-0.36584,13.5,-0.878016,-0.81238,13.3,-1.949712,-0.056490000000000005,13.4,-0.135576,-0.00538,13.4,-0.012912,-0.0,13.4,-0.0,-0.0,13.4,-0.0
7.402219711,0.12374,13.600000000000001,0.296976,-0.36584,13.600000000000001,-0.878016,-0.81238,13.4,-1.949712,-0.06994,13.4,-0.167856,0.0,13.4,0.0,-0.0,13.4,-0.0,-0.0,13.4,-0.0
7.436233643,0.12374,13.600000000000001,0.296976,-0.36584,13.5,-0.878016,-0.81238,13.4,-1.949712,-0.06725,13.4,-0.16140000000000002,-0.00538,13.4,-0.012912,-0.0,13.4,-0.0,0.00269,13.4,0.006456
7.469081427,0.12374,13.600000000000001,0.296976,-0.36584,13.600000000000001,-0.878016,-0.81238,13.4,-1.949712,-0.0538,13.4,-0.12911999999999998,0.0,13.4,0.0,-0.0,13.4,-0.0,0.00269,13.4,0.006456
7.502110772,0.12374,13.600000000000001,0.296976,-0.36584,13.5,-0.878016,-0.81238,13.4,-1.949712,-0.05111,13.4,-0.122664,-0.00269,13.4,-0.006456,-0.0,13.4,-0.0,-0.0,13.4,-0.0
7.536368277,0.03766,13.700000000000001,0.09038399999999999,-0.27707000000000004,13.600000000000001,-0.6649680000000001,-0.2959,13.600000000000001,-0.71016,-0.048420000000000005,13.5,-0.116208,0.0,13.5,0.0,-0.0,13.5,-0.0,-0.0,13.5,-0.0
7.56908366,0.00538,13.700000000000001,0.012912,-0.31473,13.700000000000001,-0.755352,-0.30666,13.600000000000001,-0.735984,-0.06456,13.600000000000001,-0.154944,0.0,13.5,0.0,-0.0,13.5,-0.0,-0.0,13.5,-0.0
7.601986411,0.0,13.700000000000001,0.0,-0.33625,13.700000000000001,-0.8069999999999999,-0.34701000000000004,13.5,-0.8328240000000001,-0.05918,13.600000000000001,-0.142032,0.00807,13.5,0.019368,-0.0,13.5,-0.0,-0.0,13.5,-0.0
7.63603173,-0.00269,13.700000000000001,-0.006456,-0.44654,13.600000000000001,-1.071696,-0.42233000000000004,13.5,-1.013592,-0.04573,13.600000000000001,-0.109752,0.01076,13.5,0.025824,-0.0,13.5,-0.0,-0.0,13.5,-0.0
7.668978671,-0.05918,13.700000000000001,-0.142032,-0.46806000000000003,13.600000000000001,-1.1233440000000001,-0.5541400000000001,13.5,-1.3299360000000002,-0.06994,13.600000000000001,-0.167856,0.0,13.5,0.0,-0.0,13.5,-0.0,-0.0,13.5,-0.0
7.701938974,-0.08070000000000001,13.700000000000001,-0.19368000000000002,-0.46806000000000003,13.600000000000001,-1.1233440000000001,-0.65098,13.5,-1.562352,-0.056490000000000005,13.5,-0.135576,0.0,13.5,0.0,-0.0,13.5,-0.0,-0.0,13.5,-0.0
7.735926132,-0.11567000000000001,13.700000000000001,-0.277608,-0.39274000000000003,13.600000000000001,-0.9425760000000001,-0.7047800000000001,13.4,-1.691472,-0.04573,13.5,-0.109752,0.01076,13.4,0.025824,-0.0,13.4,-0.0,-0.0,13.4,-0.0
7.769000596,-0.15602000000000002,13.700000000000001,-0.37444800000000006,-0.41157,13.5,-0.987768,-0.67788,13.4,-1.6269120000000001,-0.06725,13.4,-0.16140000000000002,0.01345,13.4,0.032279999999999996,-0.0,13.4,-0.0,-0.0,13.4,-0.0
7.801934603,-0.21251,13.5,-0.510024,-0.34701000000000004,13.5,-0.8328240000000001,-0.6348400000000001,13.5,-1.523616,-0.0538,13.4,-0.12911999999999998,0.01076,13.4,0.025824,-0.0,13.4,-0.0,-0.0,13.4,-0.0
7.835921575,-0.19637000000000002,13.600000000000001,-0.47128800000000004,-0.38198000000000004,13.5,-0.916752,-0.67788,13.4,-1.6269120000000001,-0.05111,13.4,-0.122664,0.01614,13.3,0.038736,-0.0,13.4,-0.0,-0.0,13.4,-0.0
7.868956013,-0.20982,13.600000000000001,-0.503568,-0.39274000000000003,13.5,-0.9425760000000001,-0.68057,13.3,-1.633368,-0.056490000000000005,13.4,-0.135576,0.02959,13.3,0.071016,-0.0,13.4,-0.0,-0.0,13.4,-0.0
7.901938041,-0.23134000000000002,13.600000000000001,-0.555216,-0.4035,13.5,-0.9684,-0.70209,13.4,-1.6850159999999998,-0.04573,13.3,-0.109752,0.01076,13.3,0.025824,-0.0,13.3,-0.0,-0.0,13.3,-0.0
7.935916435,-0.20982,13.600000000000001,-0.503568,-0.4035,13.5,-0.9684,-0.65905,13.3,-1.58172,-0.05918,13.3,-0.142032,0.01345,13.3,0.032279999999999996,-0.0,13.3,-0.0,-0.0,13.3,-0.0
7.968819189,-0.24748,13.5,-0.593952,-0.40081,13.5,-0.9619439999999999,-0.67788,13.3,-1.6269120000000001,-0.04573,13.3,-0.109752,0.01883,13.3,0.045191999999999996,-0.0,13.3,-0.0,-0.0,13.3,-0.0
8.002969367,-0.22596000000000002,13.600000000000001,-0.542304,-0.41964,13.5,-1.007136,-0.65098,13.3,-1.562352,-0.03228,13.3,-0.077472,0.0269,13.200000000000001,0.06455999999999999,-0.0,13.200000000000001,-0.0,-0.0,13.3,-0.0
8.03591233,-0.22327,13.5,-0.535848,-0.39005,13.4,-0.93612,-0.66174,13.3,-1.588176,-0.05111,13.3,-0.122664,0.03766,13.200000000000001,0.09038399999999999,-0.0,13.200000000000001,-0.0,-0.0,13.200000000000001,-0.0
8.068818913,-0.25017,13.4,-0.6004079999999999,-0.45999,13.3,-1.103976,-0.68057,13.200000000000001,-1.633368,-0.040350000000000004,13.3,-0.09684000000000001,0.02152,13.200000000000001,0.051648,-0.0,13.200000000000001,-0.0,-0.0,13.200000000000001,-0.0
8.102840002,-0.269,13.5,-0.6456000000000001,-0.45999,13.4,-1.103976,-0.6725,13.200000000000001,-1.6139999999999999,-0.040350000000000004,13.200000000000001,-0.09684000000000001,0.02152,13.200000000000001,0.051648,-0.0,13.200000000000001,-0.0,-0.0,13.200000000000001,-0.0
8.135886868,-0.28783000000000003,13.5,-0.6907920000000001,-0.50841,13.4,-1.220184,-0.68326,13.200000000000001,-1.639824,-0.040350000000000004,13.200000000000001,-0.09684000000000001,0.0538,13.200000000000001,0.12911999999999998,-0.0,13.200000000000001,-0.0,-0.0,13.200000000000001,-0.0
8.168798759,-0.31473,13.4,-0.755352,-0.45999,13.3,-1.103976,-0.70209,13.100000000000001,-1.6850159999999998,-0.04304,13.100000000000001,-0.103296,0.01614,13.100000000000001,0.038736,-0.0,13.100000000000001,-0.0,-0.0,13.100000000000001,-0.0
8.203006244,-0.32011,13.5,-0.768264,-0.50303,13.4,-1.207272,-0.65636,13.200000000000001,-1.575264,-0.04304,13.200000000000001,-0.103296,0.02152,13.100000000000001,0.051648,-0.0,13.100000000000001,-0.0,-0.0,13.100000000000001,-0.0
8.235645964,-0.32280000000000003,13.4,-0.7747200000000001,-0.46806000000000003,13.3,-1.1233440000000001,-0.66981,13.100000000000001,-1.607544,-0.02959,13.100000000000001,-0.071016,0.040350000000000004,13.0,0.09684000000000001,-0.0,13.100000000000001,-0.0,-0.0,13.100000000000001,-0.0
8.268730113,-0.31473,13.4,-0.755352,-0.49765000000000004,13.3,-1.19436,-0.66174,13.200000000000001,-1.588176,-0.03497,13.100000000000001,-0.083928,0.04304,13.0,0.103296,-0.0,13.100000000000001,-0.0,-0.0,13.100000000000001,-0.0
8.302640335,-0.31742000000000004,13.4,-0.761808,-0.53262,13.3,-1.2782879999999999,-0.6348400000000001,13.100000000000001,-1.523616,-0.02959,13.100000000000001,-0.071016,0.04573,13.100000000000001,0.109752,-0.0,13.100000000000001,-0.0,-0.0,13.100000000000001,-0.0
8.335688519,-0.32818,13.5,-0.787632,-0.54338,13.3,-1.304112,-0.6751900000000001,13.100000000000001,-1.6204560000000001,-0.03497,13.100000000000001,-0.083928,0.0538,13.0,0.12911999999999998,-0.0,13.100000000000001,-0.0,-0.0,13.100000000000001,-0.0
8.368805882,-0.30397,13.4,-0.7295280000000001,-0.54069,13.3,-1.297656,-0.6859500000000001,13.100000000000001,-1.6462800000000002,-0.03228,13.100000000000001,-0.077472,0.02152,13.0,0.051648,-0.0,13.0,-0.0,-0.0,13.100000000000001,-0.0
8.402760413,-0.29859,13.4,-0.716616,-0.5944900000000001,13.3,-1.426776,-0.69671,13.200000000000001,-1.672104,-0.02959,13.100000000000001,-0.071016,0.04304,13.100000000000001,0.103296,-0.0,13.100000000000001,-0.0,-0.0,13.100000000000001,-0.0
8.435617508,-0.30666,13.4,-0.735984,-0.58104,13.3,-1.394496,-0.65905,13.100000000000001,-1.58172,-0.040350000000000004,13.100000000000001,-0.09684000000000001,0.024210000000000002,13.0,0.058104,-0.0,13.100000000000001,-0.0,-0.0,13.100000000000001,-0.0
8.468514858,-0.30128,13.5,-0.7230719999999999,-0.58642,13.3,-1.407408,-0.68057,13.200000000000001,-1.633368,-0.0269,13.200000000000001,-0.06455999999999999,0.0269,13.100000000000001,0.06455999999999999,-0.0,13.100000000000001,-0.0,-0.0,13.100000000000001,-0.0
8.502519275,-0.29052,13.600000000000001,-0.697248,-0.5918,13.4,-1.42032,-0.61063,13.100000000000001,-1.465512,-0.0269,13.200000000000001,-0.06455999999999999,0.01076,13.100000000000001,0.025824,-0.0,13.200000000000001,-0.0,-0.0,13.200000000000001,-0.0
8.535534631,-0.31473,13.5,-0.755352,-0.5649000000000001,13.4,-1.35576,-0.68326,13.200000000000001,-1.639824,-0.03766,13.200000000000001,-0.09038399999999999,0.03497,13.200000000000001,0.083928,-0.0,13.200000000000001,-0.0,-0.0,13.200000000000001,-0.0
8.568445829,-0.29052,13.5,-0.697248,-0.56221,13.4,-1.3493039999999998,-0.6644300000000001,13.200000000000001,-1.594632,-0.03228,13.200000000000001,-0.077472,0.01883,13.200000000000001,0.045191999999999996,-0.0,13.200000000000001,-0.0,-0.0,13.200000000000001,-0.0
8.602573973,-0.28783000000000003,13.600000000000001,-0.6907920000000001,-0.538,13.4,-1.2912000000000001,-0.68326,13.200000000000001,-1.639824,-0.02959,13.200000000000001,-0.071016,0.01076,13.200000000000001,0.025824,-0.0,13.200000000000001,-0.0,-0.0,13.200000000000001,-0.0
8.635441278,-0.29321,13.4,-0.703704,-0.55952,13.4,-1.342848,-0.7236100000000001,13.3,-1.7366640000000002,-0.02959,13.200000000000001,-0.071016,0.00269,13.200000000000001,0.006456,-0.0,13.200000000000001,-0.0,-0.0,13.200000000000001,-0.0
8.669431349,-0.27976,13.5,-0.671424,-0.5756600000000001,13.4,-1.3815840000000001,-0.65636,13.3,-1.575264,-0.024210000000000002,13.200000000000001,-0.058104,0.024210000000000002,13.3,0.058104,-0.0,13.3,-0.0,-0.0,13.200000000000001,-0.0
8.70252276,-0.30397,13.5,-0.7295280000000001,-0.56759,13.5,-1.362216,-0.7155400000000001,13.3,-1.7172960000000002,-0.03228,13.3,-0.077472,0.01076,13.200000000000001,0.025824,-0.0,13.200000000000001,-0.0,-0.0,13.200000000000001,-0.0
8.735518895,-0.29321,13.5,-0.703704,-0.5756600000000001,13.4,-1.3815840000000001,-0.7047800000000001,13.3,-1.691472,-0.02959,13.3,-0.071016,0.0,13.3,0.0,-0.0,13.3,-0.0,-0.0,13.3,-0.0
8.769471265,-0.30397,13.5,-0.7295280000000001,-0.65367,13.5,-1.568808,-0.64022,13.3,-1.536528,-0.02959,13.3,-0.071016,0.01883,13.3,0.045191999999999996,-0.0,13.3,-0.0,-0.0,13.3,-0.0
8.802500707,-0.30397,13.5,-0.7295280000000001,-0.65905,13.5,-1.58172,-0.65367,13.3,-1.568808,-0.0269,13.3,-0.06455999999999999,0.00269,13.3,0.006456,-0.0,13.3,-0.0,-0.0,13.3,-0.0
8.835536835,-0.26631,13.600000000000001,-0.6391439999999999,-0.66174,13.5,-1.588176,-0.65367,13.4,-1.568808,-0.0269,13.4,-0.06455999999999999,0.01883,13.3,0.045191999999999996,-0.0,13.3,-0.0,-0.0,13.3,-0.0
8.869526729,-0.26631,13.600000000000001,-0.6391439999999999,-0.62677,13.5,-1.504248,-0.66174,13.3,-1.588176,-0.0269,13.4,-0.06455999999999999,0.02959,13.3,0.071016,-0.0,13.3,-0.0,-0.0,13.3,-0.0
8.902437348,-0.25555,13.600000000000001,-0.61332,-0.66981,13.5,-1.607544,-0.64829,13.4,-1.555896,-0.02959,13.4,-0.071016,0.0,13.3,0.0,-0.0,13.3,-0.0,-0.0,13.3,-0.0
8.935374949,-0.27169,13.600000000000001,-0.652056,-0.62677,13.5,-1.504248,-0.65098,13.3,-1.562352,-0.03497,13.4,-0.083928,0.0,13.3,0.0,-0.0,13.3,-0.0,-0.0,13.3,-0.0
8.969559726,-0.23941,13.600000000000001,-0.574584,-0.65905,13.5,-1.58172,-0.62946,13.4,-1.510704,-0.02959,13.4,-0.071016,0.0,13.3,0.0,-0.0,13.3,-0.0,-0.0,13.3,-0.0
9.002349379,-0.25017,13.600000000000001,-0.6004079999999999,-0.65636,13.5,-1.575264,-0.69133,13.3,-1.659192,-0.02959,13.4,-0.071016,0.01076,13.3,0.025824,-0.0,13.4,-0.0,0.00269,13.3,0.006456
9.035337172,-0.23941,13.600000000000001,-0.574584,-0.6187,13.5,-1.48488,-0.7236100000000001,13.4,-1.7366640000000002,-0.03228,13.4,-0.077472,-0.00269,13.3,-0.006456,-0.0,13.4,-0.0,-0.0,13.3,-0.0
9.069440665,-0.269,13.600000000000001,-0.6456000000000001,-0.61063,13.600000000000001,-1.465512,-0.70209,13.4,-1.6850159999999998,-0.03228,13.4,-0.077472,0.0,13.3,0.0,-0.0,13.4,-0.0,-0.0,13.3,-0.0
9.102340638,-0.25824,13.600000000000001,-0.619776,-0.58373,13.5,-1.400952,-0.7532,13.4,-1.80768,-0.04304,13.4,-0.103296,0.0,13.3,0.0,-0.0,13.4,-0.0,-0.0,13.4,-0.0
9.135289068,-0.26093,13.600000000000001,-0.626232,-0.5756600000000001,13.600000000000001,-1.3815840000000001,-0.7532,13.5,-1.80768,-0.03228,13.4,-0.077472,0.0,13.3,0.0,-0.0,13.4,-0.0,-0.0,13.4,-0.0
9.169293425,-0.269,13.600000000000001,-0.6456000000000001,-0.5649000000000001,13.600000000000001,-1.35576,-0.7558900000000001,13.4,-1.814136,-0.02959,13.4,-0.071016,0.0,13.3,0.0,-0.0,13.4,-0.0,-0.0,13.4,-0.0
9.202284499,-0.27169,13.600000000000001,-0.652056,-0.58104,13.600000000000001,-1.394496,-0.7558900000000001,13.4,-1.814136,-0.0269,13.4,-0.06455999999999999,0.0,13.3,0.0,-0.0,13.4,-0.0,-0.0,13.4,-0.0
9.235259131,-0.27707000000000004,13.600000000000001,-0.6649680000000001,-0.5756600000000001,13.5,-1.3815840000000001,-0.7558900000000001,13.5,-1.814136,-0.0269,13.4,-0.06455999999999999,0.0,13.3,0.0,-0.0,13.4,-0.0,-0.0,13.4,-0.0
9.269219894,-0.27976,13.600000000000001,-0.671424,-0.5649000000000001,13.5,-1.35576,-0.75858,13.4,-1.820592,-0.04304,13.4,-0.103296,0.0,13.3,0.0,-0.0,13.4,-0.0,-0.0,13.4,-0.0
9.302286387,-0.10491,13.700000000000001,-0.251784,-0.45192000000000004,13.600000000000001,-1.084608,-0.28783000000000003,13.600000000000001,-0.6907920000000001,-0.03228,13.600000000000001,-0.077472,-0.00538,13.5,-0.012912,-0.0,13.5,-0.0,-0.0,13.5,-0.0
9.336226905,-0.07263,13.700000000000001,-0.174312,-0.45730000000000004,13.700000000000001,-1.09752,-0.28245000000000003,13.600000000000001,-0.67788,-0.0269,13.600000000000001,-0.06455999999999999,-0.00269,13.5,-0.006456,-0.0,13.5,-0.0,-0.0,13.5,-0.0
9.369372671,-0.00269,13.700000000000001,-0.006456,-0.538,13.700000000000001,-1.2912000000000001,-0.31742000000000004,13.600000000000001,-0.761808,-0.06456,13.600000000000001,-0.154944,-0.01076,13.5,-0.025824,-0.0,13.5,-0.0,-0.0,13.5,-0.0
9.402299167,0.00538,13.700000000000001,0.012912,-0.6994,13.600000000000001,-1.67856,-0.37391,13.600000000000001,-0.8973840000000001,-0.06456,13.5,-0.154944,-0.00807,13.5,-0.019368,-0.0,13.5,-0.0,-0.0,13.5,-0.0
9.436228939,0.03766,13.600000000000001,0.09038399999999999,-0.73975,13.600000000000001,-1.7754,-0.44385,13.5,-1.06524,-0.08877,13.5,-0.213048,-0.01345,13.5,-0.032279999999999996,-0.0,13.5,-0.0,-0.0,13.5,-0.0
9.46921415,0.06725,13.600000000000001,0.16140000000000002,-0.7639600000000001,13.600000000000001,-1.833504,-0.4304,13.5,-1.0329599999999999,-0.09415,13.5,-0.22596,-0.00269,13.4,-0.006456,-0.0,13.5,-0.0,-0.0,13.5,-0.0
9.502165991,0.13988,13.600000000000001,0.335712,-0.79086,13.600000000000001,-1.898064,-0.39543,13.4,-0.949032,-0.07801000000000001,13.5,-0.18722400000000003,-0.01883,13.4,-0.045191999999999996,-0.0,13.5,-0.0,0.00269,13.4,0.006456
9.536131775,0.20982,13.700000000000001,0.503568,-0.7854800000000001,13.5,-1.8851520000000002,-0.28245000000000003,13.4,-0.67788,-0.08608,13.4,-0.206592,0.0,13.4,0.0,-0.0,13.4,-0.0,0.00269,13.4,0.006456
9.569149919,0.32011,13.600000000000001,0.768264,-0.7935500000000001,13.5,-1.9045200000000002,-0.27707000000000004,13.4,-0.6649680000000001,-0.06994,13.4,-0.167856,0.0,13.4,0.0,-0.0,13.4,-0.0,-0.0,13.4,-0.0
9.602167747,0.43578,13.5,1.045872,-0.84735,13.4,-2.03364,-0.29052,13.4,-0.697248,-0.06725,13.4,-0.16140000000000002,-0.01883,13.4,-0.045191999999999996,-0.0,13.4,-0.0,-0.0,13.4,-0.0
9.63606074,0.49227000000000004,13.700000000000001,1.181448,-0.89039,13.4,-2.136936,-0.42233000000000004,13.4,-1.013592,-0.09146,13.4,-0.219504,-0.01614,13.3,-0.038736,-0.0,13.3,-0.0,-0.0,13.3,-0.0
9.669094066,0.57028,13.600000000000001,1.3686719999999999,-0.9441900000000001,13.4,-2.2660560000000003,-0.45730000000000004,13.3,-1.09752,-0.09415,13.3,-0.22596,-0.01614,13.3,-0.038736,-0.0,13.200000000000001,-0.0,-0.0,13.3,-0.0
9.702068767,0.52724,13.5,1.265376,-0.98992,13.4,-2.375808,-0.41157,13.3,-0.987768,-0.08608,13.3,-0.206592,-0.01345,13.200000000000001,-0.032279999999999996,-0.0,13.200000000000001,-0.0,-0.0,13.200000000000001,-0.0
9.736096376,0.46806000000000003,13.4,1.1233440000000001,-1.05717,13.3,-2.5372079999999997,-0.29859,13.3,-0.716616,-0.09146,13.3,-0.219504,-0.02152,13.200000000000001,-0.051648,-0.0,13.200000000000001,-0.0,-0.0,13.200000000000001,-0.0
9.769053379,0.42771000000000003,13.4,1.026504,-1.08138,13.3,-2.595312,-0.27707000000000004,13.3,-0.6649680000000001,-0.09953000000000001,13.200000000000001,-0.238872,-0.03228,13.200000000000001,-0.077472,-0.0,13.200000000000001,-0.0,-0.0,13.100000000000001,-0.0
9.80209475,0.39812000000000003,13.4,0.955488,-1.1298000000000001,13.4,-2.71152,-0.27976,13.200000000000001,-0.671424,-0.1076,13.200000000000001,-0.25823999999999997,-0.01345,13.100000000000001,-0.032279999999999996,-0.0,13.100000000000001,-0.0,-0.0,13.100000000000001,-0.0
9.835974238,0.41157,13.4,0.987768,-1.25892,13.3,-3.021408,-0.30397,13.200000000000001,-0.7295280000000001,-0.07801000000000001,13.200000000000001,-0.18722400000000003,-0.01345,13.100000000000001,-0.032279999999999996,-0.0,13.100000000000001,-0.0,-0.0,13.100000000000001,-0.0
9.869154199,0.41157,13.4,0.987768,-1.27237,13.3,-3.0536879999999997,-0.32818,13.200000000000001,-0.787632,-0.11836,13.200000000000001,-0.284064,-0.02959,13.100000000000001,-0.071016,-0.0,13.100000000000001,-0.0,-0.0,13.100000000000001,-0.0
9.902008976,0.42502,13.4,1.020048,-1.3584500000000002,13.200000000000001,-3.2602800000000003,-0.31473,13.100000000000001,-0.755352,-0.10222,13.100000000000001,-0.245328,-0.03766,13.0,-0.09038399999999999,-0.0,13.0,-0.0,-0.0,13.0,-0.0
9.936158837,0.44116,13.3,1.058784,-1.4310800000000001,13.200000000000001,-3.4345920000000003,-0.32818,13.100000000000001,-0.787632,-0.10491,13.0,-0.251784,-0.0269,13.0,-0.06455999999999999,-0.0,13.0,-0.0,-0.0,13.0,-0.0
9.968971706,0.4842,13.200000000000001,1.16208,-1.36114,13.0,-3.266736,-0.34432,13.100000000000001,-0.826368,-0.12374,13.0,-0.296976,-0.04573,12.9,-0.109752,-0.0,12.9,-0.0,-0.0,12.9,-0.0
10.002004945,0.47344,13.200000000000001,1.136256,-1.42032,13.100000000000001,-3.408768,-0.32549,13.0,-0.781176,-0.12912,12.9,-0.309888,-0.040350000000000004,12.9,-0.09684000000000001,-0.0,12.9,-0.0,-0.0,12.9,-0.0
10.035946432,0.48151,13.3,1.155624,-1.30465,13.100000000000001,-3.13116,-0.35239000000000004,13.0,-0.845736,-0.10491,13.0,-0.251784,-0.03228,12.9,-0.077472,-0.0,12.9,-0.0,-0.0,12.9,-0.0
10.068975508,0.49496,13.3,1.187904,-1.2643,13.100000000000001,-3.0343199999999997,-0.35508,13.0,-0.852192,-0.12374,12.9,-0.296976,-0.040350000000000004,12.9,-0.09684000000000001,-0.0,12.9,-0.0,-0.0,12.9,-0.0
10.101889004,0.44923,13.200000000000001,1.078152,-1.1809100000000001,13.200000000000001,-2.834184,-0.34432,13.0,-0.826368,-0.09415,13.0,-0.22596,-0.0269,13.0,-0.06455999999999999,-0.0,13.0,-0.0,-0.0,12.9,-0.0
10.135831024,0.41157,13.200000000000001,0.987768,-1.14594,13.200000000000001,-2.750256,-0.3766,13.0,-0.90384,-0.1076,13.0,-0.25823999999999997,-0.01614,13.0,-0.038736,-0.0,13.0,-0.0,-0.0,13.0,-0.0
10.168829901,0.39274000000000003,13.3,0.9425760000000001,-1.14863,13.3,-2.756712,-0.34163,13.0,-0.819912,-0.10222,13.100000000000001,-0.245328,-0.03766,13.0,-0.09038399999999999,-0.0,13.0,-0.0,-0.0,13.0,-0.0
10.20186228,0.31204000000000004,13.4,0.7488960000000001,-1.21319,13.3,-2.911656,-0.33087,13.100000000000001,-0.794088,-0.11298000000000001,13.0,-0.271152,-0.02152,13.0,-0.051648,-0.0,13.0,-0.0,-0.0,13.0,-0.0
10.235884321,0.269,13.4,0.6456000000000001,-1.16746,13.200000000000001,-2.801904,-0.34701000000000004,13.200000000000001,-0.8328240000000001,-0.09415,13.100000000000001,-0.22596,-0.03497,13.100000000000001,-0.083928,-0.0,13.100000000000001,-0.0,-0.0,13.100000000000001,-0.0
10.268805824,0.28245000000000003,13.4,0.67788,-1.22664,13.100000000000001,-2.943936,-0.31473,13.100000000000001,-0.755352,-0.09146,13.100000000000001,-0.219504,-0.0269,13.0,-0.06455999999999999,-0.0,13.100000000000001,-0.0,-0.0,13.0,-0.0
10.302822411,0.23941,13.4,0.574584,-1.16477,13.200000000000001,-2.795448,-0.32280000000000003,13.200000000000001,-0.7747200000000001,-0.10222,13.100000000000001,-0.245328,-0.01076,13.100000000000001,-0.025824,-0.0,13.100000000000001,-0.0,-0.0,13.100000000000001,-0.0
10.335835212,0.28245000000000003,13.5,0.67788,-1.2320200000000001,13.3,-2.9568480000000004,-0.31742000000000004,13.200000000000001,-0.761808,-0.09146,13.100000000000001,-0.219504,-0.040350000000000004,13.100000000000001,-0.09684000000000001,-0.0,13.100000000000001,-0.0,-0.0,13.100000000000001,-0.0
10.368761123,0.27169,13.5,0.652056,-1.2616100000000001,13.4,-3.027864,-0.31473,13.200000000000001,-0.755352,-0.10491,13.100000000000001,-0.251784,-0.02152,13.100000000000001,-0.051648,-0.0,13.100000000000001,-0.0,-0.0,13.100000000000001,-0.0
10.402774256,0.28514,13.4,0.6843359999999999,-1.16746,13.3,-2.801904,-0.31742000000000004,13.200000000000001,-0.761808,-0.10491,13.200000000000001,-0.251784,-0.00269,13.100000000000001,-0.006456,-0.0,13.100000000000001,-0.0,-0.0,13.200000000000001,-0.0
10.43573948,0.32011,13.3,0.768264,-1.16746,13.3,-2.801904,-0.30666,13.3,-0.735984,-0.08877,13.200000000000001,-0.213048,-0.01883,13.200000000000001,-0.045191999999999996,-0.0,13.200000000000001,-0.0,-0.0,13.200000000000001,-0.0
10.468752634,0.30397,13.4,0.7295280000000001,-1.2185700000000002,13.3,-2.9245680000000003,-0.39005,13.200000000000001,-0.93612,-0.09684000000000001,13.200000000000001,-0.232416,0.0,13.200000000000001,0.0,-0.0,13.200000000000001,-0.0,-0.0,13.200000000000001,-0.0
10.502707806,0.26362,13.5,0.632688,-1.2105000000000001,13.4,-2.9052000000000002,-0.40619,13.3,-0.974856,-0.09146,13.200000000000001,-0.219504,-0.00807,13.200000000000001,-0.019368,-0.0,13.200000000000001,-0.0,-0.0,13.200000000000001,-0.0
10.535778452,0.28783000000000003,13.5,0.6907920000000001,-1.20243,13.4,-2.885832,-0.40888,13.200000000000001,-0.981312,-0.08608,13.200000000000001,-0.206592,-0.00807,13.200000000000001,-0.019368,-0.0,13.200000000000001,-0.0,-0.0,13.200000000000001,-0.0
10.568740515,0.24479,13.4,0.587496,-1.2105000000000001,13.4,-2.9052000000000002,-0.36315000000000003,13.3,-0.87156,-0.08339,13.3,-0.200136,0.0,13.200000000000001,0.0,-0.0,13.200000000000001,-0.0,-0.0,13.200000000000001,-0.0
10.602797918,0.23134000000000002,13.5,0.555216,-1.2643,13.3,-3.0343199999999997,-0.3766,13.3,-0.90384,-0.06994,13.3,-0.167856,-0.01076,13.200000000000001,-0.025824,-0.0,13.200000000000001,-0.0,-0.0,13.200000000000001,-0.0
10.635695801,0.23403000000000002,13.4,0.5616720000000001,-1.2105000000000001,13.5,-2.9052000000000002,-0.37122,13.3,-0.8909279999999999,-0.08339,13.200000000000001,-0.200136,0.00269,13.200000000000001,0.006456,-0.0,13.200000000000001,-0.0,-0.0,13.200000000000001,-0.0
10.668571393,0.22327,13.5,0.535848,-1.2185700000000002,13.4,-2.9245680000000003,-0.35239000000000004,13.3,-0.845736,-0.07801000000000001,13.3,-0.18722400000000003,-0.01345,13.200000000000001,-0.032279999999999996,-0.0,13.200000000000001,-0.0,-0.0,13.200000000000001,-0.0
10.702640586,0.23672,13.5,0.568128,-1.14863,13.4,-2.756712,-0.34163,13.3,-0.819912,-0.06187,13.3,-0.148488,0.0,13.200000000000001,0.0,-0.0,13.200000000000001,-0.0,-0.0,13.200000000000001,-0.0
10.735634558,0.24748,13.5,0.593952,-1.1593900000000001,13.3,-2.7825360000000003,-0.30935,13.3,-0.74244,-0.06725,13.3,-0.16140000000000002,-0.01076,13.200000000000001,-0.025824,-0.0,13.200000000000001,-0.0,-0.0,13.200000000000001,-0.0
10.768612032,0.22058,13.600000000000001,0.529392,-1.14594,13.5,-2.750256,-0.32818,13.3,-0.787632,-0.06456,13.3,-0.154944,0.0,13.200000000000001,0.0,-0.0,13.3,-0.0,-0.0,13.200000000000001,-0.0
10.80261898,0.22327,13.5,0.535848,-1.20243,13.4,-2.885832,-0.34432,13.3,-0.826368,-0.08070000000000001,13.3,-0.19368000000000002,-0.00807,13.200000000000001,-0.019368,-0.0,13.3,-0.0,-0.0,13.200000000000001,-0.0
10.835579723,0.20713,13.5,0.497112,-1.19436,13.4,-2.866464,-0.3766,13.3,-0.90384,-0.05918,13.3,-0.142032,0.0,13.200000000000001,0.0,-0.0,13.3,-0.0,-0.0,13.3,-0.0
10.868478468,0.20175,13.5,0.4842,-1.20781,13.4,-2.898744,-0.35777000000000003,13.3,-0.8586480000000001,-0.07532,13.3,-0.18076799999999998,0.0,13.200000000000001,0.0,-0.0,13.3,-0.0,-0.0,13.3,-0.0
10.902540701,0.2152,13.5,0.5164799999999999,-1.2185700000000002,13.5,-2.9245680000000003,-0.3497,13.3,-0.83928,-0.08339,13.3,-0.200136,0.0,13.200000000000001,0.0,-0.0,13.3,-0.0,-0.0,13.3,-0.0
10.935526426,0.2152,13.5,0.5164799999999999,-1.2105000000000001,13.4,-2.9052000000000002,-0.34701000000000004,13.3,-0.8328240000000001,-0.08877,13.3,-0.213048,0.0,13.200000000000001,0.0,-0.0,13.3,-0.0,-0.0,13.3,-0.0
10.968541631,0.22865000000000002,13.600000000000001,0.54876,-1.19705,13.5,-2.8729199999999997,-0.35239000000000004,13.4,-0.845736,-0.07801000000000001,13.3,-0.18722400000000003,0.0,13.200000000000001,0.0,-0.0,13.3,-0.0,-0.0,13.3,-0.0
11.002646467,0.23134000000000002,13.600000000000001,0.555216,-1.20243,13.4,-2.885832,-0.35508,13.4,-0.852192,-0.08339,13.3,-0.200136,-0.00538,13.200000000000001,-0.012912,-0.0,13.200000000000001,-0.0,-0.0,13.3,-0.0
11.035463304,0.22596000000000002,13.600000000000001,0.542304,-1.2105000000000001,13.3,-2.9052000000000002,-0.37122,13.3,-0.8909279999999999,-0.08608,13.3,-0.206592,-0.00269,13.3,-0.006456,-0.0,13.3,-0.0,-0.0,13.3,-0.0
11.069424288,0.23672,13.5,0.568128,-1.21319,13.4,-2.911656,-0.3766,13.3,-0.90384,-0.08339,13.3,-0.200136,-0.00538,13.3,-0.012912,-0.0,13.3,-0.0,-0.0,13.3,-0.0
11.102278844,0.22327,13.5,0.535848,-1.2105000000000001,13.3,-2.9052000000000002,-0.38736000000000004,13.3,-0.929664,-0.08339,13.3,-0.200136,-0.00538,13.3,-0.012912,-0.0,13.3,-0.0,-0.0,13.3,-0.0
11.135369566,0.22327,13.5,0.535848,-1.2105000000000001,13.4,-2.9052000000000002,-0.3766,13.3,-0.90384,-0.08339,13.3,-0.200136,-0.00538,13.3,-0.012912,-0.0,13.3,-0.0,-0.0,13.3,-0.0
11.169404078,0.22865000000000002,13.5,0.54876,-1.2105000000000001,13.4,-2.9052000000000002,-0.38198000000000004,13.3,-0.916752,-0.08339,13.3,-0.200136,-0.00538,13.3,-0.012912,-0.0,13.3,-0.0,-0.0,13.3,-0.0
11.202250646,0.22058,13.600000000000001,0.529392,-1.20512,13.4,-2.8922879999999997,-0.3766,13.3,-0.90384,-0.08339,13.3,-0.200136,-0.00538,13.3,-0.012912,-0.0,13.3,-0.0,-0.0,13.3,-0.0
11.235223316,0.22327,13.5,0.535848,-1.21319,13.5,-2.911656,-0.38467,13.3,-0.923208,-0.08339,13.3,-0.200136,-0.00807,13.3,-0.019368,-0.0,13.3,-0.0,-0.0,13.3,-0.0
11.269433932,0.22596000000000002,13.600000000000001,0.542304,-1.21588,13.4,-2.9181120000000003,-0.38736000000000004,13.3,-0.929664,-0.08339,13.3,-0.200136,-0.00538,13.3,-0.012912,-0.0,13.3,-0.0,-0.0,13.3,-0.0
11.302316765,0.22058,13.5,0.529392,-1.2105000000000001,13.4,-2.9052000000000002,-0.37929,13.3,-0.910296,-0.08339,13.3,-0.200136,-0.00538,13.3,-0.012912,-0.0,13.3,-0.0,-0.0,13.3,-0.0
11.335371611,0.22058,13.600000000000001,0.529392,-1.2105000000000001,13.3,-2.9052000000000002,-0.37391,13.3,-0.8973840000000001,-0.08339,13.3,-0.200136,-0.00538,13.3,-0.012912,-0.0,13.3,-0.0,-0.0,13.3,-0.0
11.369646259,0.22327,13.5,0.535848,-1.20512,13.4,-2.8922879999999997,-0.38736000000000004,13.3,-0.929664,-0.08339,13.3,-0.200136,-0.00538,13.3,-0.012912,-0.0,13.3,-0.0,-0.0,13.3,-0.0
11.402298553,0.22058,13.600000000000001,0.529392,-1.21319,13.4,-2.911656,-0.36584,13.3,-0.878016,-0.08339,13.3,-0.200136,-0.00807,13.3,-0.019368,-0.0,13.3,-0.0,-0.0,13.3,-0.0
11.435335564,0.22327,13.5,0.535848,-1.20243,13.4,-2.885832,-0.37391,13.3,-0.8973840000000001,-0.08070000000000001,13.3,-0.19368000000000002,-0.00269,13.3,-0.006456,-0.0,13.3,-0.0,-0.0,13.3,-0.0
11.469611317,0.22327,13.600000000000001,0.535848,-1.21319,13.3,-2.911656,-0.36853,13.3,-0.884472,-0.08070000000000001,13.3,-0.19368000000000002,-0.00807,13.3,-0.019368,-0.0,13.3,-0.0,-0.0,13.3,-0.0
11.502119356,0.22058,13.5,0.529392,-1.2105000000000001,13.5,-2.9052000000000002,-0.36853,13.3,-0.884472,-0.08877,13.3,-0.213048,-0.00538,13.3,-0.012912,-0.0,13.3,-0.0,-0.0,13.3,-0.0
11.535221383,0.22058,13.5,0.529392,-1.2185700000000002,13.3,-2.9245680000000003,-0.36853,13.3,-0.884472,-0.08339,13.3,-0.200136,-0.00538,13.3,-0.012912,-0.0,13.3,-0.0,-0.0,13.3,-0.0
11.56924054,0.22865000000000002,13.600000000000001,0.54876,-1.20243,13.4,-2.885832,-0.39543,13.4,-0.949032,-0.08339,13.3,-0.200136,-0.00807,13.3,-0.019368,-0.0,13.3,-0.0,-0.0,13.3,-0.0
11.602112755,0.22058,13.5,0.529392,-1.2105000000000001,13.4,-2.9052000000000002,-0.3766,13.3,-0.90384,-0.08339,13.3,-0.200136,0.0,13.3,0.0,-0.0,13.3,-0.0,-0.0,13.3,-0.0
11.636376118,0.22058,13.600000000000001,0.529392,-1.22126,13.4,-2.931024,-0.37391,13.3,-0.8973840000000001,-0.08339,13.3,-0.200136,-0.00538,13.3,-0.012912,-0.0,13.3,-0.0,-0.0,13.3,-0.0
11.669166051,0.22058,13.5,0.529392,-1.2185700000000002,13.5,-2.9245680000000003,-0.38736000000000004,13.4,-0.929664,-0.08070000000000001,13.3,-0.19368000000000002,-0.00807,13.3,-0.019368,-0.0,13.3,-0.0,-0.0,13.3,-0.0
11.702163584,0.22327,13.5,0.535848,-1.2185700000000002,13.4,-2.9245680000000003,-0.38467,13.4,-0.923208,-0.08877,13.3,-0.213048,-0.00538,13.3,-0.012912,-0.0,13.3,-0.0,-0.0,13.3,-0.0
11.73627331,0.22058,13.5,0.529392,-1.20243,13.5,-2.885832,-0.3766,13.4,-0.90384,-0.08339,13.3,-0.200136,-0.00538,13.3,-0.012912,-0.0,13.3,-0.0,-0.0,13.3,-0.0
11.769100662,0.22058,13.5,0.529392,-1.20781,13.4,-2.898744,-0.38467,13.4,-0.923208,-0.08339,13.3,-0.200136,-0.00269,13.3,-0.006456,-0.0,13.3,-0.0,-0.0,13.3,-0.0
11.802075234,0.22058,13.5,0.529392,-1.20512,13.4,-2.8922879999999997,-0.39005,13.3,-0.93612,-0.08339,13.3,-0.200136,0.0,13.3,0.0,-0.0,13.3,-0.0,-0.0,13.3,-0.0
11.836006111,0.22596000000000002,13.5,0.542304,-1.22126,13.3,-2.931024,-0.37929,13.3,-0.910296,-0.08339,13.3,-0.200136,0.0,13.3,0.0,-0.0,13.3,-0.0,-0.0,13.3,-0.0
11.869035021,0.22058,13.5,0.529392,-1.2105000000000001,13.4,-2.9052000000000002,-0.37122,13.3,-0.8909279999999999,-0.08339,13.3,-0.200136,-0.00269,13.3,-0.006456,-0.0,13.3,-0.0,-0.0,13.3,-0.0
11.902019946,0.22327,13.5,0.535848,-1.2105000000000001,13.3,-2.9052000000000002,-0.37391,13.3,-0.8973840000000001,-0.08339,13.3,-0.200136,-0.00538,13.3,-0.012912,-0.0,13.3,-0.0,-0.0,13.3,-0.0
11.936039911,0.22327,13.5,0.535848,-1.21588,13.4,-2.9181120000000003,-0.38467,13.3,-0.923208,-0.08339,13.3,-0.200136,-0.00269,13.3,-0.006456,-0.0,13.3,-0.0,-0.0,13.3,-0.0
11.969071297,0.22058,13.5,0.529392,-1.2105000000000001,13.3,-2.9052000000000002,-0.38467,13.3,-0.923208,-0.08339,13.3,-0.200136,-0.00538,13.3,-0.012912,-0.0,13.3,-0.0,-0.0,13.3,-0.0
12.002067019,0.22327,13.5,0.535848,-1.20243,13.4,-2.885832,-0.3766,13.3,-0.90384,-0.08339,13.3,-0.200136,-0.00269,13.3,-0.006456,-0.0,13.3,-0.0,-0.0,13.3,-0.0
12.03601658,0.22058,13.5,0.529392,-1.21319,13.3,-2.911656,-0.37391,13.3,-0.8973840000000001,-0.08339,13.3,-0.200136,0.0,13.3,0.0,-0.0,13.3,-0.0,-0.0,13.3,-0.0
12.069012861,0.22327,13.5,0.535848,-1.2105000000000001,13.4,-2.9052000000000002,-0.36584,13.3,-0.878016,-0.08070000000000001,13.3,-0.19368000000000002,-0.00269,13.3,-0.006456,-0.0,13.3,-0.0,-0.0,13.3,-0.0
12.101996641,0.22327,13.5,0.535848,-1.2185700000000002,13.4,-2.9245680000000003,-0.39005,13.3,-0.93612,-0.08339,13.3,-0.200136,-0.00269,13.3,-0.006456,-0.0,13.3,-0.0,-0.0,13.3,-0.0
12.136060836,0.22596000000000002,13.5,0.542304,-1.19705,13.4,-2.8729199999999997,-0.38736000000000004,13.3,-0.929664,-0.08339,13.3,-0.200136,-0.00538,13.3,-0.012912,-0.0,13.3,-0.0,-0.0,13.3,-0.0
12.169054606,0.22327,13.600000000000001,0.535848,-1.20781,13.3,-2.898744,-0.37122,13.4,-0.8909279999999999,-0.09146,13.3,-0.219504,-0.00538,13.3,-0.012912,-0.0,13.3,-0.0,-0.0,13.3,-0.0
12.202005984,0.22327,13.5,0.535848,-1.19974,13.5,-2.879376,-0.37391,13.4,-0.8973840000000001,-0.08339,13.3,-0.200136,-0.00269,13.3,-0.006456,-0.0,13.3,-0.0,-0.0,13.3,-0.0
12.23603436,0.22327,13.5,0.535848,-1.20512,13.4,-2.8922879999999997,-0.38198000000000004,13.3,-0.916752,-0.09146,13.3,-0.219504,-0.00269,13.3,-0.006456,-0.0,13.3,-0.0,-0.0,13.3,-0.0
12.269083613,0.22327,13.5,0.535848,-1.21319,13.4,-2.911656,-0.37929,13.3,-0.910296,-0.08339,13.3,-0.200136,-0.00269,13.3,-0.006456,-0.0,13.3,-0.0,-0.0,13.3,-0.0
12.301931457,0.22327,13.5,0.535848,-1.22126,13.4,-2.931024,-0.36853,13.4,-0.884472,-0.08339,13.3,-0.200136,0.0,13.3,0.0,-0.0,13.3,-0.0,-0.0,13.3,-0.0
12.335881145,0.22327,13.5,0.535848,-1.21319,13.4,-2.911656,-0.3766,13.3,-0.90384,-0.08339,13.3,-0.200136,0.0,13.3,0.0,-0.0,13.3,-0.0,-0.0,13.3,-0.0
12.368889248,0.22865000000000002,13.5,0.54876,-1.20781,13.4,-2.898744,-0.38467,13.3,-0.923208,-0.08339,13.3,-0.200136,-0.00538,13.3,-0.012912,-0.0,13.3,-0.0,-0.0,13.3,-0.0
12.401857952,0.22327,13.600000000000001,0.535848,-1.20781,13.3,-2.898744,-0.38736000000000004,13.3,-0.929664,-0.08339,13.3,-0.200136,-0.00538,13.3,-0.012912,-0.0,13.3,-0.0,-0.0,13.3,-0.0
12.435896843,0.23403000000000002,13.600000000000001,0.5616720000000001,-1.19974,13.4,-2.879376,-0.35508,13.4,-0.852192,-0.08070000000000001,13.3,-0.19368000000000002,-0.00538,13.3,-0.012912,-0.0,13.3,-0.0,-0.0,13.3,-0.0
12.468882211,0.22327,13.5,0.535848,-1.2185700000000002,13.4,-2.9245680000000003,-0.38736000000000004,13.3,-0.929664,-0.08339,13.3,-0.200136,-0.00269,13.3,-0.006456,-0.0,13.3,-0.0,-0.0,13.3,-0.0
12.501876211,0.22327,13.5,0.535848,-1.2105000000000001,13.4,-2.9052000000000002,-0.38467,13.3,-0.923208,-0.08070000000000001,13.3,-0.19368000000000002,-0.00269,13.3,-0.006456,-0.0,13.3,-0.0,-0.0,13.3,-0.0
12.535850088,0.22327,13.5,0.535848,-1.2185700000000002,13.3,-2.9245680000000003,-0.37391,13.3,-0.8973840000000001,-0.08339,13.3,-0.200136,-0.00807,13.3,-0.019368,-0.0,13.3,-0.0,-0.0,13.3,-0.0
12.568865249,0.22327,13.5,0.535848,-1.19974,13.4,-2.879376,-0.38736000000000004,13.3,-0.929664,-0.08070000000000001,13.3,-0.19368000000000002,-0.00269,13.3,-0.006456,-0.0,13.3,-0.0,-0.0,13.3,-0.0
12.602862588,0.22327,13.5,0.535848,-1.21319,13.4,-2.911656,-0.39005,13.3,-0.93612,-0.08070000000000001,13.3,-0.19368000000000002,-0.00538,13.3,-0.012912,-0.0,13.3,-0.0,-0.0,13.3,-0.0
12.635850262,0.22596000000000002,13.5,0.542304,-1.21319,13.4,-2.911656,-0.37122,13.3,-0.8909279999999999,-0.08070000000000001,13.3,-0.19368000000000002,-0.00269,13.3,-0.006456,-0.0,13.3,-0.0,-0.0,13.3,-0.0
12.668709537,0.22327,13.600000000000001,0.535848,-1.19436,13.4,-2.866464,-0.37391,13.3,-0.8973840000000001,-0.08339,13.3,-0.200136,-0.00269,13.3,-0.006456,-0.0,13.3,-0.0,-0.0,13.3,-0.0
12.702747165,0.23134000000000002,13.5,0.555216,-1.20512,13.4,-2.8922879999999997,-0.37122,13.3,-0.8909279999999999,-0.08070000000000001,13.3,-0.19368000000000002,-0.00269,13.3,-0.006456,-0.0,13.3,-0.0,-0.0,13.3,-0.0
12.735793385,0.22327,13.600000000000001,0.535848,-1.20512,13.4,-2.8922879999999997,-0.37391,13.3,-0.8973840000000001,-0.08070000000000001,13.3,-0.19368000000000002,-0.00538,13.3,-0.012912,-0.0,13.3,-0.0,-0.0,13.3,-0.0
12.768651601,0.22596000000000002,13.600000000000001,0.542304,-1.20781,13.5,-2.898744,-0.3766,13.3,-0.90384,-0.08339,13.3,-0.200136,-0.00269,13.3,-0.006456,-0.0,13.3,-0.0,-0.0,13.3,-0.0
12.802710957,0.22327,13.5,0.535848,-1.20781,13.4,-2.898744,-0.38736000000000004,13.3,-0.929664,-0.08339,13.3,-0.200136,-0.00538,13.3,-0.012912,-0.0,13.3,-0.0,0.00269,13.3,0.006456
12.835828143,0.22327,13.5,0.535848,-1.22126,13.4,-2.931024,-0.39274000000000003,13.3,-0.9425760000000001,-0.08070000000000001,13.3,-0.19368000000000002,-0.00538,13.3,-0.012912,-0.0,13.3,-0.0,-0.0,13.3,-0.0
12.868805497,0.22327,13.600000000000001,0.535848,-1.19974,13.4,-2.879376,-0.38736000000000004,13.3,-0.929664,-0.08070000000000001,13.3,-0.19368000000000002,-0.00538,13.3,-0.012912,-0.0,13.3,-0.0,-0.0,13.3,-0.0
12.902823575,0.23403000000000002,13.5,0.5616720000000001,-1.2185700000000002,13.3,-2.9245680000000003,-0.38467,13.4,-0.923208,-0.08070000000000001,13.3,-0.19368000000000002,0.0,13.3,0.0,-0.0,13.3,-0.0,-0.0,13.3,-0.0
12.935782495,0.22327,13.600000000000001,0.535848,-1.20781,13.4,-2.898744,-0.35777000000000003,13.3,-0.8586480000000001,-0.08070000000000001,13.3,-0.19368000000000002,-0.00269,13.3,-0.006456,-0.0,13.3,-0.0,-0.0,13.3,-0.0
12.96884138,0.22327,13.600000000000001,0.535848,-1.20512,13.3,-2.8922879999999997,-0.36584,13.3,-0.878016,-0.08339,13.3,-0.200136,-0.00807,13.3,-0.019368,-0.0,13.3,-0.0,-0.0,13.3,-0.0
13.002653763,0.22327,13.600000000000001,0.535848,-1.21588,13.4,-2.9181120000000003,-0.38736000000000004,13.3,-0.929664,-0.08339,13.3,-0.200136,-0.00269,13.3,-0.006456,-0.0,13.3,-0.0,-0.0,13.3,-0.0
13.035562178,0.22327,13.600000000000001,0.535848,-1.20512,13.3,-2.8922879999999997,-0.37929,13.3,-0.910296,-0.08339,13.3,-0.200136,0.0,13.3,0.0,-0.0,13.3,-0.0,-0.0,13.3,-0.0
13.068678514,0.22327,13.5,0.535848,-1.20243,13.4,-2.885832,-0.36315000000000003,13.3,-0.87156,-0.08339,13.3,-0.200136,-0.00269,13.3,-0.006456,-0.0,13.3,-0.0,-0.0,13.3,-0.0
13.102804457,0.22327,13.5,0.535848,-1.19705,13.4,-2.8729199999999997,-0.38198000000000004,13.4,-0.916752,-0.08339,13.3,-0.200136,-0.00269,13.3,-0.006456,-0.0,13.3,-0.0,-0.0,13.3,-0.0
13.135629315,0.22327,13.5,0.535848,-1.20781,13.4,-2.898744,-0.38467,13.4,-0.923208,-0.09146,13.3,-0.219504,-0.00269,13.3,-0.006456,-0.0,13.3,-0.0,-0.0,13.3,-0.0
13.168667812,0.22327,13.600000000000001,0.535848,-1.21319,13.5,-2.911656,-0.38467,13.3,-0.923208,-0.08339,13.3,-0.200136,0.0,13.3,0.0,-0.0,13.3,-0.0,-0.0,13.3,-0.0
13.202671181,0.22327,13.600000000000001,0.535848,-1.21319,13.4,-2.911656,-0.39005,13.4,-0.93612,-0.08339,13.3,-0.200136,-0.00269,13.3,-0.006456,-0.0,13.3,-0.0,-0.0,13.3,-0.0
13.235570072,0.22327,13.5,0.535848,-1.2105000000000001,13.5,-2.9052000000000002,-0.39274000000000003,13.3,-0.9425760000000001,-0.08070000000000001,13.3,-0.19368000000000002,-0.00538,13.3,-0.012912,-0.0,13.3,-0.0,-0.0,13.3,-0.0
13.269598152,0.22596000000000002,13.600000000000001,0.542304,-1.20781,13.4,-2.898744,-0.39005,13.3,-0.93612,-0.08070000000000001,13.3,-0.19368000000000002,0.0,13.3,0.0,-0.0,13.3,-0.0,-0.0,13.3,-0.0
13.302527949,0.22327,13.600000000000001,0.535848,-1.20781,13.4,-2.898744,-0.3766,13.3,-0.90384,-0.08070000000000001,13.3,-0.19368000000000002,-0.00538,13.3,-0.012912,-0.0,13.3,-0.0,-0.0,13.3,-0.0
13.335548293,0.22327,13.600000000000001,0.535848,-1.19705,13.4,-2.8729199999999997,-0.39274000000000003,13.3,-0.9425760000000001,-0.08070000000000001,13.3,-0.19368000000000002,-0.00269,13.3,-0.006456,-0.0,13.3,-0.0,-0.0,13.3,-0.0
13.369506945,0.22596000000000002,13.600000000000001,0.542304,-1.20512,13.4,-2.8922879999999997,-0.39543,13.3,-0.949032,-0.08339,13.3,-0.200136,0.0,13.3,0.0,-0.0,13.3,-0.0,-0.0,13.3,-0.0
13.402376258,0.22327,13.5,0.535848,-1.20243,13.3,-2.885832,-0.39005,13.3,-0.93612,-0.08339,13.3,-0.200136,-0.00807,13.3,-0.019368,-0.0,13.3,-0.0,-0.0,13.3,-0.0
13.435510977,0.22327,13.600000000000001,0.535848,-1.20512,13.4,-2.8922879999999997,-0.38467,13.4,-0.923208,-0.08339,13.3,-0.200136,-0.00269,13.3,-0.006456,-0.0,13.3,-0.0,-0.0,13.3,-0.0
13.469462372,0.22327,13.5,0.535848,-1.2105000000000001,13.3,-2.9052000000000002,-0.39543,13.3,-0.949032,-0.08339,13.3,-0.200136,-0.00538,13.3,-0.012912,-0.0,13.3,-0.0,-0.0,13.3,-0.0
13.502464393,0.22596000000000002,13.5,0.542304,-1.2105000000000001,13.4,-2.9052000000000002,-0.38736000000000004,13.4,-0.929664,-0.08339,13.3,-0.200136,0.0,13.3,0.0,-0.0,13.3,-0.0,-0.0,13.3,-0.0
13.535434496,0.23134000000000002,13.5,0.555216,-1.20243,13.3,-2.885832,-0.38736000000000004,13.3,-0.929664,-0.08339,13.3,-0.200136,-0.00269,13.3,-0.006456,-0.0,13.3,-0.0,-0.0,13.3,-0.0
13.569298585,0.22327,13.600000000000001,0.535848,-1.21588,13.4,-2.9181120000000003,-0.3766,13.3,-0.90384,-0.08339,13.3,-0.200136,-0.00538,13.3,-0.012912,-0.0,13.3,-0.0,-0.0,13.3,-0.0
13.602393732,0.22596000000000002,13.600000000000001,0.542304,-1.20781,13.3,-2.898744,-0.38198000000000004,13.3,-0.916752,-0.08339,13.3,-0.200136,0.0,13.3,0.0,-0.0,13.3,-0.0,-0.0,13.3,-0.0
13.635419547,0.22327,13.600000000000001,0.535848,-1.19974,13.4,-2.879376,-0.36315000000000003,13.3,-0.87156,-0.08339,13.3,-0.200136,0.0,13.3,0.0,-0.0,13.3,-0.0,-0.0,13.3,-0.0
13.669344618,0.22327,13.600000000000001,0.535848,-1.2105000000000001,13.4,-2.9052000000000002,-0.36584,13.3,-0.878016,-0.08339,13.3,-0.200136,0.0,13.3,0.0,-0.0,13.3,-0.0,-0.0,13.3,-0.0
13.702254821,0.22327,13.5,0.535848,-1.19436,13.4,-2.866464,-0.36853,13.4,-0.884472,-0.07801000000000001,13.3,-0.18722400000000003,-0.00269,13.3,-0.006456,-0.0,13.3,-0.0,-0.0,13.3,-0.0
13.73530139,0.22327,13.5,0.535848,-1.19705,13.4,-2.8729199999999997,-0.38467,13.3,-0.923208,-0.08608,13.3,-0.206592,0.0,13.3,0.0,-0.0,13.3,-0.0,0.00269,13.3,0.006456
13.769182516,0.22327,13.5,0.535848,-1.21588,13.5,-2.9181120000000003,-0.39543,13.4,-0.949032,-0.08070000000000001,13.3,-0.19368000000000002,-0.00269,13.3,-0.006456,-0.0,13.3,-0.0,-0.0,13.3,-0.0
13.802186687,0.22327,13.600000000000001,0.535848,-1.19974,13.4,-2.879376,-0.36853,13.3,-0.884472,-0.08070000000000001,13.3,-0.19368000000000002,0.0,13.3,0.0,-0.0,13.3,-0.0,-0.0,13.3,-0.0
13.835223873,0.22596000000000002,13.600000000000001,0.542304,-1.20512,13.4,-2.8922879999999997,-0.37929,13.3,-0.910296,-0.08339,13.3,-0.200136,0.0,13.3,0.0,-0.0,13.3,-0.0,0.00269,13.3,0.006456
13.869214418,0.22327,13.600000000000001,0.535848,-1.21588,13.4,-2.9181120000000003,-0.37391,13.4,-0.8973840000000001,-0.08339,13.3,-0.200136,0.0,13.3,0.0,-0.0,13.3,-0.0,-0.0,13.3,-0.0
13.902189318,0.22327,13.600000000000001,0.535848,-1.20781,13.4,-2.898744,-0.36315000000000003,13.4,-0.87156,-0.08070000000000001,13.3,-0.19368000000000002,0.0,13.3,0.0,-0.0,13.3,-0.0,-0.0,13.3,-0.0
13.936476768,0.22327,13.5,0.535848,-1.21588,13.4,-2.9181120000000003,-0.37391,13.4,-0.8973840000000001,-0.08070000000000001,13.3,-0.19368000000000002,0.0,13.3,0.0,-0.0,13.3,-0.0,-0.0,13.3,-0.0
13.969226374,0.22327,13.5,0.535848,-1.19974,13.5,-2.879376,-0.36046,13.4,-0.865104,-0.08070000000000001,13.3,-0.19368000000000002,0.0,13.3,0.0,-0.0,13.3,-0.0,-0.0,13.3,-0.0
14.002341077,0.23134000000000002,13.5,0.555216,-1.19974,13.4,-2.879376,-0.38736000000000004,13.4,-0.929664,-0.08339,13.3,-0.200136,0.0,13.3,0.0,-0.0,13.3,-0.0,-0.0,13.3,-0.0
14.036465578,0.22327,13.5,0.535848,-1.21319,13.3,-2.911656,-0.38467,13.4,-0.923208,-0.08339,13.3,-0.200136,-0.00538,13.3,-0.012912,-0.0,13.3,-0.0,-0.0,13.3,-0.0
14.069323881,0.22327,13.5,0.535848,-1.2105000000000001,13.4,-2.9052000000000002,-0.37391,13.3,-0.8973840000000001,-0.08339,13.3,-0.200136,-0.00269,13.3,-0.006456,-0.0,13.3,-0.0,-0.0,13.3,-0.0
14.102193389,0.22327,13.5,0.535848,-1.21319,13.5,-2.911656,-0.37929,13.3,-0.910296,-0.08070000000000001,13.3,-0.19368000000000002,0.0,13.3,0.0,-0.0,13.3,-0.0,-0.0,13.3,-0.0
14.136229609,0.22327,13.600000000000001,0.535848,-1.20781,13.5,-2.898744,-0.36853,13.4,-0.884472,-0.08070000000000001,13.3,-0.19368000000000002,0.0,13.3,0.0,-0.0,13.3,-0.0,0.00269,13.3,0.006456
14.169290452,0.22327,13.600000000000001,0.535848,-1.2105000000000001,13.4,-2.9052000000000002,-0.37391,13.3,-0.8973840000000001,-0.08070000000000001,13.3,-0.19368000000000002,0.0,13.3,0.0,-0.0,13.3,-0.0,-0.0,13.3,-0.0
14.202170795,0.22327,13.600000000000001,0.535848,-1.20243,13.4,-2.885832,-0.37929,13.3,-0.910296,-0.08070000000000001,13.3,-0.19368000000000002,-0.00538,13.3,-0.012912,-0.0,13.3,-0.0,-0.0,13.3,-0.0
14.23618202,0.22327,13.5,0.535848,-1.21319,13.5,-2.911656,-0.38198000000000004,13.3,-0.916752,-0.08070000000000001,13.3,-0.19368000000000002,0.0,13.3,0.0,-0.0,13.3,-0.0,-0.0,13.3,-0.0
14.269058092,0.22327,13.600000000000001,0.535848,-1.19436,13.4,-2.866464,-0.37122,13.3,-0.8909279999999999,-0.08070000000000001,13.3,-0.19368000000000002,0.0,13.3,0.0,-0.0,13.3,-0.0,-0.0,13.3,-0.0
14.302113455,0.22327,13.600000000000001,0.535848,-1.20512,13.5,-2.8922879999999997,-0.37391,13.3,-0.8973840000000001,-0.08070000000000001,13.3,-0.19368000000000002,0.0,13.3,0.0,-0.0,13.3,-0.0,-0.0,13.3,-0.0
14.336128173,0.22327,13.5,0.535848,-1.21319,13.5,-2.911656,-0.38736000000000004,13.3,-0.929664,-0.08070000000000001,13.3,-0.19368000000000002,-0.00269,13.3,-0.006456,-0.0,13.3,-0.0,-0.0,13.3,-0.0
14.369146012,0.22327,13.5,0.535848,-1.21319,13.4,-2.911656,-0.3766,13.4,-0.90384,-0.08070000000000001,13.3,-0.19368000000000002,-0.00538,13.3,-0.012912,-0.0,13.3,-0.0,-0.0,13.3,-0.0
14.402062352,0.23134000000000002,13.5,0.555216,-1.19974,13.4,-2.879376,-0.3766,13.4,-0.90384,-0.08070000000000001,13.3,-0.19368000000000002,-0.00269,13.3,-0.006456,-0.0,13.3,-0.0,-0.0,13.3,-0.0
14.436023313,0.22327,13.5,0.535848,-1.20243,13.4,-2.885832,-0.39005,13.4,-0.93612,-0.08070000000000001,13.3,-0.19368000000000002,0.0,13.3,0.0,-0.0,13.3,-0.0,-0.0,13.3,-0.0
14.469106899,0.22327,13.5,0.535848,-1.21319,13.3,-2.911656,-0.37929,13.3,-0.910296,-0.08070000000000001,13.3,-0.19368000000000002,-0.00269,13.3,-0.006456,-0.0,13.3,-0.0,-0.0,13.3,-0.0
14.502021324,0.22327,13.600000000000001,0.535848,-1.20781,13.4,-2.898744,-0.36853,13.4,-0.884472,-0.08339,13.3,-0.200136,0.0,13.3,0.0,-0.0,13.3,-0.0,-0.0,13.3,-0.0
14.536076337,0.22327,13.600000000000001,0.535848,-1.20781,13.600000000000001,-2.898744,-0.36584,13.3,-0.878016,-0.08070000000000001,13.3,-0.19368000000000002,0.0,13.3,0.0,-0.0,13.3,-0.0,-0.0,13.3,-0.0
14.569048906,0.22865000000000002,13.600000000000001,0.54876,-1.2105000000000001,13.5,-2.9052000000000002,-0.38198000000000004,13.3,-0.916752,-0.08339,13.3,-0.200136,0.0,13.3,0.0,-0.0,13.3,-0.0,-0.0,13.3,-0.0
14.60206127,0.22327,13.5,0.535848,-1.20781,13.4,-2.898744,-0.39543,13.3,-0.949032,-0.08339,13.3,-0.200136,0.0,13.3,0.0,-0.0,13.3,-0.0,-0.0,13.3,-0.0
14.635983787,0.22327,13.600000000000001,0.535848,-1.20781,13.4,-2.898744,-0.3766,13.4,-0.90384,-0.08339,13.3,-0.200136,-0.00269,13.3,-0.006456,-0.0,13.3,-0.0,-0.0,13.3,-0.0
14.668909968,0.22327,13.600000000000001,0.535848,-1.21588,13.5,-2.9181120000000003,-0.3766,13.4,-0.90384,-0.08339,13.3,-0.200136,-0.00269,13.3,-0.006456,-0.0,13.3,-0.0,-0.0,13.3,-0.0
14.701884053,0.22327,13.5,0.535848,-1.1889800000000001,13.4,-2.853552,-0.38736000000000004,13.4,-0.929664,-0.08339,13.3,-0.200136,-0.00269,13.3,-0.006456,-0.0,13.3,-0.0,-0.0,13.3,-0.0
14.73602424,0.22327,13.5,0.535848,-1.21588,13.4,-2.9181120000000003,-0.36584,13.3,-0.878016,-0.08339,13.3,-0.200136,0.0,13.3,0.0,-0.0,13.3,-0.0,-0.0,13.3,-0.0
14.769052284,0.22327,13.600000000000001,0.535848,-1.1889800000000001,13.4,-2.853552,-0.37391,13.4,-0.8973840000000001,-0.08339,13.3,-0.200136,0.0,13.3,0.0,-0.0,13.3,-0.0,-0.0,13.3,-0.0
14.801983181,0.22596000000000002,13.600000000000001,0.542304,-1.2105000000000001,13.4,-2.9052000000000002,-0.37122,13.3,-0.8909279999999999,-0.08339,13.3,-0.200136,-0.00269,13.3,-0.006456,-0.0,13.3,-0.0,-0.0,13.3,-0.0
14.835922379,0.22327,13.600000000000001,0.535848,-1.21319,13.4,-2.911656,-0.38198000000000004,13.3,-0.916752,-0.08339,13.3,-0.200136,-0.00538,13.3,-0.012912,-0.0,13.3,-0.0,-0.0,13.3,-0.0
14.868894284,0.22327,13.600000000000001,0.535848,-1.21319,13.5,-2.911656,-0.38736000000000004,13.3,-0.929664,-0.08339,13.3,-0.200136,-0.00538,13.3,-0.012912,-0.0,13.3,-0.0,-0.0,13.3,-0.0
14.902910138,0.22327,13.5,0.535848,-1.21588,13.4,-2.9181120000000003,-0.38736000000000004,13.3,-0.929664,-0.08339,13.3,-0.200136,-0.00538,13.3,-0.012912,-0.0,13.3,-0.0,-0.0,13.3,-0.0
14.935868736,0.22596000000000002,13.600000000000001,0.542304,-1.20781,13.5,-2.898744,-0.37391,13.3,-0.8973840000000001,-0.08070000000000001,13.3,-0.19368000000000002,-0.00269,13.3,-0.006456,-0.0,13.3,-0.0,-0.0,13.3,-0.0
14.96889219,0.22327,13.600000000000001,0.535848,-1.19436,13.3,-2.866464,-0.38467,13.3,-0.923208,-0.08070000000000001,13.3,-0.19368000000000002,0.0,13.3,0.0,-0.0,13.3,-0.0,-0.0,13.3,-0.0
15.002901294,0.22327,13.600000000000001,0.535848,-1.1889800000000001,13.4,-2.853552,-0.37122,13.3,-0.8909279999999999,-0.08339,13.3,-0.200136,0.0,13.3,0.0,-0.0,13.3,-0.0,-0.0,13.3,-0.0
15.035778535,0.22865000000000002,13.5,0.54876,-1.20512,13.4,-2.8922879999999997,-0.3766,13.4,-0.90384,-0.08339,13.3,-0.200136,-0.00807,13.3,-0.019368,-0.0,13.3,-0.0,-0.0,13.3,-0.0
15.068831773,0.23403000000000002,13.600000000000001,0.5616720000000001,-1.20512,13.4,-2.8922879999999997,-0.36853,13.4,-0.884472,-0.08339,13.3,-0.200136,0.0,13.3,0.0,-0.0,13.3,-0.0,-0.0,13.3,-0.0
15.102849052,0.22596000000000002,13.600000000000001,0.542304,-1.2105000000000001,13.5,-2.9052000000000002,-0.37391,13.3,-0.8973840000000001,-0.08070000000000001,13.3,-0.19368000000000002,-0.00538,13.3,-0.012912,-0.0,13.3,-0.0,-0.0,13.3,-0.0
15.135865622,0.22327,13.5,0.535848,-1.20781,13.4,-2.898744,-0.37929,13.4,-0.910296,-0.08070000000000001,13.3,-0.19368000000000002,-0.00269,13.3,-0.006456,-0.0,13.3,-0.0,-0.0,13.3,-0.0
15.168818473,0.22596000000000002,13.5,0.542304,-1.2105000000000001,13.3,-2.9052000000000002,-0.3766,13.3,-0.90384,-0.08070000000000001,13.3,-0.19368000000000002,0.0,13.3,0.0,-0.0,13.3,-0.0,-0.0,13.3,-0.0
15.202787161,0.22327,13.600000000000001,0.535848,-1.19436,13.4,-2.866464,-0.38467,13.3,-0.923208,-0.08070000000000001,13.3,-0.19368000000000002,0.0,13.3,0.0,-0.0,13.3,-0.0,-0.0,13.3,-0.0
15.235788701,0.22327,13.5,0.535848,-1.20781,13.4,-2.898744,-0.36046,13.3,-0.865104,-0.08070000000000001,13.3,-0.19368000000000002,-0.00538,13.3,-0.012912,-0.0,13.3,-0.0,-0.0,13.200000000000001,-0.0
15.268765586,0.22327,13.600000000000001,0.535848,-1.21319,13.4,-2.911656,-0.37929,13.3,-0.910296,-0.08070000000000001,13.3,-0.19368000000000002,-0.00269,13.3,-0.006456,-0.0,13.3,-0.0,-0.0,13.3,-0.0
15.302638891,0.22327,13.5,0.535848,-1.19974,13.4,-2.879376,-0.37391,13.3,-0.8973840000000001,-0.08339,13.3,-0.200136,-0.00269,13.3,-0.006456,-0.0,13.3,-0.0,-0.0,13.3,-0.0
15.33567582,0.22596000000000002,13.600000000000001,0.542304,-1.20243,13.3,-2.885832,-0.38467,13.3,-0.923208,-0.08070000000000001,13.3,-0.19368000000000002,-0.00269,13.3,-0.006456,-0.0,13.3,-0.0,-0.0,13.3,-0.0
15.36870444,0.23134000000000002,13.600000000000001,0.555216,-1.2105000000000001,13.5,-2.9052000000000002,-0.3766,13.3,-0.90384,-0.08070000000000001,13.3,-0.19368000000000002,-0.00538,13.3,-0.012912,-0.0,13.3,-0.0,-0.0,13.3,-0.0
15.402804312,0.22596000000000002,13.600000000000001,0.542304,-1.20243,13.4,-2.885832,-0.37929,13.3,-0.910296,-0.08070000000000001,13.3,-0.19368000000000002,-0.00269,13.3,-0.006456,-0.0,13.3,-0.0,-0.0,13.3,-0.0
15.435709472,0.22327,13.5,0.535848,-1.20243,13.4,-2.885832,-0.3766,13.3,-0.90384,-0.08070000000000001,13.3,-0.19368000000000002,-0.00538,13.3,-0.012912,-0.0,13.3,-0.0,-0.0,13.3,-0.0
15.46867942,0.22327,13.600000000000001,0.535848,-1.21319,13.3,-2.911656,-0.37929,13.3,-0.910296,-0.08070000000000001,13.3,-0.19368000000000002,-0.00269,13.3,-0.006456,-0.0,13.3,-0.0,-0.0,13.3,-0.0
