RoboFEI-Work/manip_ws/pick_telemetry/pick_telemetry_20260626_152706.csv
time,manip_joint1/current,manip_joint1/voltage,manip_joint1/effort,manip_joint2/current,manip_joint2/voltage,manip_joint2/effort,manip_joint3/current,manip_joint3/voltage,manip_joint3/effort,manip_joint4/current,manip_joint4/voltage,manip_joint4/effort,manip_joint5/current,manip_joint5/voltage,manip_joint5/effort,manip_joint6/current,manip_joint6/voltage,manip_joint6/effort,manip_joint7/current,manip_joint7/voltage,manip_joint7/effort
0.016805781,0.0,13.700000000000001,0.0,-0.00538,13.700000000000001,-0.012912,0.00269,13.600000000000001,0.006456,0.0,13.5,0.0,0.0,13.5,0.0,-0.0,13.5,-0.0,-0.0,13.5,-0.0
0.050136672,0.0,13.700000000000001,0.0,-0.00269,13.700000000000001,-0.006456,0.00538,13.600000000000001,0.012912,0.0,13.5,0.0,0.0,13.5,0.0,-0.0,13.5,-0.0,-0.0,13.5,-0.0
0.082361137,0.0,13.700000000000001,0.0,-0.00269,13.700000000000001,-0.006456,0.00269,13.600000000000001,0.006456,0.0,13.5,0.0,0.0,13.5,0.0,-0.0,13.5,-0.0,-0.0,13.5,-0.0
0.115317663,0.0,13.700000000000001,0.0,-0.00269,13.700000000000001,-0.006456,0.00269,13.600000000000001,0.006456,0.00269,13.5,0.006456,0.0,13.5,0.0,-0.0,13.5,-0.0,-0.0,13.5,-0.0
0.148466282,0.0,13.700000000000001,0.0,-0.00269,13.700000000000001,-0.006456,0.00269,13.600000000000001,0.006456,0.0,13.5,0.0,0.0,13.5,0.0,-0.0,13.5,-0.0,-0.0,13.5,-0.0
0.182445088,0.0,13.700000000000001,0.0,-0.00269,13.700000000000001,-0.006456,0.00269,13.600000000000001,0.006456,0.0,13.5,0.0,0.0,13.5,0.0,-0.0,13.5,-0.0,-0.0,13.5,-0.0
0.215996155,0.0,13.700000000000001,0.0,-0.00538,13.700000000000001,-0.012912,0.00269,13.600000000000001,0.006456,0.0,13.5,0.0,0.0,13.5,0.0,-0.0,13.5,-0.0,-0.0,13.5,-0.0
0.249169793,0.0,13.700000000000001,0.0,-0.00269,13.700000000000001,-0.006456,0.00269,13.600000000000001,0.006456,0.0,13.5,0.0,0.0,13.5,0.0,-0.0,13.5,-0.0,-0.0,13.5,-0.0
0.282413368,0.0,13.700000000000001,0.0,-0.00269,13.700000000000001,-0.006456,0.00269,13.600000000000001,0.006456,0.0,13.5,0.0,0.0,13.5,0.0,-0.0,13.5,-0.0,-0.0,13.5,-0.0
0.315477738,0.0,13.700000000000001,0.0,-0.00269,13.700000000000001,-0.006456,0.00269,13.600000000000001,0.006456,0.0,13.5,0.0,0.0,13.5,0.0,-0.0,13.5,-0.0,-0.0,13.5,-0.0
0.362305047,0.0,13.700000000000001,0.0,-0.00269,13.700000000000001,-0.006456,0.00269,13.600000000000001,0.006456,0.0,13.5,0.0,0.0,13.5,0.0,-0.0,13.5,-0.0,-0.0,13.5,-0.0
0.415252184,0.0,13.700000000000001,0.0,-0.00269,13.700000000000001,-0.006456,0.00269,13.600000000000001,0.006456,0.0,13.5,0.0,0.0,13.5,0.0,-0.0,13.4,-0.0,0.00538,13.5,0.012912
0.448434623,0.0,13.700000000000001,0.0,-0.00269,13.700000000000001,-0.006456,0.00269,13.600000000000001,0.006456,0.0,13.5,0.0,0.0,13.5,0.0,-0.0,13.5,-0.0,-0.01345,13.5,-0.032279999999999996
0.482170342,0.0,13.700000000000001,0.0,-0.00269,13.700000000000001,-0.006456,0.00269,13.600000000000001,0.006456,0.0,13.5,0.0,0.0,13.5,0.0,-0.0,13.5,-0.0,-0.01345,13.5,-0.032279999999999996
0.515442784,0.0,13.700000000000001,0.0,-0.00269,13.700000000000001,-0.006456,0.00269,13.600000000000001,0.006456,0.0,13.5,0.0,0.0,13.5,0.0,-0.0,13.5,-0.0,-0.01345,13.5,-0.032279999999999996
0.550499414,0.0,13.700000000000001,0.0,-0.00269,13.700000000000001,-0.006456,0.00269,13.600000000000001,0.006456,0.0,13.5,0.0,0.0,13.5,0.0,-0.0,13.5,-0.0,-0.01345,13.5,-0.032279999999999996
0.582290487,0.0,13.700000000000001,0.0,-0.00269,13.600000000000001,-0.006456,0.00269,13.600000000000001,0.006456,0.00269,13.5,0.006456,0.0,13.5,0.0,-0.00538,13.5,-0.012912,0.00269,13.5,0.006456
0.615124472,0.0,13.700000000000001,0.0,-0.00269,13.600000000000001,-0.006456,0.00269,13.600000000000001,0.006456,0.0,13.5,0.0,0.0,13.5,0.0,-0.0,13.5,-0.0,-0.0,13.5,-0.0
0.649410604,0.0,13.700000000000001,0.0,-0.00269,13.600000000000001,-0.006456,0.00269,13.600000000000001,0.006456,0.0,13.5,0.0,0.0,13.5,0.0,-0.0,13.5,-0.0,-0.0,13.5,-0.0
0.682146012,0.0,13.700000000000001,0.0,-0.00269,13.600000000000001,-0.006456,0.00269,13.600000000000001,0.006456,0.0,13.5,0.0,-0.00538,13.5,-0.012912,-0.00269,13.5,-0.006456,-0.0,13.5,-0.0
0.71518346,0.00538,13.700000000000001,0.012912,-0.00269,13.600000000000001,-0.006456,0.00269,13.600000000000001,0.006456,0.00269,13.5,0.006456,0.0,13.5,0.0,-0.0,13.5,-0.0,-0.0,13.5,-0.0
0.749090909,0.0269,13.700000000000001,0.06455999999999999,-0.00538,13.600000000000001,-0.012912,0.00269,13.600000000000001,0.006456,0.0,13.5,0.0,0.0,13.5,0.0,-0.0,13.5,-0.0,-0.0,13.5,-0.0
0.782319934,0.06994,13.700000000000001,0.167856,-0.00807,13.600000000000001,-0.019368,0.00269,13.600000000000001,0.006456,0.0,13.5,0.0,0.0,13.5,0.0,-0.0,13.5,-0.0,-0.0,13.5,-0.0
0.815183382,0.08877,13.700000000000001,0.213048,-0.01883,13.600000000000001,-0.045191999999999996,0.00269,13.600000000000001,0.006456,0.0,13.5,0.0,-0.00269,13.5,-0.006456,-0.0,13.5,-0.0,-0.0,13.5,-0.0
0.849297406,0.09684000000000001,13.700000000000001,0.232416,-0.03497,13.600000000000001,-0.083928,0.00269,13.600000000000001,0.006456,0.0,13.5,0.0,-0.00269,13.5,-0.006456,-0.0,13.5,-0.0,-0.0,13.5,-0.0
0.882139566,0.15333,13.700000000000001,0.367992,-0.08339,13.600000000000001,-0.200136,0.00269,13.600000000000001,0.006456,0.0,13.5,0.0,-0.00269,13.5,-0.006456,-0.00269,13.5,-0.006456,-0.0,13.5,-0.0
0.915175822,0.16678,13.700000000000001,0.400272,-0.16140000000000002,13.600000000000001,-0.38736000000000004,0.00807,13.600000000000001,0.019368,0.0,13.5,0.0,0.0,13.5,0.0,-0.0,13.5,-0.0,-0.0,13.5,-0.0
0.949109787,0.15871000000000002,13.700000000000001,0.380904,-0.19099000000000002,13.600000000000001,-0.458376,0.00807,13.600000000000001,0.019368,0.0,13.5,0.0,0.0,13.5,0.0,-0.0,13.5,-0.0,-0.0,13.5,-0.0
0.982156939,0.18292,13.700000000000001,0.439008,-0.26093,13.600000000000001,-0.626232,0.00538,13.5,0.012912,0.0,13.5,0.0,0.0,13.5,0.0,-0.0,13.5,-0.0,-0.0,13.5,-0.0
1.015005219,0.18292,13.700000000000001,0.439008,-0.29859,13.600000000000001,-0.716616,0.00269,13.5,0.006456,0.0,13.5,0.0,-0.00269,13.5,-0.006456,-0.0,13.5,-0.0,-0.0,13.5,-0.0
1.048931118,0.18023,13.700000000000001,0.432552,-0.3497,13.600000000000001,-0.83928,0.00269,13.5,0.006456,0.0,13.5,0.0,0.0,13.5,0.0,-0.0,13.5,-0.0,-0.0,13.5,-0.0
1.082082288,0.19906000000000001,13.3,0.477744,-0.41964,13.200000000000001,-1.007136,0.7451300000000001,13.0,1.7883120000000001,0.0,12.9,0.0,-0.00269,12.9,-0.006456,-0.0,12.9,-0.0,-0.0,12.9,-0.0
1.114941378,0.14526,13.4,0.348624,-0.27438,13.200000000000001,-0.658512,0.61063,13.100000000000001,1.465512,0.0,13.200000000000001,0.0,0.0,13.100000000000001,0.0,-0.0,13.100000000000001,-0.0,-0.0,13.100000000000001,-0.0
1.149222131,0.12374,13.5,0.296976,-0.14795,13.4,-0.35508,0.30935,13.3,0.74244,0.00269,13.200000000000001,0.006456,-0.00538,13.200000000000001,-0.012912,-0.0,13.200000000000001,-0.0,-0.0,13.200000000000001,-0.0
1.182245867,0.19368000000000002,13.5,0.464832,-0.4304,13.4,-1.0329599999999999,0.29321,13.3,0.703704,0.0,13.3,0.0,-0.00538,13.200000000000001,-0.012912,-0.0,13.200000000000001,-0.0,-0.0,13.3,-0.0
1.214754322,0.24479,13.5,0.587496,-0.60794,13.4,-1.4590560000000001,0.17216,13.200000000000001,0.413184,0.0,13.3,0.0,-0.00269,13.200000000000001,-0.006456,-0.0,13.200000000000001,-0.0,-0.0,13.200000000000001,-0.0
1.248992071,0.27976,13.4,0.671424,-0.69133,13.3,-1.659192,0.07801000000000001,13.200000000000001,0.18722400000000003,0.0,13.3,0.0,-0.01345,13.200000000000001,-0.032279999999999996,-0.0,13.200000000000001,-0.0,-0.0,13.200000000000001,-0.0
1.282071347,0.27438,13.5,0.658512,-0.6052500000000001,13.4,-1.4526000000000001,0.23672,13.3,0.568128,0.0,13.200000000000001,0.0,-0.00538,13.200000000000001,-0.012912,-0.0,13.200000000000001,-0.0,-0.0,13.200000000000001,-0.0
1.314939403,0.26631,13.4,0.6391439999999999,-0.47613,13.4,-1.142712,0.30397,13.100000000000001,0.7295280000000001,0.0,13.200000000000001,0.0,-0.00269,13.200000000000001,-0.006456,-0.00538,13.200000000000001,-0.012912,-0.0,13.200000000000001,-0.0
1.349231225,0.22865000000000002,13.4,0.54876,-0.4035,13.3,-0.9684,0.33356,13.200000000000001,0.800544,0.0,13.200000000000001,0.0,-0.00269,13.200000000000001,-0.006456,-0.0,13.200000000000001,-0.0,-0.0,13.200000000000001,-0.0
1.381979708,0.24479,13.4,0.587496,-0.42771000000000003,13.3,-1.026504,0.34163,13.100000000000001,0.819912,0.0,13.100000000000001,0.0,-0.01345,13.100000000000001,-0.032279999999999996,-0.0,13.100000000000001,-0.0,-0.0,13.100000000000001,-0.0
1.414947906,0.24479,13.4,0.587496,-0.48958,13.3,-1.174992,0.29859,13.100000000000001,0.716616,0.0,13.200000000000001,0.0,0.0,13.100000000000001,0.0,-0.0,13.100000000000001,-0.0,-0.0,13.100000000000001,-0.0
1.448903841,0.24479,13.5,0.587496,-0.5111,13.3,-1.22664,0.2152,13.200000000000001,0.5164799999999999,0.0,13.200000000000001,0.0,0.0,13.100000000000001,0.0,-0.0,13.100000000000001,-0.0,-0.0,13.100000000000001,-0.0
1.481983995,0.30128,13.4,0.7230719999999999,-0.56221,13.200000000000001,-1.3493039999999998,0.24479,13.100000000000001,0.587496,0.0,13.200000000000001,0.0,-0.01345,13.100000000000001,-0.032279999999999996,-0.0,13.100000000000001,-0.0,-0.0,13.0,-0.0
1.514978526,0.30397,13.3,0.7295280000000001,-0.58104,13.200000000000001,-1.394496,0.23672,13.200000000000001,0.568128,0.0,13.100000000000001,0.0,-0.00538,13.100000000000001,-0.012912,-0.0,13.0,-0.0,-0.0,13.100000000000001,-0.0
1.548995409,0.33087,13.3,0.794088,-0.55952,13.200000000000001,-1.342848,0.22327,13.100000000000001,0.535848,0.0,13.100000000000001,0.0,0.0,13.0,0.0,-0.0,13.0,-0.0,-0.0,13.0,-0.0
1.581892585,0.32011,13.4,0.768264,-0.57297,13.3,-1.375128,0.25286000000000003,13.100000000000001,0.6068640000000001,0.0,13.100000000000001,0.0,-0.01883,13.0,-0.045191999999999996,-0.0,13.100000000000001,-0.0,-0.0,13.0,-0.0
1.614856288,0.32011,13.3,0.768264,-0.55683,13.100000000000001,-1.336392,0.20982,13.100000000000001,0.503568,0.0,13.100000000000001,0.0,-0.00538,13.0,-0.012912,-0.0,13.0,-0.0,-0.0,13.0,-0.0
1.648761106,0.27976,13.3,0.671424,-0.56759,13.200000000000001,-1.362216,0.17754,13.100000000000001,0.426096,0.0,13.0,0.0,0.0,13.0,0.0,-0.0,13.0,-0.0,-0.0,13.0,-0.0
1.681542674,0.33894,13.200000000000001,0.8134560000000001,-0.57835,13.100000000000001,-1.38804,0.21251,13.100000000000001,0.510024,0.0,13.0,0.0,-0.01614,13.0,-0.038736,-0.0,12.9,-0.0,-0.0,12.9,-0.0
1.714789074,0.34163,13.3,0.819912,-0.59987,13.100000000000001,-1.439688,0.15064,13.0,0.36153599999999997,0.0,13.100000000000001,0.0,0.0,13.0,0.0,-0.0,13.0,-0.0,-0.0,13.0,-0.0
1.748602509,0.34701000000000004,13.200000000000001,0.8328240000000001,-0.54607,13.0,-1.3105680000000002,0.16140000000000002,13.0,0.38736000000000004,0.0,13.0,0.0,-0.01345,13.0,-0.032279999999999996,-0.0,12.9,-0.0,-0.0,13.0,-0.0
1.781741263,0.36315000000000003,13.3,0.87156,-0.6052500000000001,13.100000000000001,-1.4526000000000001,0.1883,13.0,0.45192,0.0,12.9,0.0,-0.00269,13.0,-0.006456,-0.0,13.0,-0.0,-0.0,13.0,-0.0
1.81477546,0.35508,13.3,0.852192,-0.60794,13.0,-1.4590560000000001,0.15333,13.0,0.367992,0.0,13.0,0.0,0.0,13.0,0.0,-0.0,12.9,-0.0,-0.0,13.0,-0.0
1.848882446,0.34163,13.3,0.819912,-0.63753,13.100000000000001,-1.530072,0.11029,13.100000000000001,0.264696,0.0,13.0,0.0,-0.01883,13.0,-0.045191999999999996,-0.0,12.9,-0.0,-0.0,13.0,-0.0
1.881804637,0.36853,13.200000000000001,0.884472,-0.68326,13.0,-1.639824,0.14795,13.0,0.35508,0.0,13.0,0.0,0.0,13.0,0.0,-0.0,13.0,-0.0,-0.0,12.9,-0.0
1.914775146,0.3766,13.200000000000001,0.90384,-0.66174,13.100000000000001,-1.588176,0.12643000000000001,13.0,0.30343200000000004,0.0,12.9,0.0,-0.00538,13.0,-0.012912,-0.0,12.9,-0.0,-0.0,13.0,-0.0
1.948514185,0.36584,13.3,0.878016,-0.68057,13.100000000000001,-1.633368,0.07532,13.0,0.18076799999999998,0.0,13.0,0.0,-0.01345,13.0,-0.032279999999999996,-0.0,12.9,-0.0,-0.0,12.9,-0.0
1.981696255,0.40081,13.200000000000001,0.9619439999999999,-0.66712,13.100000000000001,-1.601088,0.11029,13.0,0.264696,0.0,13.0,0.0,0.0,13.0,0.0,-0.0,13.0,-0.0,-0.0,13.0,-0.0
2.014724095,0.40081,13.3,0.9619439999999999,-0.6644300000000001,13.200000000000001,-1.594632,0.08070000000000001,13.0,0.19368000000000002,0.0,13.0,0.0,-0.01076,12.9,-0.025824,-0.0,12.9,-0.0,-0.0,13.0,-0.0
2.048649121,0.38467,13.200000000000001,0.923208,-0.6994,13.100000000000001,-1.67856,0.05111,13.0,0.122664,0.0,13.0,0.0,0.00269,12.9,0.006456,-0.0,12.9,-0.0,-0.0,13.0,-0.0
2.081862,0.40619,13.4,0.974856,-0.67788,13.100000000000001,-1.6269120000000001,0.09415,13.0,0.22596,0.0,13.0,0.0,0.0,13.0,0.0,-0.0,13.0,-0.0,-0.0,12.9,-0.0
2.114851477,0.41695000000000004,13.200000000000001,1.00068,-0.74782,13.100000000000001,-1.7947680000000001,0.056490000000000005,12.9,0.135576,0.0,13.0,0.0,-0.01076,13.0,-0.025824,-0.00269,12.9,-0.006456,-0.0,13.0,-0.0
2.148748443,0.40888,13.3,0.981312,-0.7962400000000001,13.100000000000001,-1.910976,0.01076,13.100000000000001,0.025824,0.0,13.0,0.0,-0.00269,12.9,-0.006456,-0.0,13.0,-0.0,-0.0,13.0,-0.0
2.181734122,0.47882,13.200000000000001,1.149168,-0.78279,13.200000000000001,-1.878696,0.04304,13.0,0.103296,0.0,13.0,0.0,-0.00807,12.9,-0.019368,-0.0,13.0,-0.0,-0.0,13.0,-0.0
2.21500363,0.42771000000000003,13.3,1.026504,-0.7962400000000001,13.100000000000001,-1.910976,0.01883,13.0,0.045191999999999996,0.0,13.0,0.0,0.0,12.9,0.0,-0.0,12.9,-0.0,-0.0,12.9,-0.0
2.248573032,0.41695000000000004,13.200000000000001,1.00068,-0.73706,13.0,-1.768944,0.0,13.0,0.0,0.0,13.0,0.0,0.0,13.0,0.0,-0.0,12.9,-0.0,-0.0,12.9,-0.0
2.281657801,0.42771000000000003,13.4,1.026504,-0.79086,13.100000000000001,-1.898064,0.04573,13.0,0.109752,0.0,13.0,0.0,-0.01345,12.9,-0.032279999999999996,-0.0,13.0,-0.0,-0.0,12.9,-0.0
2.314575818,0.44654,13.200000000000001,1.071696,-0.7854800000000001,13.0,-1.8851520000000002,0.01345,12.9,0.032279999999999996,0.0,13.0,0.0,0.0,13.0,0.0,-0.0,12.9,-0.0,-0.0,13.0,-0.0
2.348374864,0.40081,13.3,0.9619439999999999,-0.7854800000000001,13.200000000000001,-1.8851520000000002,0.00269,13.0,0.006456,0.0,13.0,0.0,-0.01076,13.0,-0.025824,-0.0,13.0,-0.0,-0.0,12.9,-0.0
2.382114247,0.47882,13.3,1.149168,-0.8365900000000001,13.100000000000001,-2.007816,0.01883,13.0,0.045191999999999996,0.0,13.0,0.0,0.00269,12.9,0.006456,-0.0,12.9,-0.0,-0.0,12.9,-0.0
2.414771578,0.43847,13.3,1.052328,-0.83928,13.100000000000001,-2.014272,-0.00807,13.0,-0.019368,0.0,12.9,0.0,0.0,12.9,0.0,-0.0,12.9,-0.0,-0.0,13.0,-0.0
2.448965256,0.42502,13.200000000000001,1.020048,-0.79893,13.200000000000001,-1.917432,-0.01345,12.9,-0.032279999999999996,0.0,13.0,0.0,-0.01076,12.9,-0.025824,-0.0,12.9,-0.0,-0.0,12.9,-0.0
2.481595426,0.48151,13.200000000000001,1.155624,-0.79893,13.100000000000001,-1.917432,0.01614,12.9,0.038736,0.0,12.9,0.0,0.00269,12.9,0.006456,-0.0,13.0,-0.0,-0.0,13.0,-0.0
2.515580436,0.45192000000000004,13.4,1.084608,-0.84197,13.200000000000001,-2.020728,-0.00807,13.0,-0.019368,0.0,13.0,0.0,-0.00269,13.0,-0.006456,-0.0,12.9,-0.0,-0.0,12.9,-0.0
2.548744623,0.45461,13.200000000000001,1.091064,-0.87156,13.200000000000001,-2.091744,0.01883,13.0,0.045191999999999996,0.0,12.9,0.0,-0.01614,12.9,-0.038736,-0.0,12.9,-0.0,-0.0,13.0,-0.0
2.581539707,0.44923,13.3,1.078152,-0.90115,13.100000000000001,-2.16276,-0.01076,13.0,-0.025824,0.0,13.0,0.0,0.0,12.9,0.0,-0.0,12.9,-0.0,-0.0,12.9,-0.0
2.615604769,0.45999,13.200000000000001,1.103976,-0.88232,13.100000000000001,-2.117568,-0.02959,13.0,-0.071016,0.0,13.0,0.0,-0.01076,12.9,-0.025824,-0.0,12.9,-0.0,-0.0,12.9,-0.0
2.648516249,0.47075,13.200000000000001,1.1298,-0.9549500000000001,13.100000000000001,-2.29188,0.0,13.0,0.0,0.0,12.9,0.0,0.00538,12.9,0.012912,-0.0,12.9,-0.0,-0.0,12.9,-0.0
2.681517101,0.46806000000000003,13.200000000000001,1.1233440000000001,-0.91729,13.0,-2.201496,-0.03766,12.9,-0.09038399999999999,0.0,13.0,0.0,0.0,12.9,0.0,-0.0,12.9,-0.0,-0.0,12.9,-0.0
2.715523233,0.43578,13.3,1.045872,-0.9253600000000001,13.100000000000001,-2.220864,-0.08608,13.0,-0.206592,0.0,13.0,0.0,-0.01345,12.9,-0.032279999999999996,-0.0,12.9,-0.0,-0.0,12.9,-0.0
2.748492342,0.49227000000000004,13.3,1.181448,-0.94957,13.0,-2.278968,-0.024210000000000002,12.9,-0.058104,0.0,12.9,0.0,0.0,12.9,0.0,-0.00269,12.9,-0.006456,-0.0,12.9,-0.0
2.781671418,0.48151,13.200000000000001,1.155624,-0.9065300000000001,13.100000000000001,-2.175672,-0.056490000000000005,12.9,-0.135576,0.0,13.0,0.0,-0.00269,12.8,-0.006456,-0.0,12.9,-0.0,-0.0,12.9,-0.0
2.815616559,0.47344,13.200000000000001,1.136256,-0.91998,12.9,-2.207952,-0.07263,12.9,-0.174312,0.0,13.0,0.0,0.0,12.9,0.0,-0.0,12.9,-0.0,-0.0,12.9,-0.0
2.848435692,0.47075,13.200000000000001,1.1298,-0.95764,13.100000000000001,-2.298336,-0.03228,13.0,-0.077472,0.0,12.9,0.0,0.0,12.9,0.0,-0.0,13.0,-0.0,-0.0,12.9,-0.0
2.88143272,0.48151,13.200000000000001,1.155624,-0.9334300000000001,13.0,-2.2402320000000002,-0.06456,12.9,-0.154944,0.0,12.9,0.0,-0.00807,12.9,-0.019368,-0.0,12.9,-0.0,-0.0,12.9,-0.0
2.915449662,0.46806000000000003,13.3,1.1233440000000001,-0.9065300000000001,13.100000000000001,-2.175672,-0.1076,13.100000000000001,-0.25823999999999997,0.0,13.0,0.0,0.00538,12.9,0.012912,-0.0,12.9,-0.0,-0.0,12.9,-0.0
2.948538894,0.46537,13.200000000000001,1.1168879999999999,-0.98185,13.100000000000001,-2.35644,-0.07263,12.9,-0.174312,0.0,12.9,0.0,-0.00269,12.9,-0.006456,-0.0,12.9,-0.0,-0.0,12.9,-0.0
2.981572529,0.48689000000000004,13.100000000000001,1.168536,-0.9441900000000001,13.0,-2.2660560000000003,-0.09146,12.9,-0.219504,-0.00269,12.9,-0.006456,0.01076,12.9,0.025824,-0.0,12.9,-0.0,-0.0,12.9,-0.0
3.015275422,0.46268000000000004,13.4,1.110432,-0.9657100000000001,13.0,-2.317704,-0.11567000000000001,12.9,-0.277608,0.0,13.0,0.0,0.00269,12.9,0.006456,-0.0,12.9,-0.0,-0.0,12.9,-0.0
3.048251283,0.51379,13.200000000000001,1.233096,-0.94688,13.0,-2.272512,-0.08070000000000001,13.0,-0.19368000000000002,0.0,13.0,0.0,-0.00807,12.9,-0.019368,-0.0,12.9,-0.0,-0.0,12.9,-0.0
3.081373005,0.49496,13.200000000000001,1.187904,-0.94957,13.100000000000001,-2.278968,-0.12105,13.0,-0.29052,0.0,13.0,0.0,0.00269,12.9,0.006456,-0.0,12.9,-0.0,-0.0,12.9,-0.0
3.115331565,0.47613,13.200000000000001,1.142712,-1.00875,13.100000000000001,-2.421,-0.11836,12.9,-0.284064,0.0,12.9,0.0,0.0,12.9,0.0,-0.0,12.9,-0.0,-0.0,12.9,-0.0
3.148444559,0.50841,13.200000000000001,1.220184,-0.92805,13.100000000000001,-2.22732,-0.07532,13.0,-0.18076799999999998,0.0,12.9,0.0,-0.00807,12.9,-0.019368,-0.0,12.9,-0.0,-0.0,12.9,-0.0
3.181431532,0.44923,13.200000000000001,1.078152,-0.9953000000000001,12.9,-2.38872,-0.12912,12.9,-0.309888,0.0,13.0,0.0,0.0,12.9,0.0,-0.0,12.9,-0.0,-0.0,12.9,-0.0
3.21519374,0.4304,13.3,1.0329599999999999,-1.00875,13.200000000000001,-2.421,-0.11029,13.0,-0.264696,0.0,13.0,0.0,-0.00807,12.9,-0.019368,-0.0,12.9,-0.0,-0.0,12.9,-0.0
3.24839098,0.46537,13.100000000000001,1.1168879999999999,-0.9441900000000001,12.9,-2.2660560000000003,-0.1076,12.9,-0.25823999999999997,0.0,12.9,0.0,0.00807,12.9,0.019368,-0.0,12.9,-0.0,-0.0,12.9,-0.0
3.281438352,0.43309000000000003,13.200000000000001,1.0394160000000001,-0.9549500000000001,13.100000000000001,-2.29188,-0.14526,13.0,-0.348624,0.0,13.0,0.0,0.0,12.9,0.0,-0.0,12.9,-0.0,-0.0,12.9,-0.0
3.315344953,0.39005,13.200000000000001,0.93612,-0.95226,13.0,-2.285424,-0.12374,13.0,-0.296976,0.0,12.9,0.0,-0.00538,12.9,-0.012912,-0.0,12.9,-0.0,-0.0,12.9,-0.0
3.348388071,0.46806000000000003,13.3,1.1233440000000001,-0.9415,13.100000000000001,-2.2596,-0.1345,13.0,-0.32280000000000003,0.0,13.0,0.0,0.00269,12.9,0.006456,-0.0,13.0,-0.0,-0.0,12.9,-0.0
3.381240008,0.4304,13.4,1.0329599999999999,-0.9549500000000001,13.200000000000001,-2.29188,-0.15871000000000002,12.9,-0.380904,0.0,12.9,0.0,-0.00807,12.9,-0.019368,-0.0,12.9,-0.0,-0.0,12.9,-0.0
3.415154829,0.40888,13.3,0.981312,-0.97916,13.100000000000001,-2.349984,-0.17754,13.0,-0.426096,0.0,13.0,0.0,-0.00538,13.0,-0.012912,-0.0,12.9,-0.0,-0.0,12.9,-0.0
3.448407099,0.43847,13.200000000000001,1.052328,-1.00606,13.100000000000001,-2.414544,-0.16140000000000002,12.9,-0.38736000000000004,0.0,12.9,0.0,0.0,12.9,0.0,-0.0,12.9,-0.0,-0.0,12.9,-0.0
3.481185723,0.42233000000000004,13.3,1.013592,-1.01682,13.200000000000001,-2.440368,-0.22327,13.100000000000001,-0.535848,0.0,13.0,0.0,-0.01076,12.9,-0.025824,-0.0,12.9,-0.0,-0.0,12.9,-0.0
3.515234577,0.40619,13.200000000000001,0.974856,-0.97916,13.100000000000001,-2.349984,-0.20713,13.0,-0.497112,0.0,12.9,0.0,0.0,13.0,0.0,-0.0,12.9,-0.0,-0.0,12.9,-0.0
3.548495143,0.44654,13.3,1.071696,-0.9549500000000001,13.0,-2.29188,-0.1883,12.9,-0.45192,0.0,12.9,0.0,-0.01345,12.9,-0.032279999999999996,-0.0,13.0,-0.0,-0.0,12.9,-0.0
3.581109645,0.42502,13.3,1.020048,-0.98185,13.100000000000001,-2.35644,-0.269,13.0,-0.6456000000000001,0.0,13.0,0.0,0.0,13.0,0.0,-0.0,12.9,-0.0,-0.0,13.0,-0.0
3.615394887,0.38198000000000004,13.200000000000001,0.916752,-0.93074,13.200000000000001,-2.2337759999999998,-0.24479,13.0,-0.587496,0.0,13.0,0.0,0.0,13.0,0.0,-0.0,12.9,-0.0,-0.0,12.9,-0.0
3.648279395,0.44385,13.3,1.06524,-0.9065300000000001,13.100000000000001,-2.175672,-0.2152,13.100000000000001,-0.5164799999999999,0.0,13.0,0.0,-0.01076,13.0,-0.025824,-0.0,12.9,-0.0,-0.0,13.0,-0.0
3.681185609,0.38467,13.200000000000001,0.923208,-1.00337,13.0,-2.4080880000000002,-0.25017,12.9,-0.6004079999999999,0.0,13.0,0.0,0.0,12.9,0.0,-0.0,12.9,-0.0,-0.0,13.0,-0.0
3.715190604,0.36584,13.4,0.878016,-0.9146000000000001,13.200000000000001,-2.19504,-0.25824,13.0,-0.619776,0.0,13.0,0.0,0.0,13.0,0.0,-0.0,12.9,-0.0,-0.0,13.0,-0.0
3.748234731,0.40888,13.200000000000001,0.981312,-0.97916,13.0,-2.349984,-0.23941,12.9,-0.574584,0.0,13.0,0.0,-0.01076,12.9,-0.025824,-0.0,12.9,-0.0,-0.0,12.9,-0.0
3.781303356,0.37929,13.3,0.910296,-0.9684,13.100000000000001,-2.32416,-0.25824,13.100000000000001,-0.619776,0.0,13.0,0.0,0.0,13.0,0.0,-0.0,13.0,-0.0,-0.0,13.0,-0.0
3.815423793,0.40081,13.200000000000001,0.9619439999999999,-0.9549500000000001,13.0,-2.29188,-0.27976,13.0,-0.671424,0.0,13.0,0.0,-0.01076,13.0,-0.025824,-0.0,12.9,-0.0,-0.0,13.0,-0.0
3.848346394,0.43309000000000003,13.3,1.0394160000000001,-1.0114400000000001,13.100000000000001,-2.4274560000000003,-0.25555,13.0,-0.61332,-0.00269,13.0,-0.006456,0.00269,13.0,0.006456,-0.0,12.9,-0.0,-0.0,13.0,-0.0
3.881045372,0.39005,13.3,0.93612,-0.89846,13.0,-2.156304,-0.28514,13.0,-0.6843359999999999,0.0,13.0,0.0,0.0,13.0,0.0,-0.0,13.0,-0.0,-0.0,12.9,-0.0
3.915001456,0.37929,13.3,0.910296,-0.91191,13.200000000000001,-2.188584,-0.28783000000000003,13.100000000000001,-0.6907920000000001,0.0,13.100000000000001,0.0,-0.01076,13.0,-0.025824,-0.0,12.9,-0.0,-0.0,13.0,-0.0
3.947939622,0.37929,13.4,0.910296,-0.91729,13.200000000000001,-2.201496,-0.24479,13.0,-0.587496,0.0,13.0,0.0,0.0,13.0,0.0,-0.0,12.9,-0.0,-0.0,12.9,-0.0
3.9809804,0.35239000000000004,13.4,0.845736,-0.91998,13.100000000000001,-2.207952,-0.269,13.0,-0.6456000000000001,0.0,13.0,0.0,-0.01076,13.0,-0.025824,-0.0,13.0,-0.0,-0.0,13.0,-0.0
4.015193666,0.2959,13.200000000000001,0.71016,-0.87694,13.3,-2.104656,-0.30128,13.100000000000001,-0.7230719999999999,0.0,13.0,0.0,0.0,13.0,0.0,-0.0,13.0,-0.0,-0.0,13.0,-0.0
4.048092867,0.35508,13.200000000000001,0.852192,-0.87963,13.0,-2.111112,-0.2421,13.100000000000001,-0.58104,-0.00269,13.100000000000001,-0.006456,-0.00538,13.0,-0.012912,-0.00269,13.0,-0.006456,-0.0,13.0,-0.0
4.081058931,0.28783000000000003,13.5,0.6907920000000001,-0.9146000000000001,13.3,-2.19504,-0.28245000000000003,13.100000000000001,-0.67788,0.0,13.0,0.0,-0.01076,13.100000000000001,-0.025824,-0.00269,13.0,-0.006456,-0.0,13.0,-0.0
4.114936486,0.27438,13.3,0.658512,-0.87156,13.100000000000001,-2.091744,-0.31204000000000004,13.0,-0.7488960000000001,0.0,13.100000000000001,0.0,0.0,13.0,0.0,-0.00538,13.0,-0.012912,-0.0,13.100000000000001,-0.0
4.148013319,0.31204000000000004,13.4,0.7488960000000001,-0.93881,13.3,-2.253144,-0.30397,13.100000000000001,-0.7295280000000001,0.0,13.0,0.0,0.0,13.100000000000001,0.0,-0.0,13.0,-0.0,-0.0,13.100000000000001,-0.0
4.180893952,0.269,13.4,0.6456000000000001,-0.89308,13.200000000000001,-2.143392,-0.29321,13.100000000000001,-0.703704,0.0,13.100000000000001,0.0,-0.01076,13.100000000000001,-0.025824,-0.0,13.100000000000001,-0.0,-0.0,13.100000000000001,-0.0
4.214869192,0.25824,13.4,0.619776,-0.86887,13.3,-2.085288,-0.33356,13.200000000000001,-0.800544,0.0,13.100000000000001,0.0,0.0,13.100000000000001,0.0,-0.0,13.100000000000001,-0.0,-0.0,13.100000000000001,-0.0
4.247984761,0.28245000000000003,13.200000000000001,0.67788,-0.88232,13.3,-2.117568,-0.31473,13.100000000000001,-0.755352,0.0,13.200000000000001,0.0,0.0,13.100000000000001,0.0,-0.0,13.100000000000001,-0.0,-0.0,13.100000000000001,-0.0
4.280974893,0.27169,13.5,0.652056,-0.8554200000000001,13.3,-2.053008,-0.31742000000000004,13.200000000000001,-0.761808,0.0,13.100000000000001,0.0,-0.00807,13.100000000000001,-0.019368,-0.0,13.100000000000001,-0.0,-0.0,13.100000000000001,-0.0
4.31501755,0.24748,13.4,0.593952,-0.85273,13.200000000000001,-2.0465519999999997,-0.34163,13.100000000000001,-0.819912,0.0,13.200000000000001,0.0,-0.00269,13.200000000000001,-0.006456,-0.0,13.100000000000001,-0.0,-0.0,13.200000000000001,-0.0
4.347926537,0.24748,13.4,0.593952,-0.8661800000000001,13.3,-2.0788320000000002,-0.31473,13.200000000000001,-0.755352,0.0,13.100000000000001,0.0,0.0,13.200000000000001,0.0,-0.00538,13.200000000000001,-0.012912,-0.0,13.200000000000001,-0.0
4.380939476,0.22327,13.3,0.535848,-0.84197,13.200000000000001,-2.020728,-0.29321,13.200000000000001,-0.703704,0.0,13.200000000000001,0.0,0.0,13.200000000000001,0.0,-0.0,13.200000000000001,-0.0,-0.0,13.200000000000001,-0.0
4.414922002,0.23672,13.5,0.568128,-0.807,13.3,-1.9368,-0.32818,13.200000000000001,-0.787632,0.0,13.3,0.0,-0.00538,13.200000000000001,-0.012912,-0.0,13.200000000000001,-0.0,-0.0,13.200000000000001,-0.0
4.447859947,0.22327,13.5,0.535848,-0.83121,13.4,-1.994904,-0.33087,13.200000000000001,-0.794088,0.0,13.200000000000001,0.0,0.0,13.200000000000001,0.0,-0.0,13.200000000000001,-0.0,-0.0,13.200000000000001,-0.0
4.480821119,0.20982,13.5,0.503568,-0.8661800000000001,13.4,-2.0788320000000002,-0.32011,13.3,-0.768264,0.0,13.3,0.0,0.0,13.200000000000001,0.0,-0.0,13.200000000000001,-0.0,-0.0,13.200000000000001,-0.0
4.514940269,0.2152,13.5,0.5164799999999999,-0.85273,13.4,-2.0465519999999997,-0.36853,13.3,-0.884472,0.0,13.3,0.0,0.0,13.200000000000001,0.0,-0.0,13.3,-0.0,-0.0,13.200000000000001,-0.0
4.54776103,0.20713,13.5,0.497112,-0.84197,13.4,-2.020728,-0.3497,13.3,-0.83928,0.0,13.3,0.0,0.0,13.200000000000001,0.0,-0.0,13.3,-0.0,-0.0,13.3,-0.0
4.581827696,0.19906000000000001,13.600000000000001,0.477744,-0.80162,13.5,-1.9238879999999998,-0.31204000000000004,13.4,-0.7488960000000001,0.0,13.3,0.0,-0.00269,13.3,-0.006456,-0.00269,13.3,-0.006456,-0.0,13.3,-0.0
4.61466145,0.20444,13.600000000000001,0.490656,-0.82314,13.3,-1.975536,-0.33894,13.4,-0.8134560000000001,0.0,13.4,0.0,-0.00807,13.3,-0.019368,-0.0,13.3,-0.0,-0.0,13.3,-0.0
4.647884522,0.18561,13.600000000000001,0.44546399999999997,-0.77741,13.5,-1.865784,-0.34163,13.4,-0.819912,0.0,13.3,0.0,0.0,13.3,0.0,-0.0,13.3,-0.0,-0.0,13.3,-0.0
4.680824836,0.19368000000000002,13.600000000000001,0.464832,-0.76665,13.4,-1.83996,-0.33894,13.4,-0.8134560000000001,0.0,13.4,0.0,0.0,13.4,0.0,-0.0,13.3,-0.0,-0.0,13.3,-0.0
4.714870322,0.18023,13.600000000000001,0.432552,-0.7451300000000001,13.5,-1.7883120000000001,-0.35239000000000004,13.4,-0.845736,0.0,13.4,0.0,0.0,13.4,0.0,-0.0,13.3,-0.0,-0.0,13.3,-0.0
4.747886189,0.15871000000000002,13.5,0.380904,-0.77203,13.4,-1.8528719999999999,-0.31204000000000004,13.3,-0.7488960000000001,0.0,13.4,0.0,0.0,13.4,0.0,-0.0,13.4,-0.0,-0.0,13.3,-0.0
4.780894611,0.15871000000000002,13.600000000000001,0.380904,-0.75858,13.5,-1.820592,-0.2959,13.4,-0.71016,0.0,13.4,0.0,0.0,13.4,0.0,-0.0,13.4,-0.0,-0.0,13.4,-0.0
4.814735247,0.13988,13.600000000000001,0.335712,-0.8608,13.600000000000001,-2.0659199999999998,-0.40619,13.4,-0.974856,0.0,13.4,0.0,0.0,13.4,0.0,-0.0,13.4,-0.0,-0.0,13.4,-0.0
4.847682349,0.16409,13.600000000000001,0.393816,-0.78279,13.5,-1.878696,-0.34701000000000004,13.4,-0.8328240000000001,0.0,13.4,0.0,0.0,13.4,0.0,-0.0,13.4,-0.0,-0.0,13.4,-0.0
4.881498421,0.13988,13.600000000000001,0.335712,-0.7532,13.600000000000001,-1.80768,-0.33625,13.4,-0.8069999999999999,0.0,13.4,0.0,-0.01345,13.4,-0.032279999999999996,-0.0,13.4,-0.0,-0.0,13.4,-0.0
4.914466122,0.13988,13.600000000000001,0.335712,-0.73975,13.5,-1.7754,-0.35239000000000004,13.4,-0.845736,0.0,13.4,0.0,0.0,13.4,0.0,-0.0,13.4,-0.0,-0.0,13.4,-0.0
4.947605809,0.14257,13.600000000000001,0.34216799999999997,-0.7639600000000001,13.5,-1.833504,-0.31742000000000004,13.4,-0.761808,0.0,13.4,0.0,0.0,13.4,0.0,-0.0,13.4,-0.0,-0.0,13.4,-0.0
4.981701451,0.12912,13.600000000000001,0.309888,-0.7747200000000001,13.5,-1.859328,-0.34163,13.4,-0.819912,0.0,13.4,0.0,0.0,13.4,0.0,-0.0,13.4,-0.0,-0.0,13.4,-0.0
5.014595515,0.1345,13.600000000000001,0.32280000000000003,-0.807,13.5,-1.9368,-0.32549,13.4,-0.781176,0.0,13.4,0.0,0.0,13.4,0.0,-0.0,13.4,-0.0,-0.0,13.4,-0.0
5.047950331,0.14526,13.600000000000001,0.348624,-0.82852,13.5,-1.988448,-0.31204000000000004,13.4,-0.7488960000000001,0.0,13.4,0.0,0.0,13.4,0.0,-0.0,13.4,-0.0,-0.0,13.4,-0.0
5.082421515,0.15064,13.600000000000001,0.36153599999999997,-0.84197,13.600000000000001,-2.020728,-0.31204000000000004,13.4,-0.7488960000000001,0.0,13.4,0.0,0.0,13.4,0.0,-0.0,13.4,-0.0,-0.0,13.4,-0.0
5.114427277,0.14795,13.600000000000001,0.35508,-0.8258300000000001,13.5,-1.981992,-0.31473,13.4,-0.755352,0.0,13.4,0.0,0.0,13.4,0.0,-0.0,13.4,-0.0,-0.0,13.4,-0.0
5.147793126,0.15333,13.600000000000001,0.367992,-0.83121,13.5,-1.994904,-0.2959,13.4,-0.71016,0.0,13.4,0.0,0.0,13.4,0.0,-0.0,13.4,-0.0,-0.0,13.4,-0.0
5.181685405,0.13181,13.600000000000001,0.316344,-0.82045,13.4,-1.96908,-0.31204000000000004,13.4,-0.7488960000000001,0.0,13.4,0.0,0.0,13.4,0.0,-0.0,13.4,-0.0,-0.0,13.4,-0.0
5.214978383,0.13719,13.600000000000001,0.329256,-0.81238,13.5,-1.949712,-0.30128,13.4,-0.7230719999999999,0.0,13.4,0.0,0.0,13.4,0.0,-0.0,13.4,-0.0,-0.0,13.4,-0.0
5.247385479,0.1345,13.600000000000001,0.32280000000000003,-0.82045,13.4,-1.96908,-0.30397,13.4,-0.7295280000000001,0.0,13.4,0.0,0.0,13.4,0.0,-0.0,13.4,-0.0,-0.0,13.4,-0.0
5.282049934,0.13988,13.600000000000001,0.335712,-0.83121,13.5,-1.994904,-0.30935,13.4,-0.74244,0.0,13.4,0.0,0.0,13.4,0.0,-0.0,13.4,-0.0,-0.0,13.4,-0.0
5.314342748,0.13181,13.600000000000001,0.316344,-0.83121,13.600000000000001,-1.994904,-0.31204000000000004,13.4,-0.7488960000000001,0.0,13.4,0.0,0.0,13.4,0.0,-0.0,13.4,-0.0,-0.0,13.4,-0.0
5.347652613,0.14526,13.600000000000001,0.348624,-0.82852,13.600000000000001,-1.988448,-0.31473,13.4,-0.755352,0.0,13.4,0.0,0.0,13.4,0.0,-0.00269,13.4,-0.006456,-0.0,13.4,-0.0
5.381883238,0.14795,13.600000000000001,0.35508,-0.82314,13.5,-1.975536,-0.30397,13.4,-0.7295280000000001,0.0,13.4,0.0,0.0,13.4,0.0,-0.0,13.4,-0.0,-0.0,13.4,-0.0
5.414548163,0.13988,13.600000000000001,0.335712,-0.82314,13.600000000000001,-1.975536,-0.30935,13.4,-0.74244,0.0,13.4,0.0,0.0,13.4,0.0,-0.0,13.4,-0.0,-0.0,13.4,-0.0
5.447309214,0.13181,13.600000000000001,0.316344,-0.8258300000000001,13.4,-1.981992,-0.30397,13.4,-0.7295280000000001,0.0,13.4,0.0,0.0,13.4,0.0,-0.0,13.4,-0.0,-0.0,13.4,-0.0
5.481547179,0.12643000000000001,13.600000000000001,0.30343200000000004,-0.8365900000000001,13.5,-2.007816,-0.30666,13.4,-0.735984,0.0,13.4,0.0,0.0,13.4,0.0,-0.0,13.4,-0.0,-0.0,13.4,-0.0
5.514505632,0.12643000000000001,13.600000000000001,0.30343200000000004,-0.8365900000000001,13.5,-2.007816,-0.31204000000000004,13.4,-0.7488960000000001,0.0,13.4,0.0,0.0,13.4,0.0,-0.0,13.4,-0.0,-0.0,13.4,-0.0
5.547614487,0.12643000000000001,13.600000000000001,0.30343200000000004,-0.8339000000000001,13.5,-2.00136,-0.30666,13.4,-0.735984,0.0,13.4,0.0,0.0,13.4,0.0,-0.0,13.4,-0.0,-0.0,13.4,-0.0
5.5815523,0.12643000000000001,13.600000000000001,0.30343200000000004,-0.82045,13.5,-1.96908,-0.30128,13.4,-0.7230719999999999,0.0,13.4,0.0,0.0,13.4,0.0,-0.0,13.4,-0.0,-0.0,13.4,-0.0
5.614776557,0.12912,13.600000000000001,0.309888,-0.7854800000000001,13.4,-1.8851520000000002,-0.30666,13.4,-0.735984,0.0,13.4,0.0,0.0,13.4,0.0,-0.0,13.4,-0.0,-0.0,13.4,-0.0
5.647505458,0.1345,13.600000000000001,0.32280000000000003,-0.69671,13.600000000000001,-1.672104,-0.2959,13.4,-0.71016,0.0,13.4,0.0,0.0,13.4,0.0,-0.0,13.4,-0.0,-0.0,13.4,-0.0
5.681568713,0.12643000000000001,13.600000000000001,0.30343200000000004,-0.7639600000000001,13.5,-1.833504,-0.2959,13.4,-0.71016,0.0,13.4,0.0,0.0,13.4,0.0,-0.0,13.4,-0.0,-0.0,13.4,-0.0
5.714549805,0.12643000000000001,13.600000000000001,0.30343200000000004,-0.76665,13.600000000000001,-1.83996,-0.30128,13.4,-0.7230719999999999,0.0,13.4,0.0,0.0,13.4,0.0,-0.00269,13.4,-0.006456,-0.0,13.4,-0.0
5.747239739,0.12643000000000001,13.600000000000001,0.30343200000000004,-0.76665,13.5,-1.83996,-0.31473,13.4,-0.755352,0.0,13.4,0.0,0.0,13.4,0.0,-0.0,13.4,-0.0,-0.0,13.4,-0.0
5.781402544,0.12643000000000001,13.600000000000001,0.30343200000000004,-0.76665,13.5,-1.83996,-0.31204000000000004,13.4,-0.7488960000000001,0.0,13.4,0.0,0.0,13.4,0.0,-0.0,13.4,-0.0,-0.0,13.4,-0.0
5.814471291,0.12643000000000001,13.600000000000001,0.30343200000000004,-0.76665,13.5,-1.83996,-0.30397,13.4,-0.7295280000000001,0.0,13.4,0.0,-0.00538,13.4,-0.012912,-0.0,13.4,-0.0,-0.0,13.4,-0.0
5.847445444,0.12643000000000001,13.600000000000001,0.30343200000000004,-0.76665,13.5,-1.83996,-0.2959,13.4,-0.71016,0.0,13.4,0.0,0.0,13.4,0.0,-0.0,13.4,-0.0,-0.0,13.4,-0.0
5.882046307,0.13181,13.600000000000001,0.316344,-0.76665,13.600000000000001,-1.83996,-0.30935,13.4,-0.74244,0.0,13.4,0.0,0.0,13.4,0.0,-0.0,13.4,-0.0,-0.0,13.4,-0.0
5.91868615,0.12643000000000001,13.600000000000001,0.30343200000000004,-0.76665,13.5,-1.83996,-0.30397,13.4,-0.7295280000000001,0.0,13.4,0.0,0.0,13.4,0.0,-0.0,13.4,-0.0,-0.0,13.4,-0.0
5.947539209,0.12912,13.600000000000001,0.309888,-0.77203,13.600000000000001,-1.8528719999999999,-0.30397,13.4,-0.7295280000000001,0.0,13.4,0.0,0.0,13.4,0.0,-0.0,13.4,-0.0,-0.0,13.4,-0.0
5.981783962,0.12643000000000001,13.600000000000001,0.30343200000000004,-0.76665,13.5,-1.83996,-0.30666,13.4,-0.735984,0.0,13.4,0.0,0.0,13.4,0.0,-0.0,13.4,-0.0,-0.0,13.4,-0.0
6.014685961,0.12374,13.600000000000001,0.296976,-0.76665,13.5,-1.83996,-0.30666,13.4,-0.735984,0.0,13.4,0.0,0.0,13.4,0.0,-0.0,13.4,-0.0,-0.0,13.4,-0.0
6.047605448,0.12374,13.600000000000001,0.296976,-0.76665,13.5,-1.83996,-0.31204000000000004,13.4,-0.7488960000000001,0.0,13.4,0.0,0.0,13.4,0.0,-0.0,13.4,-0.0,-0.0,13.4,-0.0
6.081728913,0.12374,13.600000000000001,0.296976,-0.77203,13.5,-1.8528719999999999,-0.29321,13.4,-0.703704,0.0,13.4,0.0,0.0,13.4,0.0,-0.0,13.4,-0.0,-0.0,13.4,-0.0
6.114508859,0.12643000000000001,13.600000000000001,0.30343200000000004,-0.76665,13.4,-1.83996,-0.31204000000000004,13.4,-0.7488960000000001,0.0,13.4,0.0,-0.00269,13.4,-0.006456,-0.0,13.4,-0.0,-0.0,13.4,-0.0
6.147585773,0.12374,13.600000000000001,0.296976,-0.76665,13.5,-1.83996,-0.30128,13.4,-0.7230719999999999,0.0,13.4,0.0,0.0,13.4,0.0,-0.0,13.4,-0.0,-0.0,13.4,-0.0
6.181675385,0.12374,13.600000000000001,0.296976,-0.76665,13.4,-1.83996,-0.31204000000000004,13.4,-0.7488960000000001,0.0,13.4,0.0,0.0,13.4,0.0,-0.0,13.4,-0.0,-0.0,13.4,-0.0
6.214649821,0.12643000000000001,13.600000000000001,0.30343200000000004,-0.76665,13.600000000000001,-1.83996,-0.30397,13.4,-0.7295280000000001,0.0,13.4,0.0,0.0,13.4,0.0,-0.0,13.4,-0.0,-0.0,13.4,-0.0
6.247366048,0.12643000000000001,13.600000000000001,0.30343200000000004,-0.76665,13.600000000000001,-1.83996,-0.31473,13.4,-0.755352,0.0,13.4,0.0,0.0,13.4,0.0,-0.0,13.4,-0.0,-0.0,13.4,-0.0
6.281821057,0.13181,13.600000000000001,0.316344,-0.77741,13.5,-1.865784,-0.31473,13.4,-0.755352,0.0,13.4,0.0,0.0,13.4,0.0,-0.0,13.4,-0.0,-0.0,13.4,-0.0
6.314428137,0.12643000000000001,13.600000000000001,0.30343200000000004,-0.76934,13.600000000000001,-1.846416,-0.31473,13.4,-0.755352,0.0,13.4,0.0,0.0,13.4,0.0,-0.0,13.4,-0.0,-0.0,13.4,-0.0
6.347695493,0.12374,13.600000000000001,0.296976,-0.76665,13.5,-1.83996,-0.31204000000000004,13.4,-0.7488960000000001,0.0,13.4,0.0,0.0,13.4,0.0,-0.00538,13.4,-0.012912,-0.0,13.4,-0.0
6.381469007,0.12374,13.600000000000001,0.296976,-0.76665,13.5,-1.83996,-0.29859,13.4,-0.716616,0.0,13.4,0.0,0.0,13.4,0.0,-0.0,13.4,-0.0,-0.0,13.4,-0.0
6.414271626,0.12374,13.600000000000001,0.296976,-0.76665,13.5,-1.83996,-0.30397,13.4,-0.7295280000000001,0.0,13.4,0.0,0.0,13.4,0.0,-0.0,13.4,-0.0,-0.0,13.4,-0.0
6.44824502,0.12374,13.600000000000001,0.296976,-0.76665,13.5,-1.83996,-0.30666,13.4,-0.735984,0.0,13.4,0.0,0.0,13.4,0.0,-0.0,13.4,-0.0,-0.0,13.4,-0.0
6.481432603,0.12374,13.600000000000001,0.296976,-0.76665,13.5,-1.83996,-0.30666,13.4,-0.735984,0.0,13.4,0.0,0.0,13.4,0.0,-0.0,13.4,-0.0,-0.0,13.4,-0.0
6.51415089,0.11836,13.600000000000001,0.284064,-0.76665,13.5,-1.83996,-0.31473,13.4,-0.755352,0.0,13.4,0.0,0.0,13.4,0.0,-0.0,13.4,-0.0,-0.0,13.4,-0.0
6.547098021,0.12374,13.600000000000001,0.296976,-0.76665,13.5,-1.83996,-0.31742000000000004,13.4,-0.761808,0.0,13.4,0.0,0.0,13.4,0.0,-0.0,13.4,-0.0,-0.0,13.4,-0.0
6.581246774,0.12643000000000001,13.600000000000001,0.30343200000000004,-0.7801,13.5,-1.87224,-0.30666,13.4,-0.735984,0.0,13.4,0.0,0.0,13.4,0.0,-0.0,13.4,-0.0,-0.0,13.4,-0.0
6.614158236,0.12643000000000001,13.600000000000001,0.30343200000000004,-0.76665,13.5,-1.83996,-0.30935,13.4,-0.74244,0.0,13.4,0.0,0.0,13.4,0.0,-0.0,13.4,-0.0,-0.0,13.4,-0.0
6.648103657,0.12643000000000001,13.600000000000001,0.30343200000000004,-0.76665,13.5,-1.83996,-0.31204000000000004,13.4,-0.7488960000000001,0.0,13.4,0.0,0.0,13.4,0.0,-0.0,13.4,-0.0,-0.0,13.4,-0.0
6.681210266,0.12643000000000001,13.600000000000001,0.30343200000000004,-0.76665,13.5,-1.83996,-0.31473,13.4,-0.755352,0.0,13.4,0.0,0.0,13.4,0.0,-0.0,13.4,-0.0,-0.0,13.4,-0.0
6.714070391,0.12643000000000001,13.600000000000001,0.30343200000000004,-0.76665,13.5,-1.83996,-0.30935,13.4,-0.74244,0.0,13.4,0.0,0.0,13.4,0.0,-0.0,13.4,-0.0,-0.0,13.4,-0.0
6.748104234,0.12643000000000001,13.600000000000001,0.30343200000000004,-0.76665,13.600000000000001,-1.83996,-0.30935,13.4,-0.74244,0.0,13.4,0.0,0.0,13.4,0.0,-0.0,13.4,-0.0,-0.0,13.4,-0.0
6.781026811,0.12374,13.600000000000001,0.296976,-0.76665,13.600000000000001,-1.83996,-0.31473,13.4,-0.755352,0.0,13.4,0.0,0.0,13.4,0.0,-0.0,13.4,-0.0,-0.0,13.4,-0.0
6.81400392,0.12643000000000001,13.600000000000001,0.30343200000000004,-0.76665,13.4,-1.83996,-0.2959,13.4,-0.71016,0.0,13.4,0.0,0.0,13.4,0.0,-0.0,13.4,-0.0,-0.0,13.4,-0.0
6.848162566,0.12643000000000001,13.600000000000001,0.30343200000000004,-0.76665,13.5,-1.83996,-0.30397,13.4,-0.7295280000000001,0.0,13.4,0.0,0.0,13.4,0.0,-0.0,13.4,-0.0,-0.0,13.4,-0.0
6.881162052,0.12643000000000001,13.600000000000001,0.30343200000000004,-0.76665,13.600000000000001,-1.83996,-0.30666,13.4,-0.735984,0.0,13.4,0.0,0.0,13.4,0.0,-0.0,13.4,-0.0,-0.0,13.4,-0.0
6.91396733,0.1345,13.600000000000001,0.32280000000000003,-0.76665,13.600000000000001,-1.83996,-0.31204000000000004,13.4,-0.7488960000000001,0.0,13.4,0.0,0.0,13.4,0.0,-0.0,13.4,-0.0,-0.0,13.4,-0.0
6.948020093,0.12374,13.600000000000001,0.296976,-0.76665,13.5,-1.83996,-0.30666,13.4,-0.735984,0.0,13.4,0.0,0.0,13.4,0.0,-0.0,13.4,-0.0,-0.0,13.4,-0.0
6.981058936,0.12643000000000001,13.600000000000001,0.30343200000000004,-0.76665,13.600000000000001,-1.83996,-0.31473,13.4,-0.755352,0.0,13.4,0.0,0.0,13.4,0.0,-0.0,13.4,-0.0,-0.0,13.4,-0.0
7.013856609,0.1345,13.600000000000001,0.32280000000000003,-0.77741,13.600000000000001,-1.865784,-0.31473,13.4,-0.755352,0.0,13.4,0.0,0.0,13.4,0.0,-0.0,13.4,-0.0,-0.0,13.4,-0.0
7.048113427,0.12643000000000001,13.600000000000001,0.30343200000000004,-0.7801,13.600000000000001,-1.87224,-0.31473,13.4,-0.755352,0.0,13.4,0.0,0.0,13.4,0.0,-0.00807,13.4,-0.019368,-0.0,13.4,-0.0
7.080712874,0.12643000000000001,13.600000000000001,0.30343200000000004,-0.76665,13.5,-1.83996,-0.30666,13.4,-0.735984,0.0,13.4,0.0,0.0,13.4,0.0,-0.0,13.4,-0.0,-0.0,13.4,-0.0
7.113975535,0.12643000000000001,13.600000000000001,0.30343200000000004,-0.76665,13.5,-1.83996,-0.31473,13.4,-0.755352,0.0,13.4,0.0,0.0,13.4,0.0,-0.0,13.4,-0.0,-0.0,13.4,-0.0
7.147888212,0.12374,13.600000000000001,0.296976,-0.76665,13.5,-1.83996,-0.30935,13.4,-0.74244,0.0,13.4,0.0,0.0,13.4,0.0,-0.0,13.4,-0.0,-0.0,13.4,-0.0
7.180944281,0.12643000000000001,13.600000000000001,0.30343200000000004,-0.76665,13.4,-1.83996,-0.31473,13.4,-0.755352,0.0,13.4,0.0,0.0,13.4,0.0,-0.00269,13.4,-0.006456,-0.0,13.4,-0.0
7.214088374,0.12374,13.600000000000001,0.296976,-0.76665,13.5,-1.83996,-0.30666,13.4,-0.735984,0.0,13.4,0.0,0.0,13.4,0.0,-0.0,13.4,-0.0,-0.0,13.4,-0.0
7.24792055,0.12643000000000001,13.600000000000001,0.30343200000000004,-0.76665,13.5,-1.83996,-0.30397,13.4,-0.7295280000000001,0.0,13.4,0.0,0.0,13.4,0.0,-0.0,13.4,-0.0,-0.0,13.4,-0.0
7.280939455,0.12643000000000001,13.600000000000001,0.30343200000000004,-0.76665,13.5,-1.83996,-0.29859,13.4,-0.716616,0.0,13.4,0.0,0.0,13.4,0.0,-0.0,13.4,-0.0,-0.0,13.4,-0.0
7.313831219,0.12643000000000001,13.600000000000001,0.30343200000000004,-0.76665,13.600000000000001,-1.83996,-0.31473,13.4,-0.755352,0.0,13.4,0.0,0.0,13.4,0.0,-0.0,13.4,-0.0,-0.0,13.4,-0.0
7.347894361,0.12643000000000001,13.600000000000001,0.30343200000000004,-0.76665,13.5,-1.83996,-0.31473,13.4,-0.755352,0.0,13.4,0.0,0.0,13.4,0.0,-0.0,13.4,-0.0,-0.0,13.4,-0.0
7.380899511,0.12643000000000001,13.600000000000001,0.30343200000000004,-0.76665,13.5,-1.83996,-0.30935,13.4,-0.74244,0.0,13.4,0.0,0.0,13.4,0.0,-0.0,13.4,-0.0,-0.0,13.4,-0.0
7.414015686,0.12643000000000001,13.600000000000001,0.30343200000000004,-0.76665,13.600000000000001,-1.83996,-0.30935,13.4,-0.74244,0.0,13.4,0.0,0.0,13.4,0.0,-0.0,13.4,-0.0,-0.0,13.4,-0.0
7.447919084,0.12643000000000001,13.600000000000001,0.30343200000000004,-0.76665,13.600000000000001,-1.83996,-0.31473,13.4,-0.755352,0.0,13.4,0.0,0.0,13.4,0.0,-0.0,13.4,-0.0,-0.0,13.4,-0.0
7.480879004,0.12643000000000001,13.600000000000001,0.30343200000000004,-0.76665,13.5,-1.83996,-0.31473,13.4,-0.755352,0.0,13.4,0.0,0.0,13.4,0.0,-0.00269,13.4,-0.006456,-0.0,13.4,-0.0
7.513818939,0.13181,13.600000000000001,0.316344,-0.76665,13.5,-1.83996,-0.31204000000000004,13.4,-0.7488960000000001,0.0,13.4,0.0,0.0,13.4,0.0,-0.0,13.4,-0.0,-0.0,13.4,-0.0
7.547853042,0.12374,13.600000000000001,0.296976,-0.76665,13.600000000000001,-1.83996,-0.31473,13.4,-0.755352,0.0,13.4,0.0,0.0,13.4,0.0,-0.0,13.4,-0.0,-0.0,13.4,-0.0
7.580908813,0.12643000000000001,13.600000000000001,0.30343200000000004,-0.77741,13.5,-1.865784,-0.31473,13.4,-0.755352,0.0,13.4,0.0,0.0,13.4,0.0,-0.00269,13.4,-0.006456,-0.0,13.4,-0.0
7.613836676,0.12643000000000001,13.600000000000001,0.30343200000000004,-0.76665,13.4,-1.83996,-0.30397,13.4,-0.7295280000000001,0.0,13.4,0.0,0.0,13.4,0.0,-0.00269,13.4,-0.006456,-0.0,13.4,-0.0
7.647842751,0.12643000000000001,13.600000000000001,0.30343200000000004,-0.76665,13.5,-1.83996,-0.31473,13.4,-0.755352,0.0,13.4,0.0,0.0,13.4,0.0,-0.0,13.4,-0.0,-0.0,13.4,-0.0
7.680783549,0.12643000000000001,13.600000000000001,0.30343200000000004,-0.76665,13.600000000000001,-1.83996,-0.31473,13.4,-0.755352,0.0,13.4,0.0,0.0,13.4,0.0,-0.0,13.4,-0.0,-0.0,13.4,-0.0
7.713791562,0.12643000000000001,13.600000000000001,0.30343200000000004,-0.76665,13.5,-1.83996,-0.31473,13.4,-0.755352,0.0,13.4,0.0,0.0,13.4,0.0,-0.0,13.4,-0.0,-0.0,13.4,-0.0
7.747856668,0.12374,13.600000000000001,0.296976,-0.76665,13.600000000000001,-1.83996,-0.31204000000000004,13.4,-0.7488960000000001,0.0,13.4,0.0,0.0,13.4,0.0,-0.0,13.4,-0.0,-0.0,13.4,-0.0
7.780771763,0.12374,13.600000000000001,0.296976,-0.77741,13.600000000000001,-1.865784,-0.31473,13.4,-0.755352,0.0,13.4,0.0,0.0,13.4,0.0,-0.0,13.4,-0.0,-0.0,13.4,-0.0
7.813796195,0.12643000000000001,13.600000000000001,0.30343200000000004,-0.76665,13.5,-1.83996,-0.31473,13.4,-0.755352,0.0,13.4,0.0,0.0,13.4,0.0,-0.0,13.4,-0.0,-0.0,13.4,-0.0
7.847934555,0.12643000000000001,13.600000000000001,0.30343200000000004,-0.76665,13.5,-1.83996,-0.31473,13.4,-0.755352,0.0,13.4,0.0,0.0,13.4,0.0,-0.00538,13.4,-0.012912,-0.0,13.3,-0.0
7.880691763,0.12374,13.600000000000001,0.296976,-0.76665,13.600000000000001,-1.83996,-0.30397,13.4,-0.7295280000000001,0.0,13.4,0.0,0.0,13.4,0.0,-0.0,13.4,-0.0,-0.0,13.4,-0.0
7.913762686,0.12374,13.600000000000001,0.296976,-0.76665,13.5,-1.83996,-0.31473,13.5,-0.755352,0.0,13.4,0.0,0.0,13.4,0.0,-0.0,13.4,-0.0,-0.0,13.4,-0.0
7.947728413,0.12643000000000001,13.600000000000001,0.30343200000000004,-0.76665,13.5,-1.83996,-0.31473,13.4,-0.755352,0.0,13.4,0.0,0.0,13.4,0.0,-0.0,13.4,-0.0,-0.0,13.4,-0.0
7.980755305,0.12643000000000001,13.600000000000001,0.30343200000000004,-0.76665,13.5,-1.83996,-0.30128,13.4,-0.7230719999999999,0.0,13.4,0.0,0.0,13.4,0.0,-0.0,13.4,-0.0,-0.0,13.4,-0.0
8.013559413,0.01345,13.700000000000001,0.032279999999999996,-0.31473,13.600000000000001,-0.755352,-0.18292,13.5,-0.439008,0.0,13.5,0.0,0.0,13.5,0.0,-0.0,13.5,-0.0,-0.0,13.5,-0.0
8.047607056,0.0,13.700000000000001,0.0,-0.32011,13.600000000000001,-0.768264,-0.26631,13.5,-0.6391439999999999,0.0,13.5,0.0,0.0,13.5,0.0,-0.0,13.5,-0.0,-0.0,13.5,-0.0
8.080680627,-0.01345,13.700000000000001,-0.032279999999999996,-0.31473,13.600000000000001,-0.755352,-0.30666,13.5,-0.735984,0.0,13.5,0.0,0.0,13.5,0.0,-0.00269,13.5,-0.006456,-0.0,13.5,-0.0
8.113510586,-0.01883,13.700000000000001,-0.045191999999999996,-0.43847,13.600000000000001,-1.052328,-0.37122,13.5,-0.8909279999999999,0.0,13.5,0.0,0.01076,13.5,0.025824,-0.0,13.5,-0.0,-0.0,13.5,-0.0
8.147512226,-0.0538,13.700000000000001,-0.12911999999999998,-0.46537,13.600000000000001,-1.1168879999999999,-0.52186,13.5,-1.252464,0.0,13.5,0.0,0.01614,13.5,0.038736,-0.0,13.5,-0.0,-0.0,13.5,-0.0
8.180425248,-0.08070000000000001,13.700000000000001,-0.19368000000000002,-0.47075,13.600000000000001,-1.1298,-0.61063,13.4,-1.465512,0.0,13.5,0.0,0.01345,13.4,0.032279999999999996,-0.0,13.5,-0.0,-0.0,13.5,-0.0
8.213439021,-0.12912,13.600000000000001,-0.309888,-0.45730000000000004,13.5,-1.09752,-0.68864,13.5,-1.652736,0.0,13.4,0.0,0.03497,13.4,0.083928,-0.0,13.4,-0.0,-0.0,13.4,-0.0
8.247802981,-0.17485,13.600000000000001,-0.41964,-0.36315000000000003,13.5,-0.87156,-0.6456000000000001,13.4,-1.5494400000000002,0.0,13.4,0.0,0.01614,13.4,0.038736,-0.0,13.4,-0.0,-0.0,13.4,-0.0
8.280412221,-0.21789,13.600000000000001,-0.522936,-0.31473,13.5,-0.755352,-0.65636,13.4,-1.575264,0.0,13.4,0.0,0.04304,13.4,0.103296,-0.0,13.4,-0.0,-0.0,13.4,-0.0
8.313376453,-0.19906000000000001,13.600000000000001,-0.477744,-0.35239000000000004,13.5,-0.845736,-0.63215,13.3,-1.5171599999999998,0.0,13.4,0.0,0.02152,13.4,0.051648,-0.0,13.4,-0.0,-0.0,13.4,-0.0
8.34767904,-0.20175,13.600000000000001,-0.4842,-0.36046,13.5,-0.865104,-0.58373,13.4,-1.400952,0.0,13.4,0.0,0.040350000000000004,13.3,0.09684000000000001,-0.0,13.3,-0.0,-0.0,13.3,-0.0
8.380546098,-0.17485,13.600000000000001,-0.41964,-0.37391,13.5,-0.8973840000000001,-0.63753,13.4,-1.530072,0.0,13.4,0.0,0.0269,13.3,0.06455999999999999,-0.0,13.3,-0.0,-0.0,13.3,-0.0
8.413767801,-0.19637000000000002,13.600000000000001,-0.47128800000000004,-0.40619,13.4,-0.974856,-0.65636,13.3,-1.575264,0.0,13.3,0.0,0.048420000000000005,13.3,0.116208,-0.0,13.3,-0.0,-0.0,13.3,-0.0
8.447470138,-0.20444,13.600000000000001,-0.490656,-0.42771000000000003,13.4,-1.026504,-0.65098,13.3,-1.562352,0.0,13.3,0.0,0.00538,13.3,0.012912,-0.0,13.200000000000001,-0.0,-0.0,13.3,-0.0
8.480526918,-0.24748,13.5,-0.593952,-0.39274000000000003,13.4,-0.9425760000000001,-0.6348400000000001,13.3,-1.523616,0.0,13.200000000000001,0.0,0.0269,13.200000000000001,0.06455999999999999,-0.0,13.200000000000001,-0.0,-0.0,13.3,-0.0
8.513499914,-0.23941,13.5,-0.574584,-0.42233000000000004,13.4,-1.013592,-0.65905,13.3,-1.58172,0.0,13.3,0.0,0.06725,13.200000000000001,0.16140000000000002,-0.0,13.200000000000001,-0.0,-0.0,13.200000000000001,-0.0
8.547327618,-0.24748,13.5,-0.593952,-0.41426,13.4,-0.994224,-0.6240800000000001,13.4,-1.4977920000000002,0.0,13.200000000000001,0.0,0.03228,13.100000000000001,0.077472,-0.0,13.200000000000001,-0.0,-0.0,13.200000000000001,-0.0
8.580325907,-0.27438,13.5,-0.658512,-0.46268000000000004,13.3,-1.110432,-0.63215,13.3,-1.5171599999999998,0.0,13.200000000000001,0.0,0.056490000000000005,13.200000000000001,0.135576,-0.0,13.200000000000001,-0.0,-0.0,13.200000000000001,-0.0
8.61339718,-0.24479,13.5,-0.587496,-0.47075,13.3,-1.1298,-0.65098,13.100000000000001,-1.562352,0.0,13.200000000000001,0.0,0.03766,13.200000000000001,0.09038399999999999,-0.0,13.200000000000001,-0.0,-0.0,13.200000000000001,-0.0
8.647346364,-0.27976,13.5,-0.671424,-0.45999,13.3,-1.103976,-0.60256,13.200000000000001,-1.4461439999999999,0.0,13.200000000000001,0.0,0.0269,13.100000000000001,0.06455999999999999,-0.0,13.100000000000001,-0.0,-0.0,13.200000000000001,-0.0
8.680264347,-0.30666,13.4,-0.735984,-0.46806000000000003,13.3,-1.1233440000000001,-0.65905,13.200000000000001,-1.58172,0.0,13.200000000000001,0.0,0.04304,13.200000000000001,0.103296,-0.0,13.100000000000001,-0.0,-0.0,13.100000000000001,-0.0
8.714244759,-0.28245000000000003,13.4,-0.67788,-0.47613,13.3,-1.142712,-0.6052500000000001,13.200000000000001,-1.4526000000000001,0.0,13.200000000000001,0.0,0.03497,13.100000000000001,0.083928,-0.0,13.100000000000001,-0.0,-0.0,13.100000000000001,-0.0
8.74742085,-0.32549,13.3,-0.781176,-0.42233000000000004,13.200000000000001,-1.013592,-0.66174,13.100000000000001,-1.588176,0.0,13.100000000000001,0.0,0.048420000000000005,13.100000000000001,0.116208,-0.0,13.100000000000001,-0.0,-0.0,13.0,-0.0
8.780577949,-0.34163,13.4,-0.819912,-0.48151,13.200000000000001,-1.155624,-0.64022,13.100000000000001,-1.536528,0.0,13.100000000000001,0.0,0.06187,13.0,0.148488,-0.0,13.0,-0.0,-0.0,13.100000000000001,-0.0
8.814377152,-0.34163,13.3,-0.819912,-0.54069,13.200000000000001,-1.297656,-0.64022,13.100000000000001,-1.536528,0.0,13.100000000000001,0.0,0.048420000000000005,13.100000000000001,0.116208,-0.0,13.100000000000001,-0.0,-0.0,13.100000000000001,-0.0
8.847353661,-0.31473,13.4,-0.755352,-0.50303,13.200000000000001,-1.207272,-0.68057,13.100000000000001,-1.633368,0.0,13.100000000000001,0.0,0.0538,13.100000000000001,0.12911999999999998,-0.0,13.100000000000001,-0.0,-0.0,13.100000000000001,-0.0
8.880345558,-0.30397,13.5,-0.7295280000000001,-0.57028,13.3,-1.3686719999999999,-0.65367,13.200000000000001,-1.568808,0.0,13.200000000000001,0.0,0.03228,13.100000000000001,0.077472,-0.0,13.100000000000001,-0.0,-0.0,13.100000000000001,-0.0
8.914277425,-0.29321,13.4,-0.703704,-0.5918,13.3,-1.42032,-0.6456000000000001,13.200000000000001,-1.5494400000000002,0.0,13.200000000000001,0.0,0.03228,13.100000000000001,0.077472,-0.0,13.100000000000001,-0.0,-0.0,13.100000000000001,-0.0
8.947359648,-0.31204000000000004,13.5,-0.7488960000000001,-0.56221,13.3,-1.3493039999999998,-0.64829,13.200000000000001,-1.555896,0.0,13.200000000000001,0.0,0.05111,13.200000000000001,0.122664,-0.0,13.100000000000001,-0.0,-0.0,13.200000000000001,-0.0
8.980381583,-0.29859,13.5,-0.716616,-0.56221,13.3,-1.3493039999999998,-0.6348400000000001,13.3,-1.523616,0.0,13.200000000000001,0.0,0.00807,13.200000000000001,0.019368,-0.00269,13.200000000000001,-0.006456,-0.0,13.200000000000001,-0.0
9.014363136,-0.30128,13.5,-0.7230719999999999,-0.5649000000000001,13.4,-1.35576,-0.62139,13.200000000000001,-1.491336,0.0,13.200000000000001,0.0,0.03497,13.200000000000001,0.083928,-0.0,13.200000000000001,-0.0,-0.0,13.200000000000001,-0.0
9.046914286,-0.28783000000000003,13.5,-0.6907920000000001,-0.51379,13.4,-1.233096,-0.6456000000000001,13.3,-1.5494400000000002,0.0,13.200000000000001,0.0,0.0269,13.200000000000001,0.06455999999999999,-0.0,13.200000000000001,-0.0,-0.0,13.200000000000001,-0.0
9.080155672,-0.29321,13.5,-0.703704,-0.51917,13.4,-1.246008,-0.66981,13.3,-1.607544,0.0,13.200000000000001,0.0,0.02152,13.200000000000001,0.051648,-0.0,13.200000000000001,-0.0,-0.0,13.200000000000001,-0.0
9.114471618,-0.27707000000000004,13.5,-0.6649680000000001,-0.56759,13.3,-1.362216,-0.65636,13.3,-1.575264,0.0,13.200000000000001,0.0,0.00269,13.200000000000001,0.006456,-0.0,13.200000000000001,-0.0,-0.0,13.200000000000001,-0.0
9.147218487,-0.28514,13.5,-0.6843359999999999,-0.5353100000000001,13.4,-1.284744,-0.66174,13.3,-1.588176,0.0,13.3,0.0,0.03766,13.200000000000001,0.09038399999999999,-0.0,13.3,-0.0,-0.0,13.200000000000001,-0.0
9.180594662,-0.30128,13.600000000000001,-0.7230719999999999,-0.54607,13.4,-1.3105680000000002,-0.68864,13.200000000000001,-1.652736,0.0,13.200000000000001,0.0,0.01345,13.200000000000001,0.032279999999999996,-0.0,13.3,-0.0,-0.0,13.200000000000001,-0.0
9.214573193,-0.29321,13.5,-0.703704,-0.55145,13.4,-1.32348,-0.63753,13.3,-1.530072,0.0,13.3,0.0,0.01076,13.3,0.025824,-0.0,13.3,-0.0,-0.0,13.3,-0.0
9.247147449,-0.30666,13.5,-0.735984,-0.64291,13.4,-1.542984,-0.65367,13.3,-1.568808,0.0,13.3,0.0,0.03228,13.3,0.077472,-0.0,13.3,-0.0,-0.0,13.3,-0.0
9.28018339,-0.2959,13.5,-0.71016,-0.6644300000000001,13.4,-1.594632,-0.63215,13.3,-1.5171599999999998,0.0,13.3,0.0,0.01076,13.3,0.025824,-0.0,13.3,-0.0,-0.0,13.3,-0.0
9.314353995,-0.26093,13.5,-0.626232,-0.6348400000000001,13.5,-1.523616,-0.62677,13.3,-1.504248,0.0,13.3,0.0,0.024210000000000002,13.3,0.058104,-0.0,13.3,-0.0,-0.0,13.3,-0.0
9.347551963,-0.25555,13.600000000000001,-0.61332,-0.6052500000000001,13.4,-1.4526000000000001,-0.6348400000000001,13.4,-1.523616,0.0,13.3,0.0,0.04573,13.3,0.109752,-0.00538,13.3,-0.012912,-0.0,13.3,-0.0
9.380070081,-0.23403000000000002,13.600000000000001,-0.5616720000000001,-0.62677,13.5,-1.504248,-0.6160100000000001,13.4,-1.4784240000000002,0.0,13.4,0.0,0.00807,13.3,0.019368,-0.00269,13.3,-0.006456,-0.0,13.3,-0.0
9.414081313,-0.23672,13.600000000000001,-0.568128,-0.6052500000000001,13.5,-1.4526000000000001,-0.62139,13.4,-1.491336,0.0,13.4,0.0,0.00807,13.3,0.019368,-0.00269,13.3,-0.006456,-0.0,13.3,-0.0
9.447045344,-0.2421,13.600000000000001,-0.58104,-0.62139,13.5,-1.491336,-0.62946,13.4,-1.510704,0.0,13.4,0.0,0.01076,13.3,0.025824,-0.0,13.3,-0.0,-0.0,13.3,-0.0
9.480053765,-0.23134000000000002,13.600000000000001,-0.555216,-0.63215,13.5,-1.5171599999999998,-0.64022,13.4,-1.536528,0.0,13.4,0.0,0.01883,13.3,0.045191999999999996,-0.0,13.3,-0.0,-0.0,13.3,-0.0
9.514417547,-0.2421,13.600000000000001,-0.58104,-0.60256,13.5,-1.4461439999999999,-0.6859500000000001,13.4,-1.6462800000000002,0.0,13.4,0.0,0.0,13.3,0.0,-0.0,13.3,-0.0,-0.0,13.3,-0.0
9.54699629,-0.25555,13.600000000000001,-0.61332,-0.6052500000000001,13.5,-1.4526000000000001,-0.68864,13.4,-1.652736,0.0,13.4,0.0,0.0,13.3,0.0,-0.0,13.3,-0.0,-0.0,13.3,-0.0
9.580088386,-0.01345,13.700000000000001,-0.032279999999999996,-0.45999,13.600000000000001,-1.103976,-0.25017,13.5,-0.6004079999999999,0.0,13.5,0.0,-0.00538,13.4,-0.012912,-0.0,13.5,-0.0,-0.0,13.5,-0.0
9.613989679,-0.01076,13.700000000000001,-0.025824,-0.49227000000000004,13.600000000000001,-1.181448,-0.34432,13.5,-0.826368,0.00269,13.5,0.006456,0.0,13.5,0.0,-0.0,13.5,-0.0,-0.0,13.5,-0.0
9.647052767,0.0269,13.700000000000001,0.06455999999999999,-0.49496,13.600000000000001,-1.187904,-0.30935,13.5,-0.74244,0.0,13.5,0.0,-0.01076,13.5,-0.025824,-0.0,13.5,-0.0,-0.0,13.5,-0.0
9.679977137,0.02959,13.700000000000001,0.071016,-0.59718,13.600000000000001,-1.433232,-0.34163,13.5,-0.819912,0.0,13.5,0.0,-0.00807,13.5,-0.019368,-0.0,13.5,-0.0,-0.0,13.5,-0.0
9.714082008,0.056490000000000005,13.700000000000001,0.135576,-0.7155400000000001,13.600000000000001,-1.7172960000000002,-0.43309000000000003,13.5,-1.0394160000000001,0.0,13.5,0.0,0.0,13.5,0.0,-0.0,13.5,-0.0,-0.0,13.5,-0.0
9.747149283,0.11567000000000001,13.600000000000001,0.277608,-0.68864,13.600000000000001,-1.652736,-0.36315000000000003,13.5,-0.87156,0.0,13.5,0.0,-0.00269,13.4,-0.006456,-0.0,13.5,-0.0,-0.0,13.5,-0.0
9.779886427,0.20982,13.600000000000001,0.503568,-0.73168,13.5,-1.756032,-0.35777000000000003,13.4,-0.8586480000000001,0.0,13.5,0.0,0.0,13.4,0.0,-0.0,13.4,-0.0,-0.0,13.4,-0.0
9.814007689,0.29321,13.600000000000001,0.703704,-0.7451300000000001,13.5,-1.7883120000000001,-0.33356,13.4,-0.800544,0.00269,13.4,0.006456,-0.01614,13.4,-0.038736,-0.0,13.4,-0.0,-0.0,13.4,-0.0
9.847009662,0.35239000000000004,13.600000000000001,0.845736,-0.76934,13.4,-1.846416,-0.27707000000000004,13.3,-0.6649680000000001,-0.19368000000000002,13.4,-0.464832,-0.01614,13.3,-0.038736,-0.0,13.3,-0.0,-0.0,13.3,-0.0
9.879994506,0.44116,13.600000000000001,1.058784,-0.81238,13.5,-1.949712,-0.28514,13.4,-0.6843359999999999,-0.08608,13.3,-0.206592,-0.0269,13.3,-0.06455999999999999,-0.0,13.3,-0.0,-0.0,13.3,-0.0
9.914016886,0.52724,13.5,1.265376,-0.8661800000000001,13.4,-2.0788320000000002,-0.34432,13.3,-0.826368,-0.01614,13.4,-0.038736,-0.01076,13.3,-0.025824,-0.0,13.3,-0.0,-0.0,13.3,-0.0
9.947221087,0.58104,13.5,1.394496,-0.9038400000000001,13.4,-2.169216,-0.28514,13.3,-0.6843359999999999,-0.08877,13.3,-0.213048,-0.00807,13.200000000000001,-0.019368,-0.0,13.200000000000001,-0.0,-0.0,13.3,-0.0
9.97983567,0.50034,13.4,1.2008159999999999,-0.95764,13.4,-2.298336,-0.31204000000000004,13.3,-0.7488960000000001,-0.09684000000000001,13.3,-0.232416,-0.024210000000000002,13.200000000000001,-0.058104,-0.0,13.3,-0.0,-0.0,13.200000000000001,-0.0
10.014031925,0.43847,13.4,1.052328,-1.0222,13.3,-2.45328,-0.2959,13.200000000000001,-0.71016,-0.09415,13.3,-0.22596,-0.01614,13.200000000000001,-0.038736,-0.0,13.200000000000001,-0.0,-0.0,13.200000000000001,-0.0
10.046919516,0.42233000000000004,13.4,1.013592,-1.10559,13.200000000000001,-2.653416,-0.28514,13.200000000000001,-0.6843359999999999,-0.09146,13.200000000000001,-0.219504,-0.03766,13.200000000000001,-0.09038399999999999,-0.0,13.200000000000001,-0.0,-0.0,13.200000000000001,-0.0
10.079948409,0.37391,13.4,0.8973840000000001,-1.16746,13.4,-2.801904,-0.29321,13.200000000000001,-0.703704,-0.09953000000000001,13.200000000000001,-0.238872,-0.00538,13.200000000000001,-0.012912,-0.0,13.200000000000001,-0.0,-0.0,13.100000000000001,-0.0
10.114028103,0.38467,13.4,0.923208,-1.19705,13.3,-2.8729199999999997,-0.2959,13.200000000000001,-0.71016,-0.10222,13.200000000000001,-0.245328,-0.03228,13.100000000000001,-0.077472,-0.0,13.100000000000001,-0.0,-0.0,13.100000000000001,-0.0
10.146823928,0.42502,13.4,1.020048,-1.2481600000000002,13.3,-2.9955840000000005,-0.27438,13.200000000000001,-0.658512,-0.12643000000000001,13.100000000000001,-0.30343200000000004,-0.03766,13.100000000000001,-0.09038399999999999,-0.0,13.100000000000001,-0.0,-0.0,13.100000000000001,-0.0
10.179836252,0.45730000000000004,13.3,1.09752,-1.28313,13.100000000000001,-3.0795120000000002,-0.29052,13.100000000000001,-0.697248,-0.11298000000000001,13.0,-0.271152,-0.0269,13.0,-0.06455999999999999,-0.0,13.0,-0.0,-0.0,13.0,-0.0
10.213800057,0.45999,13.4,1.103976,-1.42032,13.200000000000001,-3.408768,-0.31473,13.100000000000001,-0.755352,-0.09146,13.0,-0.219504,-0.024210000000000002,13.0,-0.058104,-0.0,13.0,-0.0,-0.0,13.0,-0.0
10.246826943,0.49227000000000004,13.200000000000001,1.181448,-1.3503800000000001,13.100000000000001,-3.2409120000000002,-0.34701000000000004,13.0,-0.8328240000000001,-0.13181,13.0,-0.316344,-0.024210000000000002,13.0,-0.058104,-0.0,13.0,-0.0,-0.0,12.9,-0.0
10.279850379,0.48958,13.4,1.174992,-1.3988,13.100000000000001,-3.35712,-0.32549,13.0,-0.781176,-0.12643000000000001,13.0,-0.30343200000000004,-0.03766,12.9,-0.09038399999999999,-0.0,12.9,-0.0,-0.0,12.9,-0.0
10.313722036,0.45192000000000004,13.200000000000001,1.084608,-1.41494,13.100000000000001,-3.395856,-0.32818,12.9,-0.787632,-0.11298000000000001,12.9,-0.271152,-0.024210000000000002,12.9,-0.058104,-0.0,12.9,-0.0,-0.0,12.9,-0.0
10.346750984,0.48151,13.3,1.155624,-1.24278,13.100000000000001,-2.982672,-0.33087,13.0,-0.794088,-0.13181,12.9,-0.316344,-0.03766,12.9,-0.09038399999999999,-0.0,12.9,-0.0,-0.0,12.9,-0.0
10.379892493,0.44116,13.200000000000001,1.058784,-1.25623,13.0,-3.0149519999999996,-0.3497,13.0,-0.83928,-0.10491,13.0,-0.251784,-0.02959,12.9,-0.071016,-0.0,12.9,-0.0,-0.0,12.9,-0.0
10.413741757,0.39812000000000003,13.3,0.955488,-1.1378700000000002,13.100000000000001,-2.730888,-0.35777000000000003,13.100000000000001,-0.8586480000000001,-0.11298000000000001,13.0,-0.271152,-0.01614,13.0,-0.038736,-0.0,13.0,-0.0,-0.0,13.0,-0.0
10.446829779,0.38736000000000004,13.3,0.929664,-1.1836,13.200000000000001,-2.84064,-0.31742000000000004,13.0,-0.761808,-0.12374,13.100000000000001,-0.296976,-0.01076,13.0,-0.025824,-0.0,13.0,-0.0,-0.0,13.0,-0.0
10.480707479,0.35239000000000004,13.4,0.845736,-1.13518,13.200000000000001,-2.724432,-0.33894,13.100000000000001,-0.8134560000000001,-0.09953000000000001,13.100000000000001,-0.238872,-0.00807,13.0,-0.019368,-0.0,13.0,-0.0,-0.0,13.0,-0.0
10.513748838,0.29859,13.4,0.716616,-1.19974,13.200000000000001,-2.879376,-0.29859,13.100000000000001,-0.716616,-0.12912,13.100000000000001,-0.309888,-0.024210000000000002,13.0,-0.058104,-0.0,13.100000000000001,-0.0,-0.0,13.100000000000001,-0.0
10.546705738,0.27976,13.3,0.671424,-1.18629,13.100000000000001,-2.847096,-0.28514,13.100000000000001,-0.6843359999999999,-0.10222,13.100000000000001,-0.245328,-0.01614,13.0,-0.038736,-0.0,13.100000000000001,-0.0,-0.0,13.0,-0.0
10.58072857,0.26362,13.5,0.632688,-1.14863,13.3,-2.756712,-0.31473,13.200000000000001,-0.755352,-0.09146,13.200000000000001,-0.219504,-0.00269,13.100000000000001,-0.006456,-0.0,13.100000000000001,-0.0,-0.0,13.100000000000001,-0.0
10.61378379,0.28783000000000003,13.5,0.6907920000000001,-1.2481600000000002,13.200000000000001,-2.9955840000000005,-0.31204000000000004,13.100000000000001,-0.7488960000000001,-0.12643000000000001,13.100000000000001,-0.30343200000000004,-0.01345,13.100000000000001,-0.032279999999999996,-0.0,13.100000000000001,-0.0,-0.0,13.100000000000001,-0.0
10.646850178,0.27976,13.5,0.671424,-1.22395,13.3,-2.9374800000000003,-0.32011,13.200000000000001,-0.768264,-0.11029,13.100000000000001,-0.264696,-0.00807,13.100000000000001,-0.019368,-0.0,13.100000000000001,-0.0,-0.0,13.100000000000001,-0.0
10.680771025,0.29321,13.4,0.703704,-1.2185700000000002,13.200000000000001,-2.9245680000000003,-0.30128,13.200000000000001,-0.7230719999999999,-0.09415,13.200000000000001,-0.22596,0.0,13.100000000000001,0.0,-0.0,13.100000000000001,-0.0,-0.0,13.100000000000001,-0.0
10.713523957,0.30935,13.4,0.74244,-1.1889800000000001,13.3,-2.853552,-0.29052,13.200000000000001,-0.697248,-0.09146,13.200000000000001,-0.219504,-0.00538,13.200000000000001,-0.012912,-0.0,13.200000000000001,-0.0,-0.0,13.100000000000001,-0.0
10.746608723,0.27707000000000004,13.3,0.6649680000000001,-1.20512,13.3,-2.8922879999999997,-0.41157,13.200000000000001,-0.987768,-0.09684000000000001,13.200000000000001,-0.232416,-0.01345,13.200000000000001,-0.032279999999999996,-0.0,13.200000000000001,-0.0,-0.0,13.200000000000001,-0.0
10.780792992,0.25017,13.5,0.6004079999999999,-1.29658,13.4,-3.111792,-0.28245000000000003,13.3,-0.67788,-0.10222,13.200000000000001,-0.245328,-0.00269,13.200000000000001,-0.006456,-0.0,13.200000000000001,-0.0,-0.0,13.200000000000001,-0.0
10.813754867,0.28245000000000003,13.3,0.67788,-1.1889800000000001,13.4,-2.853552,-0.34432,13.200000000000001,-0.826368,-0.10491,13.3,-0.251784,0.0,13.200000000000001,0.0,-0.0,13.200000000000001,-0.0,-0.0,13.200000000000001,-0.0
10.846827258,0.28245000000000003,13.5,0.67788,-1.1593900000000001,13.4,-2.7825360000000003,-0.3497,13.200000000000001,-0.83928,-0.07532,13.200000000000001,-0.18076799999999998,-0.00269,13.200000000000001,-0.006456,-0.0,13.200000000000001,-0.0,-0.0,13.200000000000001,-0.0
10.88066587,0.24748,13.5,0.593952,-1.16746,13.200000000000001,-2.801904,-0.38467,13.200000000000001,-0.923208,-0.08608,13.3,-0.206592,-0.01076,13.200000000000001,-0.025824,-0.0,13.200000000000001,-0.0,-0.0,13.200000000000001,-0.0
10.913745409,0.23134000000000002,13.600000000000001,0.555216,-1.22126,13.4,-2.931024,-0.36584,13.3,-0.878016,-0.08070000000000001,13.200000000000001,-0.19368000000000002,0.00269,13.200000000000001,0.006456,-0.0,13.200000000000001,-0.0,-0.0,13.200000000000001,-0.0
10.946550217,0.20713,13.5,0.497112,-1.14863,13.4,-2.756712,-0.33356,13.3,-0.800544,-0.06456,13.3,-0.154944,0.00807,13.200000000000001,0.019368,-0.0,13.200000000000001,-0.0,-0.0,13.200000000000001,-0.0
10.980539715,0.2152,13.4,0.5164799999999999,-1.2912000000000001,13.3,-3.0988800000000003,-0.33356,13.3,-0.800544,-0.08070000000000001,13.3,-0.19368000000000002,0.0,13.200000000000001,0.0,-0.0,13.200000000000001,-0.0,-0.0,13.200000000000001,-0.0
11.013419192,0.20982,13.5,0.503568,-1.20243,13.4,-2.885832,-0.30128,13.3,-0.7230719999999999,-0.056490000000000005,13.3,-0.135576,-0.00269,13.200000000000001,-0.006456,-0.0,13.200000000000001,-0.0,-0.0,13.200000000000001,-0.0
11.046532716,0.22596000000000002,13.5,0.542304,-1.20243,13.4,-2.885832,-0.34163,13.3,-0.819912,-0.05918,13.3,-0.142032,0.0,13.200000000000001,0.0,-0.00269,13.200000000000001,-0.006456,-0.0,13.200000000000001,-0.0
11.080525252,0.21789,13.5,0.522936,-1.22664,13.5,-2.943936,-0.36315000000000003,13.3,-0.87156,-0.08070000000000001,13.3,-0.19368000000000002,-0.00538,13.200000000000001,-0.012912,-0.0,13.200000000000001,-0.0,-0.0,13.200000000000001,-0.0
11.113277524,0.22865000000000002,13.5,0.54876,-1.22664,13.3,-2.943936,-0.33625,13.200000000000001,-0.8069999999999999,-0.08070000000000001,13.3,-0.19368000000000002,0.0,13.200000000000001,0.0,-0.0,13.200000000000001,-0.0,-0.0,13.200000000000001,-0.0
11.146537186,0.20713,13.5,0.497112,-1.22933,13.4,-2.950392,-0.33356,13.3,-0.800544,-0.06456,13.3,-0.154944,0.0,13.200000000000001,0.0,-0.0,13.200000000000001,-0.0,-0.0,13.200000000000001,-0.0
11.180266416,0.2152,13.600000000000001,0.5164799999999999,-1.22933,13.5,-2.950392,-0.32280000000000003,13.3,-0.7747200000000001,-0.08339,13.3,-0.200136,0.0,13.200000000000001,0.0,-0.0,13.3,-0.0,-0.0,13.200000000000001,-0.0
11.213661003,0.22865000000000002,13.5,0.54876,-1.22664,13.4,-2.943936,-0.31742000000000004,13.3,-0.761808,-0.07532,13.3,-0.18076799999999998,0.0,13.200000000000001,0.0,-0.0,13.3,-0.0,-0.0,13.200000000000001,-0.0
11.246557551,0.22327,13.5,0.535848,-1.22933,13.3,-2.950392,-0.31742000000000004,13.3,-0.761808,-0.06994,13.3,-0.167856,0.0,13.200000000000001,0.0,-0.0,13.3,-0.0,-0.0,13.200000000000001,-0.0
11.280553401,0.23403000000000002,13.5,0.5616720000000001,-1.22933,13.4,-2.950392,-0.31742000000000004,13.3,-0.761808,-0.07263,13.3,-0.174312,0.0,13.200000000000001,0.0,-0.0,13.3,-0.0,-0.0,13.200000000000001,-0.0
11.31356346,0.22327,13.5,0.535848,-1.22933,13.4,-2.950392,-0.31473,13.200000000000001,-0.755352,-0.07263,13.3,-0.174312,0.0,13.200000000000001,0.0,-0.0,13.3,-0.0,-0.0,13.200000000000001,-0.0
11.346600701,0.22327,13.5,0.535848,-1.22933,13.4,-2.950392,-0.31473,13.3,-0.755352,-0.07532,13.3,-0.18076799999999998,0.0,13.200000000000001,0.0,-0.0,13.3,-0.0,-0.0,13.200000000000001,-0.0
11.380510881,0.23134000000000002,13.5,0.555216,-1.22933,13.5,-2.950392,-0.31742000000000004,13.200000000000001,-0.761808,-0.07532,13.3,-0.18076799999999998,0.0,13.200000000000001,0.0,-0.0,13.3,-0.0,-0.0,13.200000000000001,-0.0
11.413529501,0.22327,13.5,0.535848,-1.2320200000000001,13.4,-2.9568480000000004,-0.32549,13.3,-0.781176,-0.07532,13.3,-0.18076799999999998,0.0,13.200000000000001,0.0,-0.0,13.3,-0.0,-0.0,13.200000000000001,-0.0
11.446610314,0.23134000000000002,13.5,0.555216,-1.2320200000000001,13.3,-2.9568480000000004,-0.31742000000000004,13.3,-0.761808,-0.07532,13.3,-0.18076799999999998,0.0,13.200000000000001,0.0,-0.0,13.3,-0.0,-0.0,13.200000000000001,-0.0
11.480515164,0.22327,13.5,0.535848,-1.2320200000000001,13.5,-2.9568480000000004,-0.31742000000000004,13.3,-0.761808,-0.07532,13.3,-0.18076799999999998,0.0,13.200000000000001,0.0,-0.0,13.3,-0.0,-0.0,13.200000000000001,-0.0
11.514000483,0.22327,13.5,0.535848,-1.2320200000000001,13.4,-2.9568480000000004,-0.31742000000000004,13.3,-0.761808,-0.07532,13.3,-0.18076799999999998,0.0,13.200000000000001,0.0,-0.0,13.3,-0.0,-0.0,13.200000000000001,-0.0
11.546327246,0.22327,13.5,0.535848,-1.22933,13.4,-2.950392,-0.31742000000000004,13.3,-0.761808,-0.07532,13.3,-0.18076799999999998,0.0,13.200000000000001,0.0,-0.0,13.3,-0.0,-0.0,13.200000000000001,-0.0
11.580104763,0.23134000000000002,13.5,0.555216,-1.2320200000000001,13.4,-2.9568480000000004,-0.32011,13.3,-0.768264,-0.07532,13.3,-0.18076799999999998,0.0,13.200000000000001,0.0,-0.0,13.3,-0.0,-0.0,13.200000000000001,-0.0
11.613520386,0.22596000000000002,13.600000000000001,0.542304,-1.2320200000000001,13.3,-2.9568480000000004,-0.31742000000000004,13.3,-0.761808,-0.07532,13.3,-0.18076799999999998,0.0,13.200000000000001,0.0,-0.0,13.3,-0.0,-0.0,13.200000000000001,-0.0
11.646481331,0.23134000000000002,13.5,0.555216,-1.2320200000000001,13.5,-2.9568480000000004,-0.32011,13.3,-0.768264,-0.07532,13.3,-0.18076799999999998,0.0,13.200000000000001,0.0,-0.0,13.3,-0.0,-0.0,13.200000000000001,-0.0
11.680266917,0.22596000000000002,13.5,0.542304,-1.2320200000000001,13.3,-2.9568480000000004,-0.31742000000000004,13.3,-0.761808,-0.07532,13.3,-0.18076799999999998,0.0,13.200000000000001,0.0,-0.0,13.3,-0.0,-0.0,13.200000000000001,-0.0
11.713317899,0.2421,13.5,0.58104,-1.2320200000000001,13.4,-2.9568480000000004,-0.32549,13.3,-0.781176,-0.07801000000000001,13.3,-0.18722400000000003,0.0,13.200000000000001,0.0,-0.0,13.3,-0.0,-0.0,13.200000000000001,-0.0
11.746268059,0.22596000000000002,13.5,0.542304,-1.2320200000000001,13.4,-2.9568480000000004,-0.32549,13.3,-0.781176,-0.07801000000000001,13.3,-0.18722400000000003,0.0,13.200000000000001,0.0,-0.0,13.3,-0.0,-0.0,13.200000000000001,-0.0
11.780318888,0.22327,13.5,0.535848,-1.2320200000000001,13.4,-2.9568480000000004,-0.31473,13.3,-0.755352,-0.08070000000000001,13.3,-0.19368000000000002,0.0,13.200000000000001,0.0,-0.0,13.3,-0.0,-0.0,13.200000000000001,-0.0
11.813306065,0.22596000000000002,13.5,0.542304,-1.2320200000000001,13.5,-2.9568480000000004,-0.31742000000000004,13.200000000000001,-0.761808,-0.07801000000000001,13.200000000000001,-0.18722400000000003,0.0,13.200000000000001,0.0,-0.0,13.3,-0.0,-0.0,13.200000000000001,-0.0
11.846237988,0.22596000000000002,13.600000000000001,0.542304,-1.2320200000000001,13.4,-2.9568480000000004,-0.32280000000000003,13.3,-0.7747200000000001,-0.07801000000000001,13.3,-0.18722400000000003,-0.00269,13.200000000000001,-0.006456,-0.0,13.3,-0.0,-0.0,13.200000000000001,-0.0
11.88021323,0.22596000000000002,13.5,0.542304,-1.2320200000000001,13.4,-2.9568480000000004,-0.32549,13.200000000000001,-0.781176,-0.07532,13.3,-0.18076799999999998,0.0,13.200000000000001,0.0,-0.0,13.3,-0.0,-0.0,13.200000000000001,-0.0
11.913206575,0.22596000000000002,13.5,0.542304,-1.2320200000000001,13.5,-2.9568480000000004,-0.31742000000000004,13.3,-0.761808,-0.07532,13.3,-0.18076799999999998,0.0,13.200000000000001,0.0,-0.0,13.3,-0.0,-0.0,13.200000000000001,-0.0
11.946181537,0.22596000000000002,13.5,0.542304,-1.2320200000000001,13.5,-2.9568480000000004,-0.31473,13.3,-0.755352,-0.07532,13.3,-0.18076799999999998,0.0,13.200000000000001,0.0,-0.0,13.3,-0.0,-0.0,13.200000000000001,-0.0
11.98032089,0.22596000000000002,13.5,0.542304,-1.2320200000000001,13.4,-2.9568480000000004,-0.31742000000000004,13.3,-0.761808,-0.07532,13.3,-0.18076799999999998,0.0,13.200000000000001,0.0,-0.0,13.3,-0.0,-0.0,13.200000000000001,-0.0
12.013075522,0.22596000000000002,13.600000000000001,0.542304,-1.2320200000000001,13.4,-2.9568480000000004,-0.32549,13.3,-0.781176,-0.07532,13.3,-0.18076799999999998,0.0,13.200000000000001,0.0,-0.0,13.3,-0.0,-0.0,13.200000000000001,-0.0
12.04629704,0.22596000000000002,13.5,0.542304,-1.2320200000000001,13.3,-2.9568480000000004,-0.31742000000000004,13.3,-0.761808,-0.07532,13.3,-0.18076799999999998,0.0,13.200000000000001,0.0,-0.0,13.3,-0.0,-0.0,13.200000000000001,-0.0
12.080225536,0.22596000000000002,13.5,0.542304,-1.2320200000000001,13.4,-2.9568480000000004,-0.32549,13.3,-0.781176,-0.08070000000000001,13.3,-0.19368000000000002,0.0,13.200000000000001,0.0,-0.00269,13.3,-0.006456,-0.0,13.200000000000001,-0.0
12.113293474,0.22596000000000002,13.5,0.542304,-1.2320200000000001,13.3,-2.9568480000000004,-0.32011,13.200000000000001,-0.768264,-0.07532,13.3,-0.18076799999999998,0.0,13.200000000000001,0.0,-0.0,13.3,-0.0,-0.0,13.200000000000001,-0.0
12.146148008,0.23134000000000002,13.4,0.555216,-1.2320200000000001,13.4,-2.9568480000000004,-0.31742000000000004,13.3,-0.761808,-0.07532,13.3,-0.18076799999999998,0.0,13.200000000000001,0.0,-0.0,13.3,-0.0,-0.0,13.200000000000001,-0.0
12.180097304,0.22596000000000002,13.5,0.542304,-1.2320200000000001,13.3,-2.9568480000000004,-0.32549,13.3,-0.781176,-0.07801000000000001,13.3,-0.18722400000000003,0.0,13.200000000000001,0.0,-0.0,13.3,-0.0,-0.0,13.200000000000001,-0.0
12.21324494,0.22596000000000002,13.5,0.542304,-1.2320200000000001,13.4,-2.9568480000000004,-0.31742000000000004,13.3,-0.761808,-0.07532,13.3,-0.18076799999999998,0.0,13.200000000000001,0.0,-0.0,13.3,-0.0,-0.0,13.200000000000001,-0.0
12.246378154,0.22596000000000002,13.5,0.542304,-1.2320200000000001,13.3,-2.9568480000000004,-0.32011,13.3,-0.768264,-0.07532,13.3,-0.18076799999999998,0.0,13.200000000000001,0.0,-0.0,13.3,-0.0,-0.0,13.200000000000001,-0.0
12.280143303,0.22596000000000002,13.5,0.542304,-1.2320200000000001,13.4,-2.9568480000000004,-0.31742000000000004,13.3,-0.761808,-0.07532,13.3,-0.18076799999999998,0.0,13.200000000000001,0.0,-0.0,13.3,-0.0,-0.0,13.200000000000001,-0.0
12.313198705,0.22596000000000002,13.5,0.542304,-1.2320200000000001,13.4,-2.9568480000000004,-0.32280000000000003,13.200000000000001,-0.7747200000000001,-0.07532,13.3,-0.18076799999999998,0.0,13.200000000000001,0.0,-0.0,13.3,-0.0,-0.0,13.200000000000001,-0.0
12.346138906,0.22865000000000002,13.5,0.54876,-1.2320200000000001,13.4,-2.9568480000000004,-0.31742000000000004,13.3,-0.761808,-0.07532,13.3,-0.18076799999999998,0.0,13.200000000000001,0.0,-0.0,13.3,-0.0,-0.0,13.200000000000001,-0.0
12.380089472,0.22596000000000002,13.5,0.542304,-1.2320200000000001,13.5,-2.9568480000000004,-0.31473,13.200000000000001,-0.755352,-0.07532,13.3,-0.18076799999999998,0.0,13.200000000000001,0.0,-0.0,13.3,-0.0,-0.0,13.200000000000001,-0.0
12.41310332,0.22596000000000002,13.5,0.542304,-1.2320200000000001,13.4,-2.9568480000000004,-0.32011,13.3,-0.768264,-0.07801000000000001,13.3,-0.18722400000000003,0.0,13.200000000000001,0.0,-0.0,13.3,-0.0,-0.0,13.200000000000001,-0.0
12.446065452,0.23403000000000002,13.5,0.5616720000000001,-1.2320200000000001,13.4,-2.9568480000000004,-0.31742000000000004,13.3,-0.761808,-0.07532,13.3,-0.18076799999999998,0.0,13.200000000000001,0.0,-0.0,13.3,-0.0,-0.0,13.200000000000001,-0.0
12.48015575,0.22596000000000002,13.600000000000001,0.542304,-1.2320200000000001,13.4,-2.9568480000000004,-0.31742000000000004,13.3,-0.761808,-0.07532,13.3,-0.18076799999999998,0.0,13.200000000000001,0.0,-0.0,13.3,-0.0,-0.0,13.200000000000001,-0.0
12.51332057,0.22596000000000002,13.5,0.542304,-1.2320200000000001,13.4,-2.9568480000000004,-0.31742000000000004,13.3,-0.761808,-0.07532,13.3,-0.18076799999999998,0.0,13.200000000000001,0.0,-0.0,13.3,-0.0,-0.0,13.200000000000001,-0.0
12.54596868,0.22865000000000002,13.5,0.54876,-1.2320200000000001,13.3,-2.9568480000000004,-0.31473,13.3,-0.755352,-0.07532,13.3,-0.18076799999999998,0.0,13.200000000000001,0.0,-0.0,13.3,-0.0,-0.0,13.200000000000001,-0.0
12.579969843,0.22596000000000002,13.5,0.542304,-1.2320200000000001,13.4,-2.9568480000000004,-0.32011,13.3,-0.768264,-0.07532,13.3,-0.18076799999999998,0.0,13.200000000000001,0.0,-0.0,13.3,-0.0,-0.0,13.200000000000001,-0.0
12.613296606,0.22596000000000002,13.5,0.542304,-1.2320200000000001,13.5,-2.9568480000000004,-0.31742000000000004,13.3,-0.761808,-0.07532,13.3,-0.18076799999999998,0.0,13.200000000000001,0.0,-0.0,13.3,-0.0,-0.0,13.200000000000001,-0.0
12.646023779,0.22596000000000002,13.5,0.542304,-1.2320200000000001,13.4,-2.9568480000000004,-0.32280000000000003,13.3,-0.7747200000000001,-0.07801000000000001,13.3,-0.18722400000000003,0.0,13.200000000000001,0.0,-0.0,13.3,-0.0,-0.0,13.200000000000001,-0.0
12.680098235,0.22596000000000002,13.5,0.542304,-1.2320200000000001,13.3,-2.9568480000000004,-0.31742000000000004,13.3,-0.761808,-0.07801000000000001,13.3,-0.18722400000000003,0.0,13.200000000000001,0.0,-0.0,13.3,-0.0,-0.0,13.200000000000001,-0.0
12.713089328,0.22596000000000002,13.5,0.542304,-1.22933,13.4,-2.950392,-0.31742000000000004,13.3,-0.761808,-0.07801000000000001,13.3,-0.18722400000000003,0.0,13.200000000000001,0.0,-0.0,13.3,-0.0,-0.0,13.200000000000001,-0.0
12.746057274,0.22596000000000002,13.5,0.542304,-1.22933,13.4,-2.950392,-0.31742000000000004,13.3,-0.761808,-0.07263,13.3,-0.174312,0.0,13.200000000000001,0.0,-0.0,13.3,-0.0,-0.0,13.200000000000001,-0.0
12.779861449,0.22596000000000002,13.5,0.542304,-1.22933,13.4,-2.950392,-0.31742000000000004,13.3,-0.761808,-0.07263,13.3,-0.174312,0.0,13.200000000000001,0.0,-0.0,13.3,-0.0,-0.0,13.200000000000001,-0.0
12.812905711,0.22596000000000002,13.5,0.542304,-1.22933,13.5,-2.950392,-0.31742000000000004,13.3,-0.761808,-0.07263,13.3,-0.174312,0.0,13.200000000000001,0.0,-0.0,13.3,-0.0,-0.0,13.200000000000001,-0.0
12.846881047,0.22596000000000002,13.5,0.542304,-1.22933,13.3,-2.950392,-0.31473,13.3,-0.755352,-0.07263,13.3,-0.174312,-0.00269,13.200000000000001,-0.006456,-0.0,13.3,-0.0,-0.0,13.200000000000001,-0.0
12.880012503,0.22865000000000002,13.600000000000001,0.54876,-1.22933,13.4,-2.950392,-0.31742000000000004,13.3,-0.761808,-0.07263,13.3,-0.174312,0.0,13.200000000000001,0.0,-0.0,13.3,-0.0,-0.0,13.200000000000001,-0.0
12.912922945,0.22596000000000002,13.5,0.542304,-1.22664,13.4,-2.943936,-0.31742000000000004,13.3,-0.761808,-0.07263,13.3,-0.174312,0.0,13.200000000000001,0.0,-0.0,13.3,-0.0,-0.0,13.200000000000001,-0.0
12.946928182,0.22596000000000002,13.5,0.542304,-1.22664,13.5,-2.943936,-0.31742000000000004,13.3,-0.761808,-0.07263,13.3,-0.174312,0.0,13.200000000000001,0.0,-0.0,13.3,-0.0,-0.0,13.200000000000001,-0.0
12.979936804,0.22865000000000002,13.600000000000001,0.54876,-1.22933,13.4,-2.950392,-0.31742000000000004,13.3,-0.761808,-0.07263,13.3,-0.174312,0.0,13.200000000000001,0.0,-0.0,13.3,-0.0,-0.0,13.200000000000001,-0.0
13.012910581,0.22865000000000002,13.5,0.54876,-1.22664,13.4,-2.943936,-0.31473,13.200000000000001,-0.755352,-0.07263,13.3,-0.174312,0.0,13.200000000000001,0.0,-0.0,13.3,-0.0,-0.0,13.200000000000001,-0.0
13.046951147,0.22596000000000002,13.5,0.542304,-1.22933,13.3,-2.950392,-0.32280000000000003,13.3,-0.7747200000000001,-0.07263,13.3,-0.174312,0.0,13.200000000000001,0.0,-0.0,13.3,-0.0,-0.0,13.200000000000001,-0.0
13.079772357,0.22596000000000002,13.5,0.542304,-1.22933,13.4,-2.950392,-0.31473,13.3,-0.755352,-0.07263,13.3,-0.174312,0.0,13.200000000000001,0.0,-0.0,13.3,-0.0,-0.0,13.200000000000001,-0.0
13.112908285,0.22596000000000002,13.600000000000001,0.542304,-1.22933,13.4,-2.950392,-0.32549,13.3,-0.781176,-0.07801000000000001,13.3,-0.18722400000000003,0.0,13.200000000000001,0.0,-0.0,13.3,-0.0,-0.0,13.200000000000001,-0.0
13.146910404,0.22865000000000002,13.5,0.54876,-1.22933,13.4,-2.950392,-0.31473,13.3,-0.755352,-0.07801000000000001,13.3,-0.18722400000000003,0.0,13.200000000000001,0.0,-0.0,13.3,-0.0,-0.0,13.200000000000001,-0.0
13.179893206,0.22596000000000002,13.5,0.542304,-1.22933,13.3,-2.950392,-0.31742000000000004,13.3,-0.761808,-0.07801000000000001,13.3,-0.18722400000000003,0.0,13.200000000000001,0.0,-0.0,13.3,-0.0,-0.0,13.200000000000001,-0.0
13.212834125,0.22596000000000002,13.5,0.542304,-1.2185700000000002,13.4,-2.9245680000000003,-0.31742000000000004,13.3,-0.761808,-0.07801000000000001,13.3,-0.18722400000000003,0.0,13.200000000000001,0.0,-0.0,13.3,-0.0,-0.0,13.200000000000001,-0.0
13.246973732,0.22596000000000002,13.5,0.542304,-1.22664,13.4,-2.943936,-0.33356,13.3,-0.800544,-0.07801000000000001,13.3,-0.18722400000000003,0.0,13.200000000000001,0.0,-0.0,13.3,-0.0,-0.0,13.200000000000001,-0.0
13.27977707,0.22596000000000002,13.5,0.542304,-1.22664,13.5,-2.943936,-0.31473,13.3,-0.755352,-0.07801000000000001,13.3,-0.18722400000000003,0.0,13.200000000000001,0.0,-0.0,13.3,-0.0,-0.0,13.200000000000001,-0.0
13.312720717,0.22596000000000002,13.5,0.542304,-1.22664,13.5,-2.943936,-0.32549,13.4,-0.781176,-0.07801000000000001,13.3,-0.18722400000000003,0.0,13.200000000000001,0.0,-0.00269,13.3,-0.006456,-0.0,13.200000000000001,-0.0
13.346714462,0.22596000000000002,13.5,0.542304,-1.22664,13.3,-2.943936,-0.32011,13.3,-0.768264,-0.07801000000000001,13.3,-0.18722400000000003,0.0,13.200000000000001,0.0,-0.0,13.3,-0.0,-0.0,13.200000000000001,-0.0
13.379749405,0.22596000000000002,13.5,0.542304,-1.22664,13.600000000000001,-2.943936,-0.31742000000000004,13.3,-0.761808,-0.07801000000000001,13.3,-0.18722400000000003,0.0,13.200000000000001,0.0,-0.0,13.3,-0.0,-0.0,13.200000000000001,-0.0
13.412634404,0.22596000000000002,13.5,0.542304,-1.22664,13.5,-2.943936,-0.31742000000000004,13.3,-0.761808,-0.07801000000000001,13.3,-0.18722400000000003,0.0,13.200000000000001,0.0,-0.0,13.3,-0.0,-0.0,13.200000000000001,-0.0
13.44680566,0.22596000000000002,13.5,0.542304,-1.22664,13.4,-2.943936,-0.31742000000000004,13.3,-0.761808,-0.07263,13.3,-0.174312,0.0,13.200000000000001,0.0,-0.0,13.3,-0.0,-0.0,13.200000000000001,-0.0
13.479699601,0.22596000000000002,13.5,0.542304,-1.22933,13.5,-2.950392,-0.32011,13.3,-0.768264,-0.07263,13.3,-0.174312,0.0,13.200000000000001,0.0,-0.0,13.3,-0.0,-0.0,13.200000000000001,-0.0
13.512677033,0.22596000000000002,13.5,0.542304,-1.22664,13.4,-2.943936,-0.32549,13.200000000000001,-0.781176,-0.07263,13.3,-0.174312,0.0,13.200000000000001,0.0,-0.0,13.3,-0.0,-0.0,13.200000000000001,-0.0
13.546904402,0.22596000000000002,13.5,0.542304,-1.22664,13.3,-2.943936,-0.31742000000000004,13.3,-0.761808,-0.07263,13.3,-0.174312,0.0,13.200000000000001,0.0,-0.0,13.3,-0.0,-0.0,13.200000000000001,-0.0
13.579618064,0.22596000000000002,13.5,0.542304,-1.22664,13.4,-2.943936,-0.32280000000000003,13.3,-0.7747200000000001,-0.07263,13.3,-0.174312,0.0,13.200000000000001,0.0,-0.0,13.3,-0.0,-0.0,13.200000000000001,-0.0
13.612714784,0.22596000000000002,13.5,0.542304,-1.22664,13.3,-2.943936,-0.31742000000000004,13.3,-0.761808,-0.07263,13.3,-0.174312,0.0,13.200000000000001,0.0,-0.0,13.3,-0.0,-0.0,13.200000000000001,-0.0
13.646718174,0.22596000000000002,13.5,0.542304,-1.22664,13.4,-2.943936,-0.32011,13.3,-0.768264,-0.07801000000000001,13.3,-0.18722400000000003,0.0,13.200000000000001,0.0,-0.0,13.3,-0.0,-0.0,13.200000000000001,-0.0
13.679936982,0.22596000000000002,13.5,0.542304,-1.22664,13.3,-2.943936,-0.32549,13.3,-0.781176,-0.07801000000000001,13.3,-0.18722400000000003,0.0,13.200000000000001,0.0,-0.0,13.3,-0.0,-0.0,13.200000000000001,-0.0
13.712668627,0.22596000000000002,13.5,0.542304,-1.22664,13.4,-2.943936,-0.32818,13.3,-0.787632,-0.07801000000000001,13.3,-0.18722400000000003,0.0,13.200000000000001,0.0,-0.0,13.3,-0.0,-0.0,13.200000000000001,-0.0
13.746816634,0.22596000000000002,13.5,0.542304,-1.22664,13.3,-2.943936,-0.31742000000000004,13.3,-0.761808,-0.06456,13.3,-0.154944,0.0,13.200000000000001,0.0,-0.0,13.3,-0.0,-0.0,13.200000000000001,-0.0
13.779722987,0.23403000000000002,13.5,0.5616720000000001,-1.22395,13.5,-2.9374800000000003,-0.31742000000000004,13.3,-0.761808,-0.07263,13.3,-0.174312,0.0,13.200000000000001,0.0,-0.0,13.3,-0.0,-0.0,13.200000000000001,-0.0
13.812757149,0.22596000000000002,13.5,0.542304,-1.22664,13.5,-2.943936,-0.32011,13.200000000000001,-0.768264,-0.07263,13.3,-0.174312,0.0,13.200000000000001,0.0,-0.0,13.3,-0.0,-0.0,13.200000000000001,-0.0
13.846697128,0.22596000000000002,13.5,0.542304,-1.2185700000000002,13.4,-2.9245680000000003,-0.31742000000000004,13.3,-0.761808,-0.07263,13.3,-0.174312,0.0,13.200000000000001,0.0,-0.0,13.3,-0.0,-0.0,13.200000000000001,-0.0
13.879582972,0.22596000000000002,13.5,0.542304,-1.22664,13.4,-2.943936,-0.31742000000000004,13.3,-0.761808,-0.07263,13.3,-0.174312,0.0,13.200000000000001,0.0,-0.0,13.3,-0.0,-0.0,13.200000000000001,-0.0
13.91269678,0.22596000000000002,13.5,0.542304,-1.22664,13.5,-2.943936,-0.31742000000000004,13.3,-0.761808,-0.07263,13.3,-0.174312,0.0,13.200000000000001,0.0,-0.0,13.3,-0.0,-0.0,13.200000000000001,-0.0
13.946804334,0.22596000000000002,13.5,0.542304,-1.22664,13.5,-2.943936,-0.31742000000000004,13.200000000000001,-0.761808,-0.07263,13.3,-0.174312,0.0,13.200000000000001,0.0,-0.0,13.200000000000001,-0.0,-0.0,13.200000000000001,-0.0
13.979480415,0.22596000000000002,13.5,0.542304,-1.22664,13.4,-2.943936,-0.31742000000000004,13.3,-0.761808,-0.07263,13.200000000000001,-0.174312,0.0,13.200000000000001,0.0,-0.0,13.200000000000001,-0.0,-0.0,13.200000000000001,-0.0
14.012494859,0.22596000000000002,13.5,0.542304,-1.22664,13.3,-2.943936,-0.32549,13.3,-0.781176,-0.07263,13.3,-0.174312,0.0,13.200000000000001,0.0,-0.0,13.3,-0.0,-0.0,13.200000000000001,-0.0
14.046679625,0.22596000000000002,13.5,0.542304,-1.22395,13.5,-2.9374800000000003,-0.31742000000000004,13.3,-0.761808,-0.07263,13.3,-0.174312,0.0,13.200000000000001,0.0,-0.0,13.3,-0.0,-0.0,13.200000000000001,-0.0
14.079697772,0.22596000000000002,13.5,0.542304,-1.22664,13.4,-2.943936,-0.31742000000000004,13.3,-0.761808,-0.07263,13.3,-0.174312,0.0,13.200000000000001,0.0,-0.0,13.3,-0.0,-0.0,13.200000000000001,-0.0
14.112603897,0.22596000000000002,13.5,0.542304,-1.22664,13.4,-2.943936,-0.31742000000000004,13.3,-0.761808,-0.07263,13.3,-0.174312,0.0,13.200000000000001,0.0,-0.0,13.3,-0.0,-0.0,13.200000000000001,-0.0
14.146616411,0.22596000000000002,13.5,0.542304,-1.22395,13.4,-2.9374800000000003,-0.31742000000000004,13.3,-0.761808,-0.07263,13.3,-0.174312,0.0,13.200000000000001,0.0,-0.0,13.3,-0.0,-0.0,13.200000000000001,-0.0
14.17952695,0.22596000000000002,13.5,0.542304,-1.22395,13.3,-2.9374800000000003,-0.32818,13.3,-0.787632,-0.07263,13.3,-0.174312,0.0,13.200000000000001,0.0,-0.0,13.3,-0.0,-0.0,13.200000000000001,-0.0
14.212409627,0.22596000000000002,13.5,0.542304,-1.22664,13.4,-2.943936,-0.31742000000000004,13.3,-0.761808,-0.07801000000000001,13.3,-0.18722400000000003,0.0,13.200000000000001,0.0,-0.0,13.3,-0.0,-0.0,13.200000000000001,-0.0
14.246400511,0.22596000000000002,13.5,0.542304,-1.22664,13.5,-2.943936,-0.32280000000000003,13.3,-0.7747200000000001,-0.07801000000000001,13.3,-0.18722400000000003,0.0,13.200000000000001,0.0,-0.0,13.3,-0.0,-0.0,13.200000000000001,-0.0
14.279399914,0.22596000000000002,13.5,0.542304,-1.22664,13.4,-2.943936,-0.32818,13.3,-0.787632,-0.07801000000000001,13.3,-0.18722400000000003,0.0,13.200000000000001,0.0,-0.0,13.3,-0.0,-0.0,13.200000000000001,-0.0
14.312583405,0.22596000000000002,13.5,0.542304,-1.22664,13.3,-2.943936,-0.32280000000000003,13.3,-0.7747200000000001,-0.07801000000000001,13.3,-0.18722400000000003,0.0,13.200000000000001,0.0,-0.0,13.3,-0.0,-0.0,13.200000000000001,-0.0
14.346664401,0.22596000000000002,13.5,0.542304,-1.22664,13.4,-2.943936,-0.32011,13.3,-0.768264,-0.07801000000000001,13.3,-0.18722400000000003,0.0,13.200000000000001,0.0,-0.0,13.3,-0.0,-0.0,13.200000000000001,-0.0
14.379350547,0.22596000000000002,13.600000000000001,0.542304,-1.22664,13.3,-2.943936,-0.31742000000000004,13.200000000000001,-0.761808,-0.07801000000000001,13.3,-0.18722400000000003,0.0,13.200000000000001,0.0,-0.0,13.3,-0.0,-0.0,13.200000000000001,-0.0
14.412423163,0.22596000000000002,13.5,0.542304,-1.22664,13.4,-2.943936,-0.31473,13.3,-0.755352,-0.07801000000000001,13.3,-0.18722400000000003,0.0,13.200000000000001,0.0,-0.0,13.3,-0.0,-0.0,13.200000000000001,-0.0
14.446609987,0.22596000000000002,13.5,0.542304,-1.22664,13.4,-2.943936,-0.32280000000000003,13.200000000000001,-0.7747200000000001,-0.07801000000000001,13.3,-0.18722400000000003,0.0,13.200000000000001,0.0,-0.0,13.3,-0.0,-0.0,13.200000000000001,-0.0
14.479272487,0.22865000000000002,13.5,0.54876,-1.22664,13.3,-2.943936,-0.32280000000000003,13.3,-0.7747200000000001,-0.07801000000000001,13.3,-0.18722400000000003,0.0,13.200000000000001,0.0,-0.0,13.3,-0.0,-0.0,13.200000000000001,-0.0
14.512555701,0.22596000000000002,13.5,0.542304,-1.22395,13.5,-2.9374800000000003,-0.31473,13.3,-0.755352,-0.07801000000000001,13.3,-0.18722400000000003,0.0,13.200000000000001,0.0,-0.0,13.3,-0.0,-0.0,13.200000000000001,-0.0
14.54653453,0.22596000000000002,13.5,0.542304,-1.22395,13.4,-2.9374800000000003,-0.32549,13.3,-0.781176,-0.07801000000000001,13.3,-0.18722400000000003,0.0,13.200000000000001,0.0,-0.0,13.3,-0.0,-0.0,13.200000000000001,-0.0
14.579460366,0.22596000000000002,13.5,0.542304,-1.22395,13.5,-2.9374800000000003,-0.31473,13.3,-0.755352,-0.06994,13.3,-0.167856,0.0,13.200000000000001,0.0,-0.0,13.3,-0.0,-0.0,13.200000000000001,-0.0
14.612309928,0.22596000000000002,13.5,0.542304,-1.22395,13.3,-2.9374800000000003,-0.32011,13.3,-0.768264,-0.07263,13.3,-0.174312,0.0,13.200000000000001,0.0,-0.0,13.3,-0.0,-0.0,13.200000000000001,-0.0
14.646368943,0.22596000000000002,13.5,0.542304,-1.22395,13.4,-2.9374800000000003,-0.31742000000000004,13.3,-0.761808,-0.07801000000000001,13.3,-0.18722400000000003,0.0,13.200000000000001,0.0,-0.0,13.3,-0.0,-0.0,13.200000000000001,-0.0
14.679310118,0.22596000000000002,13.5,0.542304,-1.22395,13.5,-2.9374800000000003,-0.31742000000000004,13.200000000000001,-0.761808,-0.07801000000000001,13.3,-0.18722400000000003,0.0,13.200000000000001,0.0,-0.00269,13.3,-0.006456,-0.0,13.200000000000001,-0.0
14.712323406,0.22596000000000002,13.5,0.542304,-1.22664,13.4,-2.943936,-0.31742000000000004,13.3,-0.761808,-0.07263,13.3,-0.174312,0.0,13.200000000000001,0.0,-0.0,13.3,-0.0,-0.0,13.200000000000001,-0.0
14.746665854,0.22596000000000002,13.5,0.542304,-1.22395,13.3,-2.9374800000000003,-0.31742000000000004,13.3,-0.761808,-0.07263,13.3,-0.174312,0.0,13.200000000000001,0.0,-0.0,13.3,-0.0,-0.0,13.200000000000001,-0.0
14.779240902,0.22596000000000002,13.600000000000001,0.542304,-1.22395,13.5,-2.9374800000000003,-0.32011,13.3,-0.768264,-0.07263,13.3,-0.174312,0.0,13.200000000000001,0.0,-0.0,13.3,-0.0,-0.0,13.200000000000001,-0.0
14.812487895,0.22596000000000002,13.5,0.542304,-1.22126,13.3,-2.931024,-0.31742000000000004,13.3,-0.761808,-0.07263,13.3,-0.174312,0.0,13.200000000000001,0.0,-0.0,13.3,-0.0,-0.0,13.200000000000001,-0.0
14.846351223,0.22596000000000002,13.5,0.542304,-1.22395,13.4,-2.9374800000000003,-0.31742000000000004,13.3,-0.761808,-0.07263,13.3,-0.174312,0.0,13.200000000000001,0.0,-0.0,13.3,-0.0,-0.0,13.200000000000001,-0.0
14.879500496,0.22596000000000002,13.5,0.542304,-1.2320200000000001,13.4,-2.9568480000000004,-0.32011,13.200000000000001,-0.768264,-0.07263,13.3,-0.174312,0.0,13.200000000000001,0.0,-0.00269,13.3,-0.006456,-0.0,13.200000000000001,-0.0
14.912806387,0.22865000000000002,13.5,0.54876,-1.22664,13.4,-2.943936,-0.32280000000000003,13.3,-0.7747200000000001,-0.07801000000000001,13.3,-0.18722400000000003,0.0,13.200000000000001,0.0,-0.0,13.3,-0.0,-0.0,13.200000000000001,-0.0
14.946213178,0.22865000000000002,13.5,0.54876,-1.22664,13.4,-2.943936,-0.31742000000000004,13.200000000000001,-0.761808,-0.07801000000000001,13.3,-0.18722400000000003,0.0,13.200000000000001,0.0,-0.0,13.3,-0.0,-0.0,13.200000000000001,-0.0
14.9791845,0.22865000000000002,13.5,0.54876,-1.22664,13.4,-2.943936,-0.31742000000000004,13.3,-0.761808,-0.07801000000000001,13.3,-0.18722400000000003,0.0,13.200000000000001,0.0,-0.0,13.3,-0.0,-0.0,13.200000000000001,-0.0
15.013148855,0.22596000000000002,13.600000000000001,0.542304,-1.22664,13.5,-2.943936,-0.32818,13.3,-0.787632,-0.07801000000000001,13.200000000000001,-0.18722400000000003,0.0,13.200000000000001,0.0,-0.0,13.3,-0.0,-0.0,13.200000000000001,-0.0
15.046284839,0.22596000000000002,13.5,0.542304,-1.22664,13.5,-2.943936,-0.32280000000000003,13.3,-0.7747200000000001,-0.07801000000000001,13.3,-0.18722400000000003,0.0,13.200000000000001,0.0,-0.0,13.3,-0.0,-0.0,13.200000000000001,-0.0
15.079132344,0.22596000000000002,13.5,0.542304,-1.22664,13.4,-2.943936,-0.31742000000000004,13.3,-0.761808,-0.07801000000000001,13.3,-0.18722400000000003,0.0,13.200000000000001,0.0,-0.0,13.3,-0.0,-0.0,13.200000000000001,-0.0
15.11320197,0.22596000000000002,13.5,0.542304,-1.22664,13.3,-2.943936,-0.31742000000000004,13.3,-0.761808,-0.07801000000000001,13.3,-0.18722400000000003,0.0,13.200000000000001,0.0,-0.0,13.3,-0.0,-0.0,13.200000000000001,-0.0
15.146178831,0.22596000000000002,13.5,0.542304,-1.22395,13.5,-2.9374800000000003,-0.32549,13.3,-0.781176,-0.07801000000000001,13.3,-0.18722400000000003,0.0,13.200000000000001,0.0,-0.0,13.3,-0.0,-0.0,13.200000000000001,-0.0
15.179196612,0.22596000000000002,13.5,0.542304,-1.22664,13.4,-2.943936,-0.31742000000000004,13.3,-0.761808,-0.07801000000000001,13.3,-0.18722400000000003,0.0,13.200000000000001,0.0,-0.0,13.3,-0.0,-0.0,13.200000000000001,-0.0
15.213146605,0.22865000000000002,13.600000000000001,0.54876,-1.22126,13.4,-2.931024,-0.32280000000000003,13.3,-0.7747200000000001,-0.07801000000000001,13.3,-0.18722400000000003,0.0,13.200000000000001,0.0,-0.0,13.3,-0.0,-0.0,13.200000000000001,-0.0
15.246360976,0.22596000000000002,13.5,0.542304,-1.22395,13.3,-2.9374800000000003,-0.31742000000000004,13.3,-0.761808,-0.07801000000000001,13.3,-0.18722400000000003,0.0,13.200000000000001,0.0,-0.0,13.3,-0.0,-0.0,13.200000000000001,-0.0
15.279202504,0.22596000000000002,13.5,0.542304,-1.22395,13.4,-2.9374800000000003,-0.31742000000000004,13.3,-0.761808,-0.07801000000000001,13.3,-0.18722400000000003,0.0,13.200000000000001,0.0,-0.0,13.3,-0.0,-0.0,13.200000000000001,-0.0
15.313174209,0.22865000000000002,13.5,0.54876,-1.22395,13.3,-2.9374800000000003,-0.31742000000000004,13.3,-0.761808,-0.07801000000000001,13.3,-0.18722400000000003,0.0,13.200000000000001,0.0,-0.00269,13.3,-0.006456,-0.0,13.200000000000001,-0.0
15.346180233,0.22596000000000002,13.5,0.542304,-1.22395,13.4,-2.9374800000000003,-0.32011,13.3,-0.768264,-0.07801000000000001,13.3,-0.18722400000000003,0.0,13.200000000000001,0.0,-0.0,13.3,-0.0,-0.0,13.200000000000001,-0.0
15.37907586,0.22596000000000002,13.5,0.542304,-1.22395,13.4,-2.9374800000000003,-0.31742000000000004,13.3,-0.761808,-0.07263,13.3,-0.174312,0.0,13.200000000000001,0.0,-0.0,13.3,-0.0,-0.0,13.200000000000001,-0.0
15.413160668,0.22596000000000002,13.5,0.542304,-1.2185700000000002,13.4,-2.9245680000000003,-0.31742000000000004,13.3,-0.761808,-0.07263,13.3,-0.174312,0.0,13.200000000000001,0.0,-0.0,13.3,-0.0,-0.0,13.200000000000001,-0.0
15.446106684,0.22596000000000002,13.5,0.542304,-1.22126,13.5,-2.931024,-0.31742000000000004,13.3,-0.761808,-0.07263,13.3,-0.174312,0.0,13.200000000000001,0.0,-0.0,13.3,-0.0,-0.0,13.200000000000001,-0.0
15.479073952,0.22596000000000002,13.5,0.542304,-1.22395,13.4,-2.9374800000000003,-0.31742000000000004,13.3,-0.761808,-0.07263,13.3,-0.174312,0.0,13.200000000000001,0.0,-0.0,13.3,-0.0,-0.0,13.200000000000001,-0.0
15.513133954,0.22596000000000002,13.5,0.542304,-1.22395,13.5,-2.9374800000000003,-0.31742000000000004,13.200000000000001,-0.761808,-0.07263,13.3,-0.174312,0.0,13.200000000000001,0.0,-0.0,13.3,-0.0,-0.0,13.200000000000001,-0.0
15.546090021,0.22596000000000002,13.5,0.542304,-1.22395,13.4,-2.9374800000000003,-0.31742000000000004,13.3,-0.761808,-0.07532,13.3,-0.18076799999999998,0.0,13.200000000000001,0.0,-0.0,13.3,-0.0,-0.0,13.200000000000001,-0.0
15.579045491,0.22596000000000002,13.5,0.542304,-1.22664,13.5,-2.943936,-0.31742000000000004,13.3,-0.761808,-0.07801000000000001,13.3,-0.18722400000000003,0.0,13.200000000000001,0.0,-0.0,13.200000000000001,-0.0,-0.0,13.200000000000001,-0.0
15.613079495,0.22596000000000002,13.600000000000001,0.542304,-1.22395,13.4,-2.9374800000000003,-0.32280000000000003,13.3,-0.7747200000000001,-0.07801000000000001,13.3,-0.18722400000000003,0.0,13.200000000000001,0.0,-0.0,13.200000000000001,-0.0,-0.0,13.200000000000001,-0.0
15.645906343,0.22596000000000002,13.5,0.542304,-1.22126,13.4,-2.931024,-0.31742000000000004,13.4,-0.761808,-0.07801000000000001,13.3,-0.18722400000000003,0.0,13.200000000000001,0.0,-0.0,13.200000000000001,-0.0,-0.0,13.200000000000001,-0.0
15.679036346,0.22596000000000002,13.5,0.542304,-1.22126,13.5,-2.931024,-0.32818,13.3,-0.787632,-0.07532,13.3,-0.18076799999999998,0.0,13.200000000000001,0.0,-0.0,13.200000000000001,-0.0,-0.0,13.200000000000001,-0.0
15.71305215,0.22596000000000002,13.5,0.542304,-1.22126,13.4,-2.931024,-0.32280000000000003,13.3,-0.7747200000000001,-0.07532,13.3,-0.18076799999999998,0.0,13.200000000000001,0.0,-0.0,13.200000000000001,-0.0,-0.0,13.200000000000001,-0.0
15.746031361,0.22596000000000002,13.5,0.542304,-1.22126,13.3,-2.931024,-0.31742000000000004,13.3,-0.761808,-0.07532,13.3,-0.18076799999999998,0.0,13.200000000000001,0.0,-0.0,13.200000000000001,-0.0,-0.0,13.200000000000001,-0.0
15.778867489,0.22596000000000002,13.5,0.542304,-1.22395,13.4,-2.9374800000000003,-0.31742000000000004,13.3,-0.761808,-0.07532,13.3,-0.18076799999999998,0.0,13.200000000000001,0.0,-0.0,13.200000000000001,-0.0,-0.0,13.200000000000001,-0.0
15.813084067,0.22596000000000002,13.5,0.542304,-1.22126,13.4,-2.931024,-0.31742000000000004,13.3,-0.761808,-0.07532,13.3,-0.18076799999999998,-0.00269,13.200000000000001,-0.006456,-0.0,13.3,-0.0,-0.0,13.200000000000001,-0.0
15.845790766,0.22596000000000002,13.600000000000001,0.542304,-1.22126,13.4,-2.931024,-0.32280000000000003,13.3,-0.7747200000000001,-0.07532,13.3,-0.18076799999999998,0.0,13.200000000000001,0.0,-0.0,13.3,-0.0,-0.0,13.200000000000001,-0.0
15.878913591,0.22596000000000002,13.5,0.542304,-1.22126,13.4,-2.931024,-0.31742000000000004,13.200000000000001,-0.761808,-0.07532,13.3,-0.18076799999999998,0.0,13.200000000000001,0.0,-0.0,13.3,-0.0,-0.0,13.200000000000001,-0.0
15.91295003,0.22596000000000002,13.600000000000001,0.542304,-1.2185700000000002,13.4,-2.9245680000000003,-0.31742000000000004,13.3,-0.761808,-0.07532,13.3,-0.18076799999999998,0.0,13.200000000000001,0.0,-0.0,13.3,-0.0,-0.0,13.200000000000001,-0.0
15.946017945,0.22596000000000002,13.5,0.542304,-1.22126,13.4,-2.931024,-0.31742000000000004,13.200000000000001,-0.761808,-0.07532,13.3,-0.18076799999999998,0.0,13.200000000000001,0.0,-0.0,13.3,-0.0,-0.0,13.200000000000001,-0.0
15.978996438,0.22596000000000002,13.5,0.542304,-1.22126,13.4,-2.931024,-0.32011,13.3,-0.768264,-0.07532,13.3,-0.18076799999999998,0.0,13.200000000000001,0.0,-0.0,13.3,-0.0,-0.0,13.200000000000001,-0.0
16.012792589,0.23403000000000002,13.5,0.5616720000000001,-1.22126,13.4,-2.931024,-0.31742000000000004,13.3,-0.761808,-0.07532,13.3,-0.18076799999999998,0.0,13.200000000000001,0.0,-0.0,13.3,-0.0,-0.0,13.200000000000001,-0.0
16.045810673,0.22596000000000002,13.4,0.542304,-1.22126,13.3,-2.931024,-0.31742000000000004,13.3,-0.761808,-0.07532,13.3,-0.18076799999999998,0.0,13.200000000000001,0.0,-0.0,13.3,-0.0,-0.0,13.200000000000001,-0.0
16.078964468,0.22596000000000002,13.5,0.542304,-1.23471,13.5,-2.963304,-0.31742000000000004,13.3,-0.761808,-0.07532,13.3,-0.18076799999999998,0.0,13.200000000000001,0.0,-0.0,13.3,-0.0,-0.0,13.200000000000001,-0.0
16.112805199,0.22596000000000002,13.5,0.542304,-1.22395,13.3,-2.9374800000000003,-0.32011,13.3,-0.768264,-0.07532,13.3,-0.18076799999999998,0.0,13.200000000000001,0.0,-0.0,13.3,-0.0,-0.0,13.200000000000001,-0.0
16.145826569,0.22596000000000002,13.5,0.542304,-1.22126,13.5,-2.931024,-0.31742000000000004,13.3,-0.761808,-0.07532,13.3,-0.18076799999999998,0.0,13.200000000000001,0.0,-0.0,13.3,-0.0,-0.0,13.200000000000001,-0.0
16.178637735,0.22596000000000002,13.5,0.542304,-1.22126,13.3,-2.931024,-0.32280000000000003,13.200000000000001,-0.7747200000000001,-0.07801000000000001,13.3,-0.18722400000000003,0.0,13.200000000000001,0.0,-0.0,13.3,-0.0,-0.0,13.200000000000001,-0.0
16.212643201,0.23403000000000002,13.5,0.5616720000000001,-1.22126,13.5,-2.931024,-0.31742000000000004,13.3,-0.761808,-0.07801000000000001,13.3,-0.18722400000000003,0.0,13.200000000000001,0.0,-0.0,13.3,-0.0,-0.0,13.200000000000001,-0.0
16.245786196,0.23403000000000002,13.5,0.5616720000000001,-1.22126,13.600000000000001,-2.931024,-0.31742000000000004,13.3,-0.761808,-0.07801000000000001,13.3,-0.18722400000000003,0.0,13.200000000000001,0.0,-0.0,13.3,-0.0,-0.0,13.200000000000001,-0.0
16.278614243,0.22596000000000002,13.5,0.542304,-1.22126,13.4,-2.931024,-0.31742000000000004,13.200000000000001,-0.761808,-0.07801000000000001,13.3,-0.18722400000000003,0.0,13.200000000000001,0.0,-0.0,13.3,-0.0,-0.0,13.200000000000001,-0.0
16.312662454,0.22596000000000002,13.5,0.542304,-1.22395,13.3,-2.9374800000000003,-0.31742000000000004,13.3,-0.761808,-0.07801000000000001,13.3,-0.18722400000000003,0.0,13.200000000000001,0.0,-0.0,13.3,-0.0,-0.0,13.200000000000001,-0.0
