RoboFEI-Work/manip_ws/pick_telemetry/pick_telemetry_20260626_145652.csv
time,manip_joint1/current,manip_joint1/voltage,manip_joint1/effort,manip_joint2/current,manip_joint2/voltage,manip_joint2/effort,manip_joint3/current,manip_joint3/voltage,manip_joint3/effort,manip_joint4/current,manip_joint4/voltage,manip_joint4/effort,manip_joint5/current,manip_joint5/voltage,manip_joint5/effort,manip_joint6/current,manip_joint6/voltage,manip_joint6/effort,manip_joint7/current,manip_joint7/voltage,manip_joint7/effort
0.027454379,-0.08608,13.700000000000001,-0.206592,-0.41695000000000004,13.600000000000001,-1.00068,-0.71285,13.5,-1.71084,-0.05918,13.4,-0.142032,0.0,13.4,0.0,-0.0,13.4,-0.0,0.00269,13.4,0.006456
0.060331334,-0.08608,13.700000000000001,-0.206592,-0.42233000000000004,13.600000000000001,-1.013592,-0.71285,13.4,-1.71084,-0.04304,13.4,-0.103296,0.0,13.4,0.0,-0.0,13.4,-0.0,0.00269,13.4,0.006456
0.093388442,-0.08608,13.700000000000001,-0.206592,-0.41964,13.5,-1.007136,-0.71285,13.4,-1.71084,-0.03497,13.4,-0.083928,0.0,13.4,0.0,-0.0,13.4,-0.0,0.00269,13.4,0.006456
0.127392499,-0.09146,13.700000000000001,-0.219504,-0.41964,13.600000000000001,-1.007136,-0.71285,13.5,-1.71084,-0.048420000000000005,13.4,-0.116208,0.0,13.4,0.0,-0.0,13.4,-0.0,0.00269,13.4,0.006456
0.160385159,-0.08877,13.700000000000001,-0.213048,-0.41964,13.600000000000001,-1.007136,-0.71285,13.5,-1.71084,-0.06187,13.4,-0.148488,0.0,13.4,0.0,-0.0,13.4,-0.0,0.00269,13.4,0.006456
0.194536598,-0.08877,13.700000000000001,-0.213048,-0.41964,13.600000000000001,-1.007136,-0.71285,13.5,-1.71084,-0.056490000000000005,13.4,-0.135576,0.0,13.4,0.0,-0.0,13.4,-0.0,0.00269,13.4,0.006456
0.227331041,-0.08877,13.700000000000001,-0.213048,-0.41964,13.600000000000001,-1.007136,-0.71285,13.5,-1.71084,-0.04573,13.4,-0.109752,0.0,13.4,0.0,-0.0,13.4,-0.0,0.00269,13.4,0.006456
0.260376081,-0.08339,13.700000000000001,-0.200136,-0.41964,13.600000000000001,-1.007136,-0.71285,13.5,-1.71084,-0.03766,13.4,-0.09038399999999999,0.0,13.4,0.0,-0.0,13.4,-0.0,0.00269,13.4,0.006456
0.294329361,-0.08608,13.700000000000001,-0.206592,-0.41964,13.5,-1.007136,-0.71285,13.5,-1.71084,-0.05111,13.4,-0.122664,0.0,13.4,0.0,-0.0,13.4,-0.0,0.00269,13.4,0.006456
0.327336124,-0.08608,13.700000000000001,-0.206592,-0.41964,13.600000000000001,-1.007136,-0.71285,13.5,-1.71084,-0.040350000000000004,13.4,-0.09684000000000001,0.0,13.4,0.0,-0.0,13.4,-0.0,0.00269,13.4,0.006456
0.360212211,-0.08608,13.700000000000001,-0.206592,-0.41426,13.600000000000001,-0.994224,-0.71285,13.5,-1.71084,-0.03766,13.4,-0.09038399999999999,0.0,13.4,0.0,-0.0,13.4,-0.0,0.00269,13.4,0.006456
0.394432562,-0.08608,13.700000000000001,-0.206592,-0.41695000000000004,13.5,-1.00068,-0.71285,13.4,-1.71084,-0.05918,13.4,-0.142032,0.0,13.4,0.0,-0.0,13.4,-0.0,0.00269,13.4,0.006456
0.427227805,-0.08608,13.700000000000001,-0.206592,-0.41695000000000004,13.5,-1.00068,-0.71285,13.4,-1.71084,-0.048420000000000005,13.4,-0.116208,0.0,13.4,0.0,-0.0,13.4,-0.0,0.00269,13.4,0.006456
0.46032963,-0.08608,13.700000000000001,-0.206592,-0.41695000000000004,13.600000000000001,-1.00068,-0.71285,13.4,-1.71084,-0.05111,13.4,-0.122664,0.0,13.4,0.0,-0.0,13.4,-0.0,0.00269,13.4,0.006456
0.494306369,-0.08608,13.700000000000001,-0.206592,-0.41695000000000004,13.600000000000001,-1.00068,-0.71285,13.5,-1.71084,-0.04573,13.4,-0.109752,0.0,13.4,0.0,-0.0,13.4,-0.0,0.00269,13.4,0.006456
0.527157222,-0.03766,13.700000000000001,-0.09038399999999999,-0.25555,13.700000000000001,-0.61332,-0.25824,13.600000000000001,-0.619776,-0.056490000000000005,13.600000000000001,-0.135576,0.0,13.5,0.0,-0.0,13.5,-0.0,0.00269,13.5,0.006456
0.560165996,-0.03497,13.700000000000001,-0.083928,-0.31473,13.700000000000001,-0.755352,-0.30666,13.600000000000001,-0.735984,-0.0538,13.600000000000001,-0.12911999999999998,0.0,13.5,0.0,-0.0,13.5,-0.0,0.00269,13.5,0.006456
0.594213815,-0.03497,13.700000000000001,-0.083928,-0.35239000000000004,13.600000000000001,-0.845736,-0.33625,13.5,-0.8069999999999999,-0.04573,13.600000000000001,-0.109752,0.0,13.5,0.0,-0.0,13.5,-0.0,0.00269,13.5,0.006456
0.62714136,-0.03497,13.700000000000001,-0.083928,-0.47613,13.600000000000001,-1.142712,-0.45192000000000004,13.5,-1.084608,-0.040350000000000004,13.5,-0.09684000000000001,0.0,13.5,0.0,-0.0,13.5,-0.0,0.00269,13.5,0.006456
0.66008662,-0.03228,13.700000000000001,-0.077472,-0.58373,13.600000000000001,-1.400952,-0.59718,13.5,-1.433232,-0.040350000000000004,13.5,-0.09684000000000001,0.0,13.4,0.0,-0.0,13.5,-0.0,-0.0,13.5,-0.0
0.693993998,-0.02959,13.600000000000001,-0.071016,-0.6240800000000001,13.5,-1.4977920000000002,-0.65905,13.5,-1.58172,-0.03228,13.4,-0.077472,0.0,13.4,0.0,-0.0,13.5,-0.0,-0.0,13.4,-0.0
0.72711915,-0.06456,13.600000000000001,-0.154944,-0.61332,13.600000000000001,-1.471968,-0.68864,13.3,-1.652736,-0.048420000000000005,13.4,-0.116208,0.0,13.4,0.0,-0.0,13.4,-0.0,0.00538,13.4,0.012912
0.75988314,-0.06994,13.600000000000001,-0.167856,-0.61063,13.5,-1.465512,-0.63753,13.4,-1.530072,-0.05111,13.4,-0.122664,0.0,13.4,0.0,-0.0,13.4,-0.0,0.00538,13.4,0.012912
0.794054333,-0.06994,13.600000000000001,-0.167856,-0.6644300000000001,13.5,-1.594632,-0.65098,13.4,-1.562352,-0.04304,13.4,-0.103296,0.0,13.4,0.0,-0.0,13.4,-0.0,0.00538,13.4,0.012912
0.827249279,-0.07532,13.600000000000001,-0.18076799999999998,-0.66981,13.600000000000001,-1.607544,-0.70209,13.5,-1.6850159999999998,-0.048420000000000005,13.4,-0.116208,0.0,13.4,0.0,-0.0,13.4,-0.0,0.00538,13.4,0.012912
0.859988937,-0.07532,13.600000000000001,-0.18076799999999998,-0.67788,13.5,-1.6269120000000001,-0.73168,13.4,-1.756032,-0.04573,13.4,-0.109752,0.0,13.4,0.0,-0.0,13.4,-0.0,0.00538,13.4,0.012912
0.894495535,-0.07801000000000001,13.600000000000001,-0.18722400000000003,-0.6751900000000001,13.5,-1.6204560000000001,-0.71823,13.4,-1.723752,-0.02959,13.4,-0.071016,0.0,13.4,0.0,-0.0,13.4,-0.0,0.00538,13.4,0.012912
0.927007271,-0.056490000000000005,13.600000000000001,-0.135576,-0.66712,13.600000000000001,-1.601088,-0.70747,13.4,-1.697928,-0.04573,13.4,-0.109752,0.0,13.4,0.0,-0.0,13.4,-0.0,0.00538,13.4,0.012912
0.960008491,-0.06994,13.600000000000001,-0.167856,-0.66712,13.5,-1.601088,-0.69133,13.4,-1.659192,-0.03766,13.4,-0.09038399999999999,0.0,13.4,0.0,-0.0,13.4,-0.0,0.00538,13.4,0.012912
0.994007562,-0.056490000000000005,13.600000000000001,-0.135576,-0.66712,13.600000000000001,-1.601088,-0.7047800000000001,13.4,-1.691472,-0.05111,13.4,-0.122664,0.0,13.4,0.0,-0.0,13.4,-0.0,0.00538,13.4,0.012912
1.027104576,-0.056490000000000005,13.600000000000001,-0.135576,-0.6725,13.5,-1.6139999999999999,-0.7047800000000001,13.4,-1.691472,-0.05918,13.4,-0.142032,0.0,13.4,0.0,-0.0,13.4,-0.0,0.00538,13.4,0.012912
1.061118231,-0.05918,13.600000000000001,-0.142032,-0.6725,13.4,-1.6139999999999999,-0.71016,13.4,-1.704384,-0.0538,13.4,-0.12911999999999998,0.0,13.4,0.0,-0.0,13.4,-0.0,0.00538,13.4,0.012912
1.094268219,-0.0538,13.600000000000001,-0.12911999999999998,-0.66712,13.5,-1.601088,-0.71016,13.4,-1.704384,-0.04573,13.4,-0.109752,0.0,13.4,0.0,-0.0,13.4,-0.0,0.00538,13.4,0.012912
1.12685979,-0.06725,13.600000000000001,-0.16140000000000002,-0.6644300000000001,13.5,-1.594632,-0.71016,13.4,-1.704384,-0.02959,13.4,-0.071016,0.0,13.4,0.0,-0.0,13.4,-0.0,0.00538,13.4,0.012912
1.160908353,-0.056490000000000005,13.600000000000001,-0.135576,-0.6644300000000001,13.5,-1.594632,-0.71016,13.4,-1.704384,-0.04304,13.4,-0.103296,0.0,13.4,0.0,-0.0,13.4,-0.0,0.00538,13.4,0.012912
1.194051532,-0.04304,13.600000000000001,-0.103296,-0.6725,13.5,-1.6139999999999999,-0.71016,13.4,-1.704384,-0.03497,13.4,-0.083928,0.0,13.4,0.0,-0.0,13.4,-0.0,0.00538,13.4,0.012912
1.22695713,-0.0538,13.600000000000001,-0.12911999999999998,-0.6725,13.600000000000001,-1.6139999999999999,-0.7155400000000001,13.4,-1.7172960000000002,-0.048420000000000005,13.4,-0.116208,0.0,13.4,0.0,-0.0,13.4,-0.0,0.00538,13.4,0.012912
1.261135767,-0.0538,13.600000000000001,-0.12911999999999998,-0.6751900000000001,13.5,-1.6204560000000001,-0.71016,13.4,-1.704384,-0.0538,13.4,-0.12911999999999998,0.0,13.4,0.0,-0.0,13.4,-0.0,0.00538,13.4,0.012912
1.293993032,-0.0538,13.600000000000001,-0.12911999999999998,-0.6751900000000001,13.5,-1.6204560000000001,-0.71016,13.4,-1.704384,-0.040350000000000004,13.4,-0.09684000000000001,-0.00269,13.4,-0.006456,-0.0,13.4,-0.0,0.00538,13.4,0.012912
1.326934967,-0.06994,13.600000000000001,-0.167856,-0.6725,13.5,-1.6139999999999999,-0.71016,13.4,-1.704384,-0.056490000000000005,13.4,-0.135576,0.0,13.4,0.0,-0.0,13.4,-0.0,0.00538,13.4,0.012912
1.361097677,-0.040350000000000004,13.600000000000001,-0.09684000000000001,-0.6725,13.5,-1.6139999999999999,-0.71016,13.4,-1.704384,-0.04304,13.4,-0.103296,0.0,13.4,0.0,-0.0,13.4,-0.0,0.00538,13.4,0.012912
1.394073169,-0.04573,13.600000000000001,-0.109752,-0.6725,13.600000000000001,-1.6139999999999999,-0.71016,13.4,-1.704384,-0.05111,13.4,-0.122664,0.0,13.4,0.0,-0.0,13.4,-0.0,0.00538,13.4,0.012912
1.426855724,-0.03766,13.600000000000001,-0.09038399999999999,-0.6725,13.600000000000001,-1.6139999999999999,-0.71016,13.4,-1.704384,-0.04304,13.4,-0.103296,0.0,13.4,0.0,-0.0,13.4,-0.0,0.00538,13.4,0.012912
1.460795889,-0.04573,13.600000000000001,-0.109752,-0.6725,13.5,-1.6139999999999999,-0.71016,13.3,-1.704384,-0.05918,13.4,-0.142032,-0.00269,13.4,-0.006456,-0.0,13.4,-0.0,0.00538,13.4,0.012912
1.493728602,-0.04573,13.600000000000001,-0.109752,-0.6725,13.5,-1.6139999999999999,-0.71016,13.4,-1.704384,-0.04573,13.4,-0.109752,0.0,13.4,0.0,-0.0,13.4,-0.0,0.00538,13.4,0.012912
1.526835227,-0.04573,13.600000000000001,-0.109752,-0.6725,13.5,-1.6139999999999999,-0.71016,13.3,-1.704384,-0.0538,13.4,-0.12911999999999998,0.0,13.4,0.0,-0.0,13.4,-0.0,0.00538,13.4,0.012912
1.560865722,-0.06187,13.600000000000001,-0.148488,-0.66981,13.5,-1.607544,-0.71016,13.5,-1.704384,-0.048420000000000005,13.4,-0.116208,0.0,13.4,0.0,-0.0,13.4,-0.0,0.00269,13.4,0.006456
1.593885647,-0.0538,13.600000000000001,-0.12911999999999998,-0.6725,13.5,-1.6139999999999999,-0.71285,13.4,-1.71084,-0.048420000000000005,13.4,-0.116208,0.0,13.4,0.0,-0.0,13.4,-0.0,0.00269,13.4,0.006456
1.626773794,-0.05918,13.600000000000001,-0.142032,-0.6725,13.5,-1.6139999999999999,-0.71016,13.4,-1.704384,-0.06456,13.4,-0.154944,0.0,13.4,0.0,-0.0,13.4,-0.0,0.00269,13.4,0.006456
1.660789395,-0.07263,13.600000000000001,-0.174312,-0.66712,13.5,-1.601088,-0.71016,13.4,-1.704384,-0.040350000000000004,13.4,-0.09684000000000001,-0.00269,13.4,-0.006456,-0.0,13.4,-0.0,0.00269,13.4,0.006456
1.693620321,-0.056490000000000005,13.600000000000001,-0.135576,-0.6725,13.600000000000001,-1.6139999999999999,-0.71016,13.4,-1.704384,-0.0538,13.4,-0.12911999999999998,0.0,13.4,0.0,-0.0,13.3,-0.0,0.00269,13.4,0.006456
1.726854334,-0.07532,13.600000000000001,-0.18076799999999998,-0.6725,13.5,-1.6139999999999999,-0.71016,13.4,-1.704384,-0.03228,13.4,-0.077472,0.0,13.4,0.0,-0.0,13.4,-0.0,0.00269,13.4,0.006456
1.760707847,-0.04573,13.600000000000001,-0.109752,-0.6725,13.5,-1.6139999999999999,-0.71016,13.4,-1.704384,-0.03766,13.4,-0.09038399999999999,0.0,13.4,0.0,-0.0,13.4,-0.0,0.00269,13.4,0.006456
1.794006173,-0.048420000000000005,13.600000000000001,-0.116208,-0.6725,13.5,-1.6139999999999999,-0.71016,13.3,-1.704384,-0.056490000000000005,13.4,-0.135576,0.0,13.4,0.0,-0.0,13.4,-0.0,0.00269,13.4,0.006456
1.827717697,-0.048420000000000005,13.600000000000001,-0.116208,-0.6725,13.5,-1.6139999999999999,-0.71285,13.4,-1.71084,-0.04304,13.4,-0.103296,0.0,13.4,0.0,-0.0,13.4,-0.0,0.00269,13.4,0.006456
1.860786165,-0.06994,13.600000000000001,-0.167856,-0.6725,13.5,-1.6139999999999999,-0.71016,13.4,-1.704384,-0.04304,13.4,-0.103296,0.0,13.4,0.0,-0.0,13.4,-0.0,0.00269,13.4,0.006456
1.893897007,-0.06725,13.600000000000001,-0.16140000000000002,-0.6725,13.5,-1.6139999999999999,-0.71016,13.5,-1.704384,-0.048420000000000005,13.4,-0.116208,0.0,13.4,0.0,-0.0,13.4,-0.0,0.00269,13.4,0.006456
1.927805868,-0.040350000000000004,13.600000000000001,-0.09684000000000001,-0.6644300000000001,13.600000000000001,-1.594632,-0.71016,13.4,-1.704384,-0.04304,13.4,-0.103296,0.0,13.4,0.0,-0.0,13.4,-0.0,0.00269,13.4,0.006456
1.961921217,-0.05111,13.600000000000001,-0.122664,-0.6725,13.5,-1.6139999999999999,-0.71016,13.5,-1.704384,-0.05111,13.4,-0.122664,0.0,13.4,0.0,-0.0,13.4,-0.0,0.00269,13.4,0.006456
1.993714578,-0.03766,13.600000000000001,-0.09038399999999999,-0.6725,13.5,-1.6139999999999999,-0.71016,13.4,-1.704384,-0.04573,13.4,-0.109752,0.0,13.4,0.0,-0.0,13.4,-0.0,0.00269,13.4,0.006456
2.027904726,-0.0538,13.600000000000001,-0.12911999999999998,-0.6725,13.5,-1.6139999999999999,-0.71016,13.4,-1.704384,-0.02959,13.4,-0.071016,0.0,13.4,0.0,-0.0,13.4,-0.0,0.00269,13.4,0.006456
2.060740931,-0.040350000000000004,13.600000000000001,-0.09684000000000001,-0.66712,13.5,-1.601088,-0.71016,13.4,-1.704384,-0.05111,13.4,-0.122664,0.0,13.4,0.0,-0.0,13.4,-0.0,0.00269,13.4,0.006456
2.093594122,-0.04304,13.600000000000001,-0.103296,-0.6751900000000001,13.5,-1.6204560000000001,-0.71016,13.5,-1.704384,-0.04304,13.4,-0.103296,0.0,13.4,0.0,-0.0,13.4,-0.0,0.00269,13.4,0.006456
2.127783769,-0.06456,13.600000000000001,-0.154944,-0.6725,13.5,-1.6139999999999999,-0.71016,13.5,-1.704384,-0.048420000000000005,13.4,-0.116208,0.0,13.4,0.0,-0.0,13.4,-0.0,0.00269,13.4,0.006456
2.16081067,-0.056490000000000005,13.600000000000001,-0.135576,-0.6725,13.5,-1.6139999999999999,-0.71016,13.3,-1.704384,-0.04304,13.4,-0.103296,0.0,13.4,0.0,-0.0,13.4,-0.0,0.00269,13.4,0.006456
2.193780873,-0.05918,13.600000000000001,-0.142032,-0.6725,13.5,-1.6139999999999999,-0.71016,13.4,-1.704384,-0.0538,13.4,-0.12911999999999998,0.0,13.4,0.0,-0.0,13.4,-0.0,0.00269,13.4,0.006456
2.227694801,-0.056490000000000005,13.600000000000001,-0.135576,-0.6725,13.5,-1.6139999999999999,-0.71016,13.4,-1.704384,-0.040350000000000004,13.4,-0.09684000000000001,0.0,13.4,0.0,-0.0,13.4,-0.0,0.00538,13.4,0.012912
2.260639886,-0.06187,13.600000000000001,-0.148488,-0.6725,13.4,-1.6139999999999999,-0.71016,13.4,-1.704384,-0.048420000000000005,13.4,-0.116208,0.0,13.4,0.0,-0.0,13.4,-0.0,0.00538,13.4,0.012912
2.293486767,-0.04304,13.600000000000001,-0.103296,-0.6725,13.5,-1.6139999999999999,-0.71016,13.4,-1.704384,-0.048420000000000005,13.4,-0.116208,0.0,13.4,0.0,-0.0,13.4,-0.0,0.00538,13.4,0.012912
2.327661585,-0.048420000000000005,13.600000000000001,-0.116208,-0.6725,13.5,-1.6139999999999999,-0.71016,13.4,-1.704384,-0.05111,13.4,-0.122664,0.0,13.4,0.0,-0.0,13.4,-0.0,0.00538,13.4,0.012912
2.360404388,-0.04304,13.600000000000001,-0.103296,-0.6725,13.5,-1.6139999999999999,-0.71285,13.5,-1.71084,-0.056490000000000005,13.4,-0.135576,0.0,13.4,0.0,-0.0,13.4,-0.0,0.00538,13.4,0.012912
2.393527088,-0.06187,13.600000000000001,-0.148488,-0.6725,13.5,-1.6139999999999999,-0.71823,13.4,-1.723752,-0.03766,13.4,-0.09038399999999999,0.0,13.4,0.0,-0.0,13.4,-0.0,0.00538,13.4,0.012912
2.42747758,-0.048420000000000005,13.600000000000001,-0.116208,-0.6725,13.600000000000001,-1.6139999999999999,-0.7155400000000001,13.4,-1.7172960000000002,-0.048420000000000005,13.4,-0.116208,0.0,13.4,0.0,-0.0,13.4,-0.0,0.00538,13.4,0.012912
2.460495363,-0.06725,13.600000000000001,-0.16140000000000002,-0.6725,13.5,-1.6139999999999999,-0.71016,13.5,-1.704384,-0.0538,13.4,-0.12911999999999998,0.0,13.4,0.0,-0.0,13.4,-0.0,0.00538,13.4,0.012912
2.493363334,-0.056490000000000005,13.600000000000001,-0.135576,-0.6725,13.4,-1.6139999999999999,-0.71016,13.4,-1.704384,-0.0538,13.4,-0.12911999999999998,0.0,13.4,0.0,-0.0,13.4,-0.0,0.00538,13.4,0.012912
2.527379666,-0.05111,13.600000000000001,-0.122664,-0.6725,13.5,-1.6139999999999999,-0.71016,13.4,-1.704384,-0.04573,13.4,-0.109752,0.0,13.4,0.0,-0.0,13.4,-0.0,0.00538,13.4,0.012912
2.560350987,-0.04304,13.600000000000001,-0.103296,-0.6751900000000001,13.4,-1.6204560000000001,-0.71016,13.4,-1.704384,-0.0538,13.4,-0.12911999999999998,0.0,13.4,0.0,-0.0,13.4,-0.0,0.00538,13.4,0.012912
2.593396753,-0.05111,13.600000000000001,-0.122664,-0.6725,13.5,-1.6139999999999999,-0.72092,13.4,-1.730208,-0.056490000000000005,13.4,-0.135576,0.0,13.4,0.0,-0.0,13.4,-0.0,0.00538,13.4,0.012912
2.627294408,-0.0538,13.600000000000001,-0.12911999999999998,-0.6725,13.5,-1.6139999999999999,-0.71016,13.4,-1.704384,-0.048420000000000005,13.4,-0.116208,0.0,13.4,0.0,-0.0,13.4,-0.0,0.00538,13.4,0.012912
2.660420364,-0.0538,13.600000000000001,-0.12911999999999998,-0.6725,13.5,-1.6139999999999999,-0.71016,13.3,-1.704384,-0.05918,13.4,-0.142032,0.0,13.4,0.0,-0.0,13.4,-0.0,0.00538,13.4,0.012912
2.69448337,-0.05111,13.600000000000001,-0.122664,-0.6725,13.5,-1.6139999999999999,-0.71016,13.4,-1.704384,-0.06725,13.4,-0.16140000000000002,0.0,13.4,0.0,-0.0,13.4,-0.0,0.00538,13.4,0.012912
2.727406966,-0.04304,13.600000000000001,-0.103296,-0.6751900000000001,13.5,-1.6204560000000001,-0.71285,13.4,-1.71084,-0.03766,13.4,-0.09038399999999999,0.0,13.4,0.0,-0.0,13.4,-0.0,0.00538,13.4,0.012912
2.760280974,-0.05918,13.600000000000001,-0.142032,-0.6725,13.5,-1.6139999999999999,-0.71285,13.4,-1.71084,-0.056490000000000005,13.4,-0.135576,0.0,13.4,0.0,-0.0,13.4,-0.0,0.00538,13.4,0.012912
2.79437781,-0.06725,13.600000000000001,-0.16140000000000002,-0.6725,13.5,-1.6139999999999999,-0.71016,13.4,-1.704384,-0.05111,13.4,-0.122664,-0.00269,13.4,-0.006456,-0.0,13.4,-0.0,0.00538,13.4,0.012912
2.827506102,-0.04573,13.600000000000001,-0.109752,-0.6725,13.5,-1.6139999999999999,-0.71016,13.4,-1.704384,-0.04304,13.4,-0.103296,0.0,13.4,0.0,-0.0,13.4,-0.0,0.00538,13.4,0.012912
2.860210922,-0.056490000000000005,13.600000000000001,-0.135576,-0.6725,13.4,-1.6139999999999999,-0.71016,13.4,-1.704384,-0.056490000000000005,13.4,-0.135576,0.0,13.4,0.0,-0.0,13.4,-0.0,0.00538,13.4,0.012912
2.894252632,-0.04304,13.600000000000001,-0.103296,-0.6751900000000001,13.5,-1.6204560000000001,-0.71016,13.5,-1.704384,-0.05111,13.4,-0.122664,0.0,13.4,0.0,-0.0,13.4,-0.0,0.00538,13.4,0.012912
2.927329689,-0.040350000000000004,13.600000000000001,-0.09684000000000001,-0.6725,13.600000000000001,-1.6139999999999999,-0.71016,13.5,-1.704384,-0.056490000000000005,13.4,-0.135576,0.0,13.4,0.0,-0.0,13.4,-0.0,0.00538,13.4,0.012912
2.960187793,-0.04304,13.600000000000001,-0.103296,-0.6725,13.5,-1.6139999999999999,-0.71016,13.4,-1.704384,-0.05918,13.4,-0.142032,0.0,13.4,0.0,-0.0,13.4,-0.0,0.00538,13.4,0.012912
2.994155279,-0.05111,13.600000000000001,-0.122664,-0.6725,13.4,-1.6139999999999999,-0.71016,13.4,-1.704384,-0.048420000000000005,13.4,-0.116208,-0.00269,13.4,-0.006456,-0.0,13.4,-0.0,0.00538,13.4,0.012912
3.027435859,-0.048420000000000005,13.600000000000001,-0.116208,-0.6725,13.5,-1.6139999999999999,-0.71016,13.4,-1.704384,-0.04573,13.4,-0.109752,0.0,13.4,0.0,-0.0,13.4,-0.0,0.00538,13.4,0.012912
3.060137488,-0.05111,13.600000000000001,-0.122664,-0.6725,13.5,-1.6139999999999999,-0.71016,13.4,-1.704384,-0.048420000000000005,13.4,-0.116208,0.0,13.4,0.0,-0.0,13.4,-0.0,0.00538,13.4,0.012912
3.094050046,-0.03497,13.600000000000001,-0.083928,-0.6725,13.5,-1.6139999999999999,-0.71016,13.4,-1.704384,-0.05111,13.4,-0.122664,0.0,13.4,0.0,-0.0,13.4,-0.0,0.00538,13.4,0.012912
3.127018095,-0.0538,13.600000000000001,-0.12911999999999998,-0.6725,13.600000000000001,-1.6139999999999999,-0.71016,13.4,-1.704384,-0.05918,13.4,-0.142032,0.0,13.4,0.0,-0.0,13.4,-0.0,0.00538,13.4,0.012912
3.160011487,-0.056490000000000005,13.600000000000001,-0.135576,-0.6725,13.5,-1.6139999999999999,-0.71016,13.3,-1.704384,-0.048420000000000005,13.4,-0.116208,0.0,13.4,0.0,-0.0,13.4,-0.0,0.00538,13.4,0.012912
3.194110109,-0.04304,13.600000000000001,-0.103296,-0.6644300000000001,13.5,-1.594632,-0.71016,13.4,-1.704384,-0.06187,13.4,-0.148488,0.0,13.4,0.0,-0.0,13.4,-0.0,0.00538,13.4,0.012912
3.22705652,-0.05918,13.600000000000001,-0.142032,-0.6725,13.5,-1.6139999999999999,-0.71016,13.3,-1.704384,-0.04573,13.4,-0.109752,0.0,13.4,0.0,-0.0,13.4,-0.0,0.00538,13.4,0.012912
3.260106376,-0.048420000000000005,13.600000000000001,-0.116208,-0.6725,13.5,-1.6139999999999999,-0.71016,13.4,-1.704384,-0.05111,13.4,-0.122664,0.0,13.4,0.0,-0.0,13.3,-0.0,0.00538,13.4,0.012912
3.294043205,-0.04573,13.600000000000001,-0.109752,-0.6725,13.5,-1.6139999999999999,-0.71016,13.4,-1.704384,-0.0538,13.4,-0.12911999999999998,0.0,13.4,0.0,-0.0,13.4,-0.0,0.00538,13.4,0.012912
3.327038328,-0.048420000000000005,13.600000000000001,-0.116208,-0.6725,13.5,-1.6139999999999999,-0.71016,13.4,-1.704384,-0.06456,13.4,-0.154944,0.0,13.4,0.0,-0.0,13.4,-0.0,0.00538,13.4,0.012912
3.360014417,-0.03766,13.600000000000001,-0.09038399999999999,-0.6725,13.5,-1.6139999999999999,-0.71016,13.4,-1.704384,-0.05111,13.4,-0.122664,0.0,13.4,0.0,-0.0,13.4,-0.0,0.00538,13.4,0.012912
3.394042955,-0.0538,13.600000000000001,-0.12911999999999998,-0.6725,13.5,-1.6139999999999999,-0.71016,13.4,-1.704384,-0.04304,13.4,-0.103296,0.0,13.4,0.0,-0.0,13.4,-0.0,0.00538,13.4,0.012912
3.426946303,-0.06187,13.600000000000001,-0.148488,-0.6751900000000001,13.5,-1.6204560000000001,-0.71016,13.5,-1.704384,-0.040350000000000004,13.4,-0.09684000000000001,0.0,13.4,0.0,-0.0,13.4,-0.0,0.00538,13.4,0.012912
3.459987274,-0.06187,13.600000000000001,-0.148488,-0.6725,13.600000000000001,-1.6139999999999999,-0.71016,13.4,-1.704384,-0.04573,13.4,-0.109752,0.0,13.4,0.0,-0.0,13.4,-0.0,0.00538,13.4,0.012912
3.494238551,-0.04573,13.600000000000001,-0.109752,-0.6725,13.5,-1.6139999999999999,-0.71016,13.4,-1.704384,-0.0538,13.4,-0.12911999999999998,0.0,13.4,0.0,-0.0,13.4,-0.0,0.00538,13.4,0.012912
3.527016077,-0.05111,13.600000000000001,-0.122664,-0.6725,13.5,-1.6139999999999999,-0.71016,13.4,-1.704384,-0.048420000000000005,13.4,-0.116208,0.0,13.4,0.0,-0.0,13.4,-0.0,0.00538,13.4,0.012912
3.559994624,-0.04573,13.600000000000001,-0.109752,-0.66712,13.4,-1.601088,-0.71016,13.4,-1.704384,-0.0538,13.4,-0.12911999999999998,0.0,13.4,0.0,-0.0,13.4,-0.0,0.00538,13.4,0.012912
3.594022139,-0.040350000000000004,13.600000000000001,-0.09684000000000001,-0.6725,13.5,-1.6139999999999999,-0.71016,13.4,-1.704384,-0.03497,13.4,-0.083928,0.0,13.4,0.0,-0.0,13.4,-0.0,0.00538,13.4,0.012912
3.626822877,-0.05111,13.600000000000001,-0.122664,-0.6725,13.5,-1.6139999999999999,-0.71016,13.4,-1.704384,-0.048420000000000005,13.4,-0.116208,0.0,13.4,0.0,-0.0,13.4,-0.0,0.00538,13.4,0.012912
3.661061874,-0.056490000000000005,13.600000000000001,-0.135576,-0.6725,13.5,-1.6139999999999999,-0.71016,13.4,-1.704384,-0.03497,13.4,-0.083928,0.0,13.4,0.0,-0.0,13.4,-0.0,0.00538,13.4,0.012912
3.693804659,-0.04304,13.600000000000001,-0.103296,-0.6725,13.5,-1.6139999999999999,-0.71016,13.4,-1.704384,-0.06187,13.4,-0.148488,0.0,13.4,0.0,-0.0,13.4,-0.0,0.00269,13.4,0.006456
3.726780599,-0.04573,13.600000000000001,-0.109752,-0.6725,13.600000000000001,-1.6139999999999999,-0.71285,13.4,-1.71084,-0.03766,13.4,-0.09038399999999999,0.0,13.4,0.0,-0.0,13.4,-0.0,0.00269,13.4,0.006456
3.760796689,-0.040350000000000004,13.600000000000001,-0.09684000000000001,-0.6725,13.5,-1.6139999999999999,-0.71016,13.4,-1.704384,-0.06725,13.4,-0.16140000000000002,0.0,13.4,0.0,-0.0,13.4,-0.0,0.00269,13.4,0.006456
3.793780179,-0.05111,13.600000000000001,-0.122664,-0.6725,13.5,-1.6139999999999999,-0.71016,13.5,-1.704384,-0.06725,13.4,-0.16140000000000002,0.0,13.4,0.0,-0.0,13.4,-0.0,0.00269,13.4,0.006456
3.826769895,-0.06187,13.600000000000001,-0.148488,-0.6725,13.5,-1.6139999999999999,-0.71016,13.4,-1.704384,-0.040350000000000004,13.4,-0.09684000000000001,0.0,13.4,0.0,-0.0,13.4,-0.0,0.00269,13.4,0.006456
3.860820524,-0.040350000000000004,13.600000000000001,-0.09684000000000001,-0.6725,13.5,-1.6139999999999999,-0.71016,13.4,-1.704384,-0.05111,13.4,-0.122664,-0.00269,13.4,-0.006456,-0.0,13.4,-0.0,0.00269,13.4,0.006456
3.893812493,-0.05918,13.600000000000001,-0.142032,-0.6725,13.5,-1.6139999999999999,-0.71016,13.5,-1.704384,-0.03497,13.4,-0.083928,0.0,13.4,0.0,-0.0,13.4,-0.0,0.00269,13.4,0.006456
3.926697948,-0.01883,13.700000000000001,-0.045191999999999996,-0.27707000000000004,13.600000000000001,-0.6649680000000001,-0.28783000000000003,13.600000000000001,-0.6907920000000001,-0.048420000000000005,13.5,-0.116208,0.0,13.5,0.0,-0.0,13.5,-0.0,0.00269,13.5,0.006456
3.960576374,-0.00538,13.700000000000001,-0.012912,-0.30935,13.700000000000001,-0.74244,-0.31473,13.600000000000001,-0.755352,-0.05111,13.600000000000001,-0.122664,0.0,13.5,0.0,-0.0,13.5,-0.0,0.00538,13.5,0.012912
3.993765756,0.024210000000000002,13.700000000000001,0.058104,-0.35239000000000004,13.700000000000001,-0.845736,-0.32280000000000003,13.600000000000001,-0.7747200000000001,-0.056490000000000005,13.600000000000001,-0.135576,0.0,13.5,0.0,-0.0,13.5,-0.0,0.00538,13.5,0.012912
4.026687664,0.03228,13.700000000000001,0.077472,-0.43578,13.600000000000001,-1.045872,-0.41695000000000004,13.600000000000001,-1.00068,-0.06456,13.600000000000001,-0.154944,0.01614,13.5,0.038736,-0.0,13.5,-0.0,0.00538,13.5,0.012912
4.060663329,0.06994,13.700000000000001,0.167856,-0.49496,13.600000000000001,-1.187904,-0.54876,13.600000000000001,-1.317024,-0.04573,13.600000000000001,-0.109752,0.01345,13.5,0.032279999999999996,-0.0,13.5,-0.0,0.00538,13.5,0.012912
4.093672191,0.09684000000000001,13.700000000000001,0.232416,-0.47344,13.600000000000001,-1.136256,-0.63215,13.4,-1.5171599999999998,-0.040350000000000004,13.5,-0.09684000000000001,0.00807,13.5,0.019368,-0.0,13.5,-0.0,0.00538,13.5,0.012912
4.126691546,0.12105,13.700000000000001,0.29052,-0.39543,13.600000000000001,-0.949032,-0.71016,13.4,-1.704384,-0.04573,13.5,-0.109752,0.00538,13.4,0.012912,-0.0,13.5,-0.0,0.00538,13.4,0.012912
4.160866998,0.16409,13.600000000000001,0.393816,-0.4304,13.5,-1.0329599999999999,-0.65636,13.4,-1.575264,-0.04573,13.4,-0.109752,0.02152,13.4,0.051648,-0.0,13.4,-0.0,0.00538,13.4,0.012912
4.193702945,0.1883,13.600000000000001,0.45192,-0.34432,13.5,-0.826368,-0.66174,13.5,-1.588176,-0.04573,13.4,-0.109752,0.02959,13.4,0.071016,-0.0,13.4,-0.0,0.00538,13.4,0.012912
4.226836524,0.21789,13.600000000000001,0.522936,-0.37391,13.5,-0.8973840000000001,-0.64291,13.3,-1.542984,-0.056490000000000005,13.4,-0.135576,0.01345,13.3,0.032279999999999996,-0.0,13.4,-0.0,0.00538,13.4,0.012912
4.260576667,0.22327,13.600000000000001,0.535848,-0.38736000000000004,13.5,-0.929664,-0.6644300000000001,13.3,-1.594632,-0.05111,13.4,-0.122664,0.01076,13.3,0.025824,-0.0,13.3,-0.0,0.00538,13.3,0.012912
4.293725207,0.25555,13.600000000000001,0.61332,-0.39274000000000003,13.4,-0.9425760000000001,-0.68326,13.4,-1.639824,-0.03766,13.3,-0.09038399999999999,0.0269,13.3,0.06455999999999999,-0.0,13.3,-0.0,0.00538,13.3,0.012912
4.326582192,0.22327,13.600000000000001,0.535848,-0.40888,13.5,-0.981312,-0.64829,13.3,-1.555896,-0.02959,13.4,-0.071016,0.00807,13.3,0.019368,-0.0,13.3,-0.0,0.00538,13.3,0.012912
4.360741499,0.21789,13.600000000000001,0.522936,-0.41157,13.5,-0.987768,-0.64829,13.3,-1.555896,-0.03766,13.4,-0.09038399999999999,0.01614,13.3,0.038736,-0.0,13.3,-0.0,0.00538,13.3,0.012912
4.393678124,0.23941,13.600000000000001,0.574584,-0.40081,13.4,-0.9619439999999999,-0.6456000000000001,13.3,-1.5494400000000002,-0.05918,13.3,-0.142032,0.03497,13.200000000000001,0.083928,-0.0,13.200000000000001,-0.0,0.00538,13.200000000000001,0.012912
4.426567412,0.23672,13.5,0.568128,-0.43578,13.4,-1.045872,-0.66981,13.3,-1.607544,-0.040350000000000004,13.3,-0.09684000000000001,0.02959,13.200000000000001,0.071016,-0.0,13.200000000000001,-0.0,0.00538,13.200000000000001,0.012912
4.460526244,0.25555,13.4,0.61332,-0.44116,13.4,-1.058784,-0.66174,13.200000000000001,-1.588176,-0.03228,13.200000000000001,-0.077472,0.02152,13.100000000000001,0.051648,-0.0,13.200000000000001,-0.0,0.00538,13.200000000000001,0.012912
4.493451999,0.27976,13.5,0.671424,-0.47075,13.4,-1.1298,-0.69133,13.3,-1.659192,-0.04304,13.200000000000001,-0.103296,0.03497,13.100000000000001,0.083928,-0.0,13.200000000000001,-0.0,0.00538,13.200000000000001,0.012912
4.527470362,0.29052,13.5,0.697248,-0.49765000000000004,13.3,-1.19436,-0.65636,13.200000000000001,-1.575264,-0.0269,13.200000000000001,-0.06455999999999999,0.0269,13.200000000000001,0.06455999999999999,-0.0,13.200000000000001,-0.0,0.00538,13.200000000000001,0.012912
4.560420209,0.31204000000000004,13.5,0.7488960000000001,-0.42502,13.3,-1.020048,-0.6940200000000001,13.200000000000001,-1.6656480000000002,-0.03766,13.200000000000001,-0.09038399999999999,0.0269,13.100000000000001,0.06455999999999999,-0.0,13.100000000000001,-0.0,0.00538,13.100000000000001,0.012912
4.593529106,0.28783000000000003,13.5,0.6907920000000001,-0.45192000000000004,13.3,-1.084608,-0.63215,13.100000000000001,-1.5171599999999998,-0.024210000000000002,13.200000000000001,-0.058104,0.03497,13.100000000000001,0.083928,-0.0,13.100000000000001,-0.0,0.00538,13.100000000000001,0.012912
4.627405098,0.29859,13.4,0.716616,-0.47882,13.3,-1.149168,-0.64022,13.200000000000001,-1.536528,-0.024210000000000002,13.200000000000001,-0.058104,0.03228,13.100000000000001,0.077472,-0.0,13.100000000000001,-0.0,0.00538,13.100000000000001,0.012912
4.660417061,0.33625,13.3,0.8069999999999999,-0.46806000000000003,13.3,-1.1233440000000001,-0.68057,13.100000000000001,-1.633368,-0.03766,13.100000000000001,-0.09038399999999999,0.0269,13.0,0.06455999999999999,-0.0,13.0,-0.0,0.00538,13.0,0.012912
4.693377902,0.34701000000000004,13.4,0.8328240000000001,-0.50841,13.3,-1.220184,-0.64022,13.200000000000001,-1.536528,-0.040350000000000004,13.100000000000001,-0.09684000000000001,0.04573,13.0,0.109752,-0.0,13.100000000000001,-0.0,0.00538,13.0,0.012912
4.727438935,0.32280000000000003,13.4,0.7747200000000001,-0.55952,13.3,-1.342848,-0.6456000000000001,13.200000000000001,-1.5494400000000002,-0.0269,13.100000000000001,-0.06455999999999999,0.04304,13.100000000000001,0.103296,-0.0,13.0,-0.0,0.00538,13.0,0.012912
4.760437826,0.30666,13.4,0.735984,-0.50303,13.200000000000001,-1.207272,-0.65636,13.200000000000001,-1.575264,-0.04573,13.100000000000001,-0.109752,0.01883,13.100000000000001,0.045191999999999996,-0.0,13.100000000000001,-0.0,0.00538,13.100000000000001,0.012912
4.793476806,0.29321,13.4,0.703704,-0.5353100000000001,13.3,-1.284744,-0.68326,13.200000000000001,-1.639824,-0.03228,13.100000000000001,-0.077472,0.03497,13.100000000000001,0.083928,-0.0,13.100000000000001,-0.0,0.00538,13.100000000000001,0.012912
4.827387702,0.269,13.5,0.6456000000000001,-0.58373,13.3,-1.400952,-0.65905,13.200000000000001,-1.58172,-0.03766,13.200000000000001,-0.09038399999999999,0.01614,13.100000000000001,0.038736,-0.0,13.100000000000001,-0.0,0.00538,13.100000000000001,0.012912
4.860418579,0.27976,13.5,0.671424,-0.56759,13.3,-1.362216,-0.64829,13.200000000000001,-1.555896,-0.0269,13.200000000000001,-0.06455999999999999,0.03497,13.100000000000001,0.083928,-0.0,13.100000000000001,-0.0,0.00538,13.100000000000001,0.012912
4.893387035,0.28783000000000003,13.4,0.6907920000000001,-0.5541400000000001,13.3,-1.3299360000000002,-0.63753,13.200000000000001,-1.530072,-0.03228,13.200000000000001,-0.077472,0.04573,13.100000000000001,0.109752,-0.0,13.200000000000001,-0.0,0.00538,13.200000000000001,0.012912
4.92729927,0.27976,13.5,0.671424,-0.58373,13.4,-1.400952,-0.63215,13.3,-1.5171599999999998,-0.02959,13.3,-0.071016,0.01883,13.200000000000001,0.045191999999999996,-0.0,13.200000000000001,-0.0,0.00538,13.200000000000001,0.012912
4.960282403,0.30666,13.5,0.735984,-0.5245500000000001,13.4,-1.25892,-0.6644300000000001,13.200000000000001,-1.594632,-0.0269,13.200000000000001,-0.06455999999999999,0.03228,13.100000000000001,0.077472,-0.0,13.200000000000001,-0.0,0.00538,13.200000000000001,0.012912
4.993436206,0.2959,13.600000000000001,0.71016,-0.54607,13.3,-1.3105680000000002,-0.68864,13.3,-1.652736,-0.0269,13.3,-0.06455999999999999,0.02959,13.200000000000001,0.071016,-0.0,13.200000000000001,-0.0,0.00538,13.200000000000001,0.012912
5.027302762,0.29859,13.600000000000001,0.716616,-0.51917,13.4,-1.246008,-0.65905,13.200000000000001,-1.58172,-0.0269,13.200000000000001,-0.06455999999999999,0.0,13.200000000000001,0.0,-0.0,13.200000000000001,-0.0,0.00538,13.200000000000001,0.012912
5.060305625,0.30128,13.600000000000001,0.7230719999999999,-0.54607,13.5,-1.3105680000000002,-0.65905,13.3,-1.58172,-0.0269,13.3,-0.06455999999999999,0.04573,13.200000000000001,0.109752,-0.0,13.3,-0.0,0.00538,13.200000000000001,0.012912
5.093254943,0.27976,13.600000000000001,0.671424,-0.5944900000000001,13.4,-1.426776,-0.66712,13.3,-1.601088,-0.0269,13.3,-0.06455999999999999,0.00538,13.200000000000001,0.012912,-0.0,13.3,-0.0,0.00538,13.3,0.012912
5.127271108,0.26362,13.600000000000001,0.632688,-0.71823,13.5,-1.723752,-0.66174,13.3,-1.588176,-0.0269,13.3,-0.06455999999999999,0.00538,13.200000000000001,0.012912,-0.0,13.3,-0.0,0.00538,13.3,0.012912
5.160140274,0.26362,13.5,0.632688,-0.66712,13.5,-1.601088,-0.66174,13.3,-1.588176,-0.0269,13.4,-0.06455999999999999,0.01614,13.3,0.038736,-0.0,13.3,-0.0,0.00538,13.3,0.012912
5.194234582,0.25824,13.5,0.619776,-0.65367,13.5,-1.568808,-0.6859500000000001,13.4,-1.6462800000000002,-0.0269,13.3,-0.06455999999999999,0.0,13.3,0.0,-0.0,13.3,-0.0,0.00538,13.3,0.012912
5.227132726,0.28514,13.600000000000001,0.6843359999999999,-0.61063,13.5,-1.465512,-0.65905,13.4,-1.58172,-0.02959,13.4,-0.071016,0.01614,13.3,0.038736,-0.0,13.3,-0.0,0.00538,13.3,0.012912
5.260139155,0.26362,13.5,0.632688,-0.62139,13.5,-1.491336,-0.65636,13.4,-1.575264,-0.0269,13.4,-0.06455999999999999,0.00807,13.3,0.019368,-0.0,13.3,-0.0,0.00538,13.3,0.012912
5.294302048,0.26362,13.600000000000001,0.632688,-0.65367,13.5,-1.568808,-0.60794,13.4,-1.4590560000000001,-0.0269,13.4,-0.06455999999999999,0.00807,13.3,0.019368,-0.0,13.3,-0.0,0.00538,13.3,0.012912
5.327178926,0.27976,13.5,0.671424,-0.62946,13.5,-1.510704,-0.66981,13.4,-1.607544,-0.0269,13.4,-0.06455999999999999,0.01076,13.3,0.025824,-0.0,13.4,-0.0,0.00538,13.3,0.012912
5.360252455,0.25017,13.600000000000001,0.6004079999999999,-0.6348400000000001,13.5,-1.523616,-0.63753,13.4,-1.530072,-0.0269,13.4,-0.06455999999999999,0.0,13.3,0.0,-0.0,13.4,-0.0,0.00538,13.3,0.012912
5.394151502,0.269,13.600000000000001,0.6456000000000001,-0.66712,13.5,-1.601088,-0.7236100000000001,13.4,-1.7366640000000002,-0.03766,13.4,-0.09038399999999999,0.00269,13.3,0.006456,-0.0,13.4,-0.0,0.00538,13.3,0.012912
5.427089306,0.25824,13.600000000000001,0.619776,-0.58642,13.5,-1.407408,-0.70209,13.5,-1.6850159999999998,-0.03766,13.4,-0.09038399999999999,0.0,13.3,0.0,-0.0,13.4,-0.0,0.00538,13.3,0.012912
5.460057031,0.26631,13.600000000000001,0.6391439999999999,-0.6160100000000001,13.5,-1.4784240000000002,-0.71823,13.4,-1.723752,-0.03766,13.4,-0.09038399999999999,0.0,13.3,0.0,-0.0,13.4,-0.0,0.00538,13.3,0.012912
5.494026528,0.25824,13.600000000000001,0.619776,-0.6240800000000001,13.5,-1.4977920000000002,-0.74782,13.4,-1.7947680000000001,-0.02959,13.4,-0.071016,0.0,13.3,0.0,-0.0,13.4,-0.0,0.00538,13.3,0.012912
5.527080689,0.269,13.600000000000001,0.6456000000000001,-0.61063,13.600000000000001,-1.465512,-0.75051,13.4,-1.801224,-0.03497,13.4,-0.083928,0.0,13.3,0.0,-0.0,13.4,-0.0,0.00538,13.4,0.012912
5.560041098,0.25017,13.600000000000001,0.6004079999999999,-0.60794,13.5,-1.4590560000000001,-0.75051,13.5,-1.801224,-0.0269,13.4,-0.06455999999999999,0.0,13.3,0.0,-0.0,13.4,-0.0,0.00538,13.4,0.012912
5.594057753,0.26093,13.5,0.626232,-0.60794,13.5,-1.4590560000000001,-0.7532,13.5,-1.80768,-0.02959,13.4,-0.071016,0.0,13.3,0.0,-0.0,13.4,-0.0,0.00538,13.4,0.012912
5.627132171,0.26362,13.600000000000001,0.632688,-0.61332,13.4,-1.471968,-0.7532,13.5,-1.80768,-0.0269,13.4,-0.06455999999999999,0.0,13.3,0.0,-0.0,13.4,-0.0,0.00538,13.4,0.012912
5.660091865,0.26631,13.600000000000001,0.6391439999999999,-0.62139,13.5,-1.491336,-0.75051,13.3,-1.801224,-0.03766,13.4,-0.09038399999999999,0.0,13.3,0.0,-0.0,13.4,-0.0,0.00538,13.4,0.012912
5.694057193,0.08070000000000001,13.700000000000001,0.19368000000000002,-0.45730000000000004,13.700000000000001,-1.09752,-0.30128,13.600000000000001,-0.7230719999999999,-0.02959,13.5,-0.071016,-0.00538,13.5,-0.012912,-0.0,13.5,-0.0,0.00538,13.5,0.012912
5.72705633,0.04573,13.700000000000001,0.109752,-0.46537,13.700000000000001,-1.1168879999999999,-0.29859,13.600000000000001,-0.716616,-0.02959,13.600000000000001,-0.071016,0.0,13.5,0.0,-0.0,13.5,-0.0,0.00538,13.5,0.012912
5.759967985,0.01614,13.700000000000001,0.038736,-0.49765000000000004,13.700000000000001,-1.19436,-0.32549,13.600000000000001,-0.781176,-0.06456,13.600000000000001,-0.154944,0.0,13.5,0.0,-0.0,13.5,-0.0,0.00538,13.5,0.012912
5.79393174,0.0,13.700000000000001,0.0,-0.65905,13.600000000000001,-1.58172,-0.38736000000000004,13.5,-0.929664,-0.07801000000000001,13.600000000000001,-0.18722400000000003,0.0,13.5,0.0,-0.0,13.5,-0.0,0.00538,13.5,0.012912
5.826905489,-0.03497,13.700000000000001,-0.083928,-0.72899,13.600000000000001,-1.749576,-0.43847,13.5,-1.052328,-0.08877,13.5,-0.213048,-0.00807,13.5,-0.019368,-0.0,13.5,-0.0,0.00538,13.5,0.012912
5.861190636,-0.06456,13.600000000000001,-0.154944,-0.6725,13.600000000000001,-1.6139999999999999,-0.41426,13.5,-0.994224,-0.08877,13.4,-0.213048,-0.01345,13.5,-0.032279999999999996,-0.0,13.5,-0.0,0.00538,13.5,0.012912
5.89406509,-0.11298000000000001,13.600000000000001,-0.271152,-0.71823,13.600000000000001,-1.723752,-0.3766,13.4,-0.90384,-0.08608,13.4,-0.206592,0.00269,13.4,0.006456,-0.0,13.5,-0.0,0.00538,13.4,0.012912
5.926937591,-0.18023,13.600000000000001,-0.432552,-0.7451300000000001,13.5,-1.7883120000000001,-0.30397,13.4,-0.7295280000000001,-0.08339,13.4,-0.200136,-0.00807,13.4,-0.019368,-0.0,13.5,-0.0,0.00538,13.4,0.012912
5.96107862,-0.25824,13.600000000000001,-0.619776,-0.76934,13.5,-1.846416,-0.27976,13.5,-0.671424,-0.06994,13.4,-0.167856,-0.00807,13.4,-0.019368,-0.0,13.4,-0.0,0.00538,13.4,0.012912
5.994111601,-0.30935,13.700000000000001,-0.74244,-0.82314,13.5,-1.975536,-0.31204000000000004,13.4,-0.7488960000000001,-0.08877,13.4,-0.213048,-0.00269,13.4,-0.006456,-0.0,13.4,-0.0,0.00538,13.4,0.012912
6.026856019,-0.32549,13.600000000000001,-0.781176,-0.86887,13.5,-2.085288,-0.41426,13.4,-0.994224,-0.08339,13.4,-0.200136,-0.00807,13.3,-0.019368,-0.0,13.4,-0.0,0.00538,13.3,0.012912
6.060895459,-0.36853,13.600000000000001,-0.884472,-0.93074,13.5,-2.2337759999999998,-0.41695000000000004,13.3,-1.00068,-0.08877,13.4,-0.213048,-0.00538,13.3,-0.012912,-0.0,13.3,-0.0,0.00538,13.3,0.012912
6.0939055,-0.42502,13.600000000000001,-1.020048,-0.98185,13.4,-2.35644,-0.32280000000000003,13.4,-0.7747200000000001,-0.09146,13.3,-0.219504,-0.02959,13.3,-0.071016,-0.0,13.3,-0.0,0.00538,13.200000000000001,0.012912
6.126874132,-0.42233000000000004,13.5,-1.013592,-1.06793,13.200000000000001,-2.563032,-0.30397,13.3,-0.7295280000000001,-0.10222,13.3,-0.245328,-0.00807,13.200000000000001,-0.019368,-0.0,13.200000000000001,-0.0,0.00538,13.200000000000001,0.012912
6.160904191,-0.39274000000000003,13.3,-0.9425760000000001,-1.08945,13.3,-2.61468,-0.27707000000000004,13.3,-0.6649680000000001,-0.09953000000000001,13.200000000000001,-0.238872,-0.01614,13.200000000000001,-0.038736,-0.0,13.200000000000001,-0.0,0.00538,13.200000000000001,0.012912
6.193702572,-0.40619,13.4,-0.974856,-1.11904,13.200000000000001,-2.685696,-0.27707000000000004,13.200000000000001,-0.6649680000000001,-0.11029,13.200000000000001,-0.264696,-0.01345,13.100000000000001,-0.032279999999999996,-0.0,13.100000000000001,-0.0,0.00538,13.100000000000001,0.012912
6.226659245,-0.36046,13.5,-0.865104,-1.23471,13.3,-2.963304,-0.31204000000000004,13.200000000000001,-0.7488960000000001,-0.11567000000000001,13.200000000000001,-0.277608,-0.03497,13.100000000000001,-0.083928,-0.0,13.100000000000001,-0.0,0.00538,13.100000000000001,0.012912
6.260742667,-0.36315000000000003,13.4,-0.87156,-1.3423100000000001,13.200000000000001,-3.221544,-0.33894,13.200000000000001,-0.8134560000000001,-0.09684000000000001,13.100000000000001,-0.232416,-0.00807,13.100000000000001,-0.019368,-0.0,13.0,-0.0,0.00269,13.100000000000001,0.006456
6.293651399,-0.36315000000000003,13.4,-0.87156,-1.4257,13.100000000000001,-3.42168,-0.29859,13.0,-0.716616,-0.11029,13.0,-0.264696,-0.04304,13.0,-0.103296,-0.0,13.0,-0.0,0.00269,13.0,0.006456
6.326724061,-0.39274000000000003,13.3,-0.9425760000000001,-1.4095600000000001,13.200000000000001,-3.382944,-0.33625,13.100000000000001,-0.8069999999999999,-0.09953000000000001,13.100000000000001,-0.238872,-0.01883,12.9,-0.045191999999999996,-0.0,13.0,-0.0,0.00269,13.0,0.006456
6.360738326,-0.39005,13.4,-0.93612,-1.34769,13.100000000000001,-3.234456,-0.34432,13.100000000000001,-0.826368,-0.08877,13.0,-0.213048,-0.0269,13.0,-0.06455999999999999,-0.0,13.0,-0.0,0.00538,13.0,0.012912
6.393682496,-0.42502,13.200000000000001,-1.020048,-1.33693,13.100000000000001,-3.2086319999999997,-0.31473,13.0,-0.755352,-0.12105,13.100000000000001,-0.29052,-0.0269,13.0,-0.06455999999999999,-0.0,13.0,-0.0,0.00538,13.0,0.012912
6.426658329,-0.40081,13.3,-0.9619439999999999,-1.3584500000000002,13.0,-3.2602800000000003,-0.34701000000000004,13.0,-0.8328240000000001,-0.11029,12.9,-0.264696,-0.0269,12.9,-0.06455999999999999,-0.0,12.9,-0.0,0.00538,12.9,0.012912
6.460614568,-0.38198000000000004,13.3,-0.916752,-1.17015,13.200000000000001,-2.80836,-0.35777000000000003,13.100000000000001,-0.8586480000000001,-0.1076,13.100000000000001,-0.25823999999999997,-0.0269,12.9,-0.06455999999999999,-0.0,13.0,-0.0,0.00538,13.0,0.012912
6.493485563,-0.39274000000000003,13.4,-0.9425760000000001,-1.2992700000000001,13.100000000000001,-3.1182480000000004,-0.37122,13.0,-0.8909279999999999,-0.08877,13.0,-0.213048,-0.02959,12.9,-0.071016,-0.0,13.0,-0.0,0.00538,13.0,0.012912
6.527625907,-0.32011,13.200000000000001,-0.768264,-1.12442,13.200000000000001,-2.6986079999999997,-0.38736000000000004,13.100000000000001,-0.929664,-0.11298000000000001,13.100000000000001,-0.271152,-0.01883,13.0,-0.045191999999999996,-0.0,13.0,-0.0,0.00538,13.0,0.012912
6.56056188,-0.31204000000000004,13.4,-0.7488960000000001,-1.20512,13.200000000000001,-2.8922879999999997,-0.33894,13.0,-0.8134560000000001,-0.12105,13.100000000000001,-0.29052,-0.024210000000000002,13.0,-0.058104,-0.0,13.0,-0.0,0.00538,13.0,0.012912
6.593610833,-0.269,13.3,-0.6456000000000001,-1.1298000000000001,13.200000000000001,-2.71152,-0.32011,13.100000000000001,-0.768264,-0.11298000000000001,13.0,-0.271152,-0.03228,13.0,-0.077472,-0.0,13.100000000000001,-0.0,0.00538,13.0,0.012912
6.627623086,-0.21789,13.4,-0.522936,-1.16746,13.200000000000001,-2.801904,-0.3497,13.200000000000001,-0.83928,-0.08877,13.100000000000001,-0.213048,-0.02152,13.100000000000001,-0.051648,-0.0,13.100000000000001,-0.0,0.00538,13.100000000000001,0.012912
6.660661615,-0.22058,13.4,-0.529392,-1.16746,13.3,-2.801904,-0.33625,13.200000000000001,-0.8069999999999999,-0.09415,13.200000000000001,-0.22596,-0.024210000000000002,13.100000000000001,-0.058104,-0.0,13.100000000000001,-0.0,0.00538,13.100000000000001,0.012912
6.693534408,-0.23134000000000002,13.4,-0.555216,-1.20781,13.200000000000001,-2.898744,-0.32818,13.200000000000001,-0.787632,-0.09953000000000001,13.100000000000001,-0.238872,-0.01883,13.0,-0.045191999999999996,-0.0,13.100000000000001,-0.0,0.00538,13.100000000000001,0.012912
6.727899083,-0.21789,13.4,-0.522936,-1.2777500000000002,13.3,-3.0666,-0.32818,13.100000000000001,-0.787632,-0.11029,13.100000000000001,-0.264696,-0.02959,13.100000000000001,-0.071016,-0.0,13.100000000000001,-0.0,0.00538,13.100000000000001,0.012912
6.760726348,-0.25017,13.5,-0.6004079999999999,-1.24547,13.3,-2.989128,-0.30935,13.200000000000001,-0.74244,-0.10222,13.200000000000001,-0.245328,-0.0269,13.100000000000001,-0.06455999999999999,-0.0,13.100000000000001,-0.0,0.00538,13.100000000000001,0.012912
6.793760803,-0.23941,13.4,-0.574584,-1.1513200000000001,13.3,-2.7631680000000003,-0.31742000000000004,13.3,-0.761808,-0.09146,13.200000000000001,-0.219504,-0.00538,13.200000000000001,-0.012912,-0.0,13.200000000000001,-0.0,0.00538,13.200000000000001,0.012912
6.827647147,-0.23941,13.5,-0.574584,-1.2400900000000001,13.4,-2.9762160000000004,-0.45192000000000004,13.200000000000001,-1.084608,-0.09415,13.200000000000001,-0.22596,-0.01345,13.100000000000001,-0.032279999999999996,-0.0,13.200000000000001,-0.0,0.00538,13.200000000000001,0.012912
6.860671658,-0.21789,13.5,-0.522936,-1.25354,13.4,-3.008496,-0.41157,13.200000000000001,-0.987768,-0.09684000000000001,13.3,-0.232416,-0.01076,13.200000000000001,-0.025824,-0.0,13.200000000000001,-0.0,0.00538,13.200000000000001,0.012912
6.893491762,-0.19637000000000002,13.5,-0.47128800000000004,-1.20512,13.3,-2.8922879999999997,-0.33087,13.200000000000001,-0.794088,-0.08608,13.3,-0.206592,-0.0269,13.200000000000001,-0.06455999999999999,-0.0,13.200000000000001,-0.0,0.00538,13.200000000000001,0.012912
6.92748668,-0.17485,13.5,-0.41964,-1.22126,13.3,-2.931024,-0.37391,13.200000000000001,-0.8973840000000001,-0.07801000000000001,13.3,-0.18722400000000003,-0.00538,13.200000000000001,-0.012912,-0.0,13.200000000000001,-0.0,0.00538,13.200000000000001,0.012912
6.960386563,-0.1883,13.5,-0.45192,-1.14863,13.4,-2.756712,-0.39005,13.3,-0.93612,-0.08070000000000001,13.200000000000001,-0.19368000000000002,-0.01076,13.200000000000001,-0.025824,-0.0,13.200000000000001,-0.0,0.00538,13.200000000000001,0.012912
6.993384234,-0.18023,13.5,-0.432552,-1.15401,13.4,-2.769624,-0.38467,13.200000000000001,-0.923208,-0.07263,13.3,-0.174312,-0.01614,13.200000000000001,-0.038736,-0.0,13.200000000000001,-0.0,0.00538,13.200000000000001,0.012912
7.02748351,-0.18023,13.600000000000001,-0.432552,-1.14863,13.4,-2.756712,-0.35777000000000003,13.3,-0.8586480000000001,-0.06994,13.3,-0.167856,0.0,13.200000000000001,0.0,-0.0,13.200000000000001,-0.0,0.00538,13.200000000000001,0.012912
7.060369587,-0.17216,13.5,-0.413184,-1.17284,13.3,-2.814816,-0.36046,13.3,-0.865104,-0.07263,13.3,-0.174312,-0.02152,13.200000000000001,-0.051648,-0.0,13.200000000000001,-0.0,0.00538,13.200000000000001,0.012912
7.093319729,-0.15871000000000002,13.5,-0.380904,-1.14325,13.5,-2.7438000000000002,-0.3766,13.3,-0.90384,-0.06725,13.3,-0.16140000000000002,0.0,13.200000000000001,0.0,-0.0,13.200000000000001,-0.0,0.00538,13.200000000000001,0.012912
7.127363185,-0.14257,13.5,-0.34216799999999997,-1.20781,13.5,-2.898744,-0.33894,13.3,-0.8134560000000001,-0.06725,13.3,-0.16140000000000002,0.0,13.200000000000001,0.0,-0.0,13.3,-0.0,0.00538,13.200000000000001,0.012912
7.160312932,-0.15871000000000002,13.5,-0.380904,-1.2105000000000001,13.4,-2.9052000000000002,-0.33625,13.3,-0.8069999999999999,-0.06994,13.3,-0.167856,-0.00538,13.200000000000001,-0.012912,-0.0,13.3,-0.0,0.00538,13.3,0.012912
7.193309756,-0.15064,13.5,-0.36153599999999997,-1.21588,13.4,-2.9181120000000003,-0.37929,13.4,-0.910296,-0.06725,13.3,-0.16140000000000002,0.00269,13.200000000000001,0.006456,-0.0,13.3,-0.0,0.00538,13.3,0.012912
7.227342205,-0.15602000000000002,13.5,-0.37444800000000006,-1.2185700000000002,13.4,-2.9245680000000003,-0.35239000000000004,13.3,-0.845736,-0.07532,13.3,-0.18076799999999998,0.0,13.200000000000001,0.0,-0.0,13.3,-0.0,0.00538,13.3,0.012912
7.260311625,-0.15333,13.600000000000001,-0.367992,-1.22126,13.3,-2.931024,-0.34163,13.3,-0.819912,-0.07532,13.3,-0.18076799999999998,0.0,13.200000000000001,0.0,-0.0,13.3,-0.0,0.00538,13.3,0.012912
7.293381619,-0.16678,13.600000000000001,-0.400272,-1.22126,13.4,-2.931024,-0.34432,13.4,-0.826368,-0.07801000000000001,13.3,-0.18722400000000003,0.0,13.200000000000001,0.0,-0.0,13.3,-0.0,0.00269,13.3,0.006456
7.327270265,-0.17754,13.600000000000001,-0.426096,-1.21588,13.4,-2.9181120000000003,-0.34432,13.3,-0.826368,-0.08070000000000001,13.3,-0.19368000000000002,0.0,13.200000000000001,0.0,-0.0,13.3,-0.0,0.00269,13.3,0.006456
7.360307416,-0.18023,13.5,-0.432552,-1.20781,13.4,-2.898744,-0.33894,13.3,-0.8134560000000001,-0.07801000000000001,13.3,-0.18722400000000003,-0.00538,13.200000000000001,-0.012912,-0.0,13.3,-0.0,0.00269,13.3,0.006456
7.394233167,-0.18023,13.600000000000001,-0.432552,-1.22933,13.4,-2.950392,-0.34163,13.4,-0.819912,-0.08339,13.3,-0.200136,-0.00269,13.200000000000001,-0.006456,-0.0,13.3,-0.0,0.00269,13.3,0.006456
7.427312169,-0.18023,13.5,-0.432552,-1.22664,13.5,-2.943936,-0.3497,13.3,-0.83928,-0.08339,13.3,-0.200136,-0.00807,13.200000000000001,-0.019368,-0.0,13.3,-0.0,0.00269,13.3,0.006456
7.460275088,-0.18023,13.5,-0.432552,-1.22126,13.4,-2.931024,-0.34701000000000004,13.3,-0.8328240000000001,-0.08070000000000001,13.3,-0.19368000000000002,-0.00538,13.200000000000001,-0.012912,-0.0,13.3,-0.0,0.00269,13.3,0.006456
7.494583819,-0.18023,13.600000000000001,-0.432552,-1.2185700000000002,13.3,-2.9245680000000003,-0.3497,13.3,-0.83928,-0.08070000000000001,13.3,-0.19368000000000002,-0.00269,13.200000000000001,-0.006456,-0.0,13.3,-0.0,0.00269,13.3,0.006456
7.52733942,-0.18023,13.600000000000001,-0.432552,-1.21588,13.5,-2.9181120000000003,-0.35508,13.3,-0.852192,-0.08608,13.3,-0.206592,-0.00538,13.200000000000001,-0.012912,-0.0,13.3,-0.0,0.00269,13.3,0.006456
7.560234604,-0.18023,13.600000000000001,-0.432552,-1.22395,13.4,-2.9374800000000003,-0.34701000000000004,13.3,-0.8328240000000001,-0.08070000000000001,13.3,-0.19368000000000002,-0.00538,13.200000000000001,-0.012912,-0.0,13.3,-0.0,0.00269,13.3,0.006456
7.594275739,-0.18023,13.5,-0.432552,-1.22395,13.4,-2.9374800000000003,-0.36046,13.3,-0.865104,-0.08070000000000001,13.3,-0.19368000000000002,-0.00269,13.200000000000001,-0.006456,-0.0,13.3,-0.0,0.00269,13.3,0.006456
7.62722625,-0.18023,13.600000000000001,-0.432552,-1.2185700000000002,13.5,-2.9245680000000003,-0.34701000000000004,13.3,-0.8328240000000001,-0.08339,13.3,-0.200136,-0.00269,13.200000000000001,-0.006456,-0.0,13.3,-0.0,0.00269,13.3,0.006456
7.66001979,-0.16947,13.600000000000001,-0.40672800000000003,-1.22933,13.4,-2.950392,-0.35777000000000003,13.3,-0.8586480000000001,-0.08608,13.3,-0.206592,-0.00538,13.200000000000001,-0.012912,-0.0,13.3,-0.0,0.00269,13.3,0.006456
7.694033158,-0.18023,13.5,-0.432552,-1.21319,13.4,-2.911656,-0.36046,13.3,-0.865104,-0.08339,13.3,-0.200136,-0.00269,13.200000000000001,-0.006456,-0.0,13.3,-0.0,0.00538,13.3,0.012912
7.727221008,-0.18023,13.600000000000001,-0.432552,-1.2105000000000001,13.4,-2.9052000000000002,-0.3497,13.3,-0.83928,-0.08070000000000001,13.3,-0.19368000000000002,-0.00269,13.200000000000001,-0.006456,-0.0,13.3,-0.0,0.00538,13.3,0.012912
7.760079178,-0.17216,13.600000000000001,-0.413184,-1.22126,13.5,-2.931024,-0.36046,13.4,-0.865104,-0.08339,13.3,-0.200136,-0.00269,13.200000000000001,-0.006456,-0.0,13.3,-0.0,0.00538,13.3,0.012912
7.794104844,-0.18023,13.600000000000001,-0.432552,-1.21319,13.4,-2.911656,-0.36046,13.3,-0.865104,-0.08070000000000001,13.3,-0.19368000000000002,-0.00269,13.200000000000001,-0.006456,-0.0,13.3,-0.0,0.00538,13.3,0.012912
7.827040967,-0.18023,13.600000000000001,-0.432552,-1.22664,13.3,-2.943936,-0.34432,13.4,-0.826368,-0.08070000000000001,13.3,-0.19368000000000002,-0.00538,13.200000000000001,-0.012912,-0.0,13.3,-0.0,0.00538,13.3,0.012912
7.859907749,-0.17754,13.600000000000001,-0.426096,-1.22126,13.5,-2.931024,-0.3497,13.3,-0.83928,-0.07532,13.3,-0.18076799999999998,-0.00269,13.200000000000001,-0.006456,-0.0,13.3,-0.0,0.00538,13.3,0.012912
7.894000432,-0.17485,13.600000000000001,-0.41964,-1.21588,13.5,-2.9181120000000003,-0.35239000000000004,13.3,-0.845736,-0.08070000000000001,13.3,-0.19368000000000002,0.0,13.200000000000001,0.0,-0.0,13.3,-0.0,0.00538,13.3,0.012912
7.926989515,-0.18023,13.5,-0.432552,-1.22126,13.4,-2.931024,-0.35777000000000003,13.3,-0.8586480000000001,-0.09146,13.3,-0.219504,0.0,13.200000000000001,0.0,-0.0,13.3,-0.0,0.00538,13.3,0.012912
7.959914996,-0.16409,13.5,-0.393816,-1.21319,13.4,-2.911656,-0.35239000000000004,13.3,-0.845736,-0.08070000000000001,13.3,-0.19368000000000002,0.0,13.200000000000001,0.0,-0.0,13.3,-0.0,0.00538,13.3,0.012912
7.99395862,-0.18023,13.5,-0.432552,-1.22126,13.3,-2.931024,-0.35239000000000004,13.3,-0.845736,-0.08070000000000001,13.3,-0.19368000000000002,-0.00269,13.200000000000001,-0.006456,-0.0,13.3,-0.0,0.00538,13.3,0.012912
8.027014372,-0.18023,13.5,-0.432552,-1.2185700000000002,13.4,-2.9245680000000003,-0.36046,13.3,-0.865104,-0.08070000000000001,13.3,-0.19368000000000002,0.0,13.200000000000001,0.0,-0.0,13.3,-0.0,0.00538,13.3,0.012912
8.059907616,-0.18023,13.600000000000001,-0.432552,-1.21319,13.3,-2.911656,-0.33894,13.3,-0.8134560000000001,-0.08339,13.3,-0.200136,-0.00269,13.200000000000001,-0.006456,-0.0,13.3,-0.0,0.00538,13.3,0.012912
8.093872452,-0.18023,13.600000000000001,-0.432552,-1.22395,13.4,-2.9374800000000003,-0.36046,13.3,-0.865104,-0.08070000000000001,13.3,-0.19368000000000002,-0.00269,13.200000000000001,-0.006456,-0.0,13.3,-0.0,0.00538,13.3,0.012912
8.126942139,-0.18023,13.5,-0.432552,-1.20512,13.4,-2.8922879999999997,-0.33356,13.3,-0.800544,-0.08070000000000001,13.3,-0.19368000000000002,0.0,13.200000000000001,0.0,-0.0,13.3,-0.0,0.00538,13.3,0.012912
8.16093061,-0.18023,13.5,-0.432552,-1.22126,13.4,-2.931024,-0.35777000000000003,13.3,-0.8586480000000001,-0.08339,13.3,-0.200136,-0.00269,13.200000000000001,-0.006456,-0.0,13.3,-0.0,0.00538,13.3,0.012912
8.19391956,-0.18023,13.600000000000001,-0.432552,-1.22126,13.5,-2.931024,-0.35508,13.4,-0.852192,-0.08608,13.3,-0.206592,0.0,13.200000000000001,0.0,-0.0,13.3,-0.0,0.00538,13.3,0.012912
8.226905013,-0.18292,13.5,-0.439008,-1.22126,13.4,-2.931024,-0.34701000000000004,13.3,-0.8328240000000001,-0.09146,13.3,-0.219504,-0.00269,13.200000000000001,-0.006456,-0.0,13.3,-0.0,0.00538,13.3,0.012912
8.26106962,-0.18023,13.5,-0.432552,-1.22664,13.4,-2.943936,-0.3497,13.4,-0.83928,-0.08339,13.3,-0.200136,0.0,13.200000000000001,0.0,-0.0,13.3,-0.0,0.00538,13.3,0.012912
8.293979415,-0.18023,13.600000000000001,-0.432552,-1.2105000000000001,13.4,-2.9052000000000002,-0.34163,13.3,-0.819912,-0.08339,13.3,-0.200136,-0.00269,13.200000000000001,-0.006456,-0.0,13.3,-0.0,0.00538,13.3,0.012912
8.32702133,-0.18023,13.600000000000001,-0.432552,-1.2185700000000002,13.5,-2.9245680000000003,-0.35777000000000003,13.3,-0.8586480000000001,-0.08608,13.3,-0.206592,-0.00269,13.200000000000001,-0.006456,-0.0,13.3,-0.0,0.00538,13.3,0.012912
8.36087726,-0.18023,13.5,-0.432552,-1.2400900000000001,13.4,-2.9762160000000004,-0.35239000000000004,13.3,-0.845736,-0.08339,13.3,-0.200136,0.0,13.200000000000001,0.0,-0.0,13.3,-0.0,0.00538,13.3,0.012912
8.393806572,-0.18023,13.5,-0.432552,-1.22126,13.4,-2.931024,-0.34701000000000004,13.3,-0.8328240000000001,-0.08339,13.3,-0.200136,0.0,13.200000000000001,0.0,-0.0,13.3,-0.0,0.00538,13.3,0.012912
8.426620957,-0.18023,13.5,-0.432552,-1.22126,13.4,-2.931024,-0.34432,13.3,-0.826368,-0.08070000000000001,13.3,-0.19368000000000002,-0.00269,13.200000000000001,-0.006456,-0.0,13.3,-0.0,0.00538,13.3,0.012912
8.460705697,-0.18023,13.5,-0.432552,-1.20512,13.4,-2.8922879999999997,-0.35777000000000003,13.3,-0.8586480000000001,-0.08070000000000001,13.3,-0.19368000000000002,0.0,13.200000000000001,0.0,-0.0,13.3,-0.0,0.00538,13.3,0.012912
8.493726113,-0.18023,13.5,-0.432552,-1.20781,13.4,-2.898744,-0.35239000000000004,13.3,-0.845736,-0.08070000000000001,13.3,-0.19368000000000002,0.0,13.200000000000001,0.0,-0.0,13.3,-0.0,0.00538,13.3,0.012912
8.526713878,-0.18023,13.600000000000001,-0.432552,-1.21588,13.5,-2.9181120000000003,-0.35508,13.3,-0.852192,-0.08070000000000001,13.3,-0.19368000000000002,0.0,13.200000000000001,0.0,-0.0,13.3,-0.0,0.00538,13.3,0.012912
8.560752705,-0.17754,13.5,-0.426096,-1.22395,13.5,-2.9374800000000003,-0.34432,13.3,-0.826368,-0.08339,13.3,-0.200136,0.0,13.200000000000001,0.0,-0.0,13.3,-0.0,0.00538,13.3,0.012912
8.593711245,-0.17216,13.5,-0.413184,-1.2185700000000002,13.4,-2.9245680000000003,-0.34701000000000004,13.4,-0.8328240000000001,-0.08339,13.3,-0.200136,-0.00269,13.200000000000001,-0.006456,-0.0,13.3,-0.0,0.00538,13.3,0.012912
8.626762445,-0.18023,13.5,-0.432552,-1.2105000000000001,13.3,-2.9052000000000002,-0.35239000000000004,13.3,-0.845736,-0.08339,13.3,-0.200136,0.0,13.200000000000001,0.0,-0.0,13.3,-0.0,0.00538,13.3,0.012912
8.660635896,-0.18023,13.600000000000001,-0.432552,-1.2185700000000002,13.5,-2.9245680000000003,-0.3497,13.4,-0.83928,-0.08339,13.3,-0.200136,0.0,13.200000000000001,0.0,-0.0,13.3,-0.0,0.00538,13.3,0.012912
8.69365149,-0.18023,13.5,-0.432552,-1.20512,13.3,-2.8922879999999997,-0.34701000000000004,13.3,-0.8328240000000001,-0.08339,13.3,-0.200136,0.0,13.200000000000001,0.0,-0.0,13.3,-0.0,0.00269,13.3,0.006456
8.726839625,-0.18292,13.600000000000001,-0.439008,-1.22126,13.4,-2.931024,-0.34701000000000004,13.3,-0.8328240000000001,-0.08339,13.3,-0.200136,0.0,13.200000000000001,0.0,-0.0,13.3,-0.0,0.00269,13.3,0.006456
8.760664036,-0.18023,13.600000000000001,-0.432552,-1.21588,13.3,-2.9181120000000003,-0.36046,13.3,-0.865104,-0.08339,13.3,-0.200136,0.0,13.200000000000001,0.0,-0.0,13.3,-0.0,0.00269,13.3,0.006456
8.793701542,-0.17754,13.600000000000001,-0.426096,-1.22395,13.4,-2.9374800000000003,-0.34432,13.3,-0.826368,-0.08339,13.3,-0.200136,0.0,13.200000000000001,0.0,-0.0,13.3,-0.0,0.00269,13.3,0.006456
8.827616425,-0.17216,13.600000000000001,-0.413184,-1.21319,13.4,-2.911656,-0.35239000000000004,13.3,-0.845736,-0.08339,13.3,-0.200136,0.0,13.200000000000001,0.0,-0.0,13.3,-0.0,0.00269,13.3,0.006456
8.860589294,-0.18023,13.5,-0.432552,-1.22395,13.4,-2.9374800000000003,-0.35777000000000003,13.3,-0.8586480000000001,-0.08339,13.3,-0.200136,0.0,13.200000000000001,0.0,-0.0,13.3,-0.0,0.00269,13.3,0.006456
8.893652063,-0.18023,13.600000000000001,-0.432552,-1.22126,13.5,-2.931024,-0.35508,13.3,-0.852192,-0.08339,13.3,-0.200136,0.0,13.200000000000001,0.0,-0.0,13.3,-0.0,0.00269,13.3,0.006456
8.927571862,-0.17485,13.5,-0.41964,-1.21319,13.4,-2.911656,-0.34701000000000004,13.3,-0.8328240000000001,-0.08339,13.3,-0.200136,0.0,13.200000000000001,0.0,-0.0,13.3,-0.0,0.00269,13.3,0.006456
8.960628158,-0.18292,13.5,-0.439008,-1.22126,13.5,-2.931024,-0.35777000000000003,13.3,-0.8586480000000001,-0.08339,13.3,-0.200136,-0.00269,13.200000000000001,-0.006456,-0.0,13.3,-0.0,0.00538,13.3,0.012912
8.993624113,-0.17485,13.5,-0.41964,-1.22126,13.4,-2.931024,-0.35239000000000004,13.3,-0.845736,-0.08608,13.3,-0.206592,0.0,13.200000000000001,0.0,-0.0,13.3,-0.0,0.00538,13.3,0.012912
9.027820613,-0.18023,13.600000000000001,-0.432552,-1.2105000000000001,13.4,-2.9052000000000002,-0.36046,13.3,-0.865104,-0.08339,13.3,-0.200136,0.0,13.200000000000001,0.0,-0.0,13.3,-0.0,0.00538,13.3,0.012912
9.060592242,-0.16678,13.5,-0.400272,-1.21588,13.4,-2.9181120000000003,-0.35239000000000004,13.3,-0.845736,-0.08339,13.3,-0.200136,0.0,13.200000000000001,0.0,-0.0,13.3,-0.0,0.00538,13.3,0.012912
9.093573198,-0.18023,13.600000000000001,-0.432552,-1.2185700000000002,13.4,-2.9245680000000003,-0.35508,13.4,-0.852192,-0.08339,13.3,-0.200136,0.0,13.200000000000001,0.0,-0.0,13.3,-0.0,0.00538,13.3,0.012912
9.127592606,-0.16678,13.600000000000001,-0.400272,-1.21319,13.4,-2.911656,-0.36046,13.4,-0.865104,-0.08339,13.3,-0.200136,0.0,13.200000000000001,0.0,-0.0,13.200000000000001,-0.0,0.00538,13.3,0.012912
9.160554692,-0.17754,13.600000000000001,-0.426096,-1.21588,13.4,-2.9181120000000003,-0.35508,13.3,-0.852192,-0.08339,13.3,-0.200136,0.0,13.200000000000001,0.0,-0.0,13.3,-0.0,0.00538,13.3,0.012912
9.193468755,-0.18023,13.5,-0.432552,-1.21319,13.5,-2.911656,-0.35239000000000004,13.3,-0.845736,-0.08339,13.3,-0.200136,-0.00269,13.200000000000001,-0.006456,-0.0,13.3,-0.0,0.00538,13.3,0.012912
9.227530829,-0.18023,13.600000000000001,-0.432552,-1.2185700000000002,13.5,-2.9245680000000003,-0.35777000000000003,13.3,-0.8586480000000001,-0.08339,13.3,-0.200136,-0.00269,13.200000000000001,-0.006456,-0.0,13.3,-0.0,0.00538,13.3,0.012912
9.260361969,-0.18023,13.5,-0.432552,-1.20781,13.5,-2.898744,-0.3497,13.3,-0.83928,-0.08339,13.3,-0.200136,0.0,13.200000000000001,0.0,-0.0,13.3,-0.0,0.00538,13.3,0.012912
9.293345607,-0.17216,13.600000000000001,-0.413184,-1.21588,13.4,-2.9181120000000003,-0.36046,13.4,-0.865104,-0.08339,13.3,-0.200136,0.0,13.200000000000001,0.0,-0.0,13.3,-0.0,0.00538,13.3,0.012912
9.327391225,-0.17754,13.600000000000001,-0.426096,-1.20781,13.5,-2.898744,-0.33894,13.4,-0.8134560000000001,-0.08877,13.3,-0.213048,-0.00269,13.200000000000001,-0.006456,-0.0,13.3,-0.0,0.00538,13.3,0.012912
9.360332995,-0.18023,13.600000000000001,-0.432552,-1.21319,13.4,-2.911656,-0.35239000000000004,13.3,-0.845736,-0.08608,13.3,-0.206592,0.0,13.200000000000001,0.0,-0.0,13.3,-0.0,0.00538,13.3,0.012912
9.393387042,-0.16140000000000002,13.600000000000001,-0.38736000000000004,-1.22664,13.4,-2.943936,-0.34163,13.3,-0.819912,-0.08339,13.3,-0.200136,0.0,13.200000000000001,0.0,-0.0,13.3,-0.0,0.00538,13.3,0.012912
9.427339726,-0.16947,13.600000000000001,-0.40672800000000003,-1.2105000000000001,13.4,-2.9052000000000002,-0.35508,13.3,-0.852192,-0.08339,13.3,-0.200136,0.0,13.200000000000001,0.0,-0.0,13.3,-0.0,0.00538,13.3,0.012912
9.460466889,-0.18023,13.5,-0.432552,-1.22664,13.5,-2.943936,-0.33894,13.3,-0.8134560000000001,-0.08339,13.3,-0.200136,-0.00269,13.200000000000001,-0.006456,-0.0,13.3,-0.0,0.00538,13.3,0.012912
9.493385097,-0.18023,13.5,-0.432552,-1.2185700000000002,13.3,-2.9245680000000003,-0.3497,13.3,-0.83928,-0.08339,13.3,-0.200136,0.0,13.200000000000001,0.0,-0.0,13.3,-0.0,0.00538,13.3,0.012912
9.527346089,-0.17754,13.600000000000001,-0.426096,-1.21319,13.4,-2.911656,-0.3497,13.3,-0.83928,-0.08339,13.3,-0.200136,-0.00538,13.200000000000001,-0.012912,-0.0,13.3,-0.0,0.00538,13.3,0.012912
9.560289588,-0.18023,13.600000000000001,-0.432552,-1.2185700000000002,13.4,-2.9245680000000003,-0.35508,13.3,-0.852192,-0.08339,13.3,-0.200136,-0.00269,13.200000000000001,-0.006456,-0.0,13.3,-0.0,0.00538,13.3,0.012912
9.5933419,-0.18023,13.5,-0.432552,-1.20781,13.4,-2.898744,-0.34432,13.3,-0.826368,-0.08339,13.3,-0.200136,0.0,13.200000000000001,0.0,-0.0,13.3,-0.0,0.00538,13.3,0.012912
9.627386847,-0.18023,13.5,-0.432552,-1.21319,13.4,-2.911656,-0.34432,13.4,-0.826368,-0.08339,13.3,-0.200136,0.0,13.200000000000001,0.0,-0.0,13.3,-0.0,0.00538,13.3,0.012912
9.660292477,-0.18023,13.5,-0.432552,-1.21319,13.4,-2.911656,-0.36046,13.3,-0.865104,-0.08339,13.3,-0.200136,-0.00269,13.200000000000001,-0.006456,-0.0,13.3,-0.0,0.00538,13.3,0.012912
9.694324644,-0.18023,13.600000000000001,-0.432552,-1.21588,13.4,-2.9181120000000003,-0.34163,13.3,-0.819912,-0.08339,13.3,-0.200136,-0.00538,13.200000000000001,-0.012912,-0.0,13.3,-0.0,0.00538,13.3,0.012912
9.727274909,-0.18023,13.600000000000001,-0.432552,-1.22395,13.4,-2.9374800000000003,-0.34701000000000004,13.3,-0.8328240000000001,-0.08070000000000001,13.3,-0.19368000000000002,-0.00269,13.200000000000001,-0.006456,-0.0,13.3,-0.0,0.00538,13.3,0.012912
9.760399536,-0.18023,13.5,-0.432552,-1.21319,13.5,-2.911656,-0.34701000000000004,13.3,-0.8328240000000001,-0.08070000000000001,13.3,-0.19368000000000002,-0.00269,13.200000000000001,-0.006456,-0.0,13.3,-0.0,0.00538,13.3,0.012912
9.794534046,-0.17754,13.600000000000001,-0.426096,-1.2185700000000002,13.4,-2.9245680000000003,-0.34163,13.3,-0.819912,-0.08339,13.3,-0.200136,-0.00269,13.200000000000001,-0.006456,-0.0,13.3,-0.0,0.00538,13.3,0.012912
9.827330489,-0.17216,13.600000000000001,-0.413184,-1.22933,13.3,-2.950392,-0.36046,13.4,-0.865104,-0.08339,13.3,-0.200136,0.0,13.200000000000001,0.0,-0.0,13.3,-0.0,0.00538,13.3,0.012912
9.860168014,-0.18023,13.600000000000001,-0.432552,-1.20243,13.4,-2.885832,-0.35239000000000004,13.3,-0.845736,-0.08339,13.3,-0.200136,0.0,13.200000000000001,0.0,-0.0,13.3,-0.0,0.00538,13.3,0.012912
9.894165353,-0.17754,13.5,-0.426096,-1.20781,13.4,-2.898744,-0.34163,13.3,-0.819912,-0.08339,13.3,-0.200136,-0.00269,13.200000000000001,-0.006456,-0.0,13.3,-0.0,0.00538,13.3,0.012912
9.927246807,-0.16947,13.5,-0.40672800000000003,-1.2105000000000001,13.4,-2.9052000000000002,-0.35777000000000003,13.3,-0.8586480000000001,-0.09146,13.3,-0.219504,0.0,13.200000000000001,0.0,-0.0,13.3,-0.0,0.00538,13.3,0.012912
9.960145349,-0.17485,13.600000000000001,-0.41964,-1.22126,13.5,-2.931024,-0.35239000000000004,13.4,-0.845736,-0.08339,13.3,-0.200136,-0.00269,13.200000000000001,-0.006456,-0.0,13.3,-0.0,0.00538,13.3,0.012912
9.99441511,-0.18023,13.5,-0.432552,-1.21588,13.3,-2.9181120000000003,-0.36046,13.3,-0.865104,-0.08339,13.3,-0.200136,0.0,13.200000000000001,0.0,-0.0,13.3,-0.0,0.00538,13.3,0.012912
10.027280451,-0.17485,13.5,-0.41964,-1.2185700000000002,13.5,-2.9245680000000003,-0.35777000000000003,13.3,-0.8586480000000001,-0.08339,13.3,-0.200136,-0.00269,13.200000000000001,-0.006456,-0.0,13.3,-0.0,0.00538,13.200000000000001,0.012912
10.060292051,-0.16140000000000002,13.5,-0.38736000000000004,-1.22933,13.3,-2.950392,-0.36046,13.3,-0.865104,-0.08070000000000001,13.3,-0.19368000000000002,-0.00269,13.200000000000001,-0.006456,-0.0,13.3,-0.0,0.00538,13.3,0.012912
10.094224721,-0.18023,13.600000000000001,-0.432552,-1.2185700000000002,13.5,-2.9245680000000003,-0.34432,13.3,-0.826368,-0.08339,13.3,-0.200136,0.0,13.200000000000001,0.0,-0.0,13.3,-0.0,0.00538,13.3,0.012912
10.127297939,-0.17754,13.5,-0.426096,-1.21588,13.4,-2.9181120000000003,-0.35239000000000004,13.200000000000001,-0.845736,-0.08339,13.3,-0.200136,0.0,13.200000000000001,0.0,-0.0,13.3,-0.0,0.00538,13.3,0.012912
10.16012566,-0.18023,13.600000000000001,-0.432552,-1.2320200000000001,13.4,-2.9568480000000004,-0.36046,13.3,-0.865104,-0.08339,13.3,-0.200136,0.0,13.200000000000001,0.0,-0.0,13.3,-0.0,-0.0,13.3,-0.0
10.19408654,-0.16947,13.5,-0.40672800000000003,-1.22126,13.5,-2.931024,-0.35508,13.3,-0.852192,-0.08339,13.3,-0.200136,0.0,13.3,0.0,-0.0,13.3,-0.0,-0.0,13.3,-0.0
10.227078566,-0.18023,13.600000000000001,-0.432552,-1.20512,13.4,-2.8922879999999997,-0.35508,13.3,-0.852192,-0.08339,13.3,-0.200136,0.0,13.3,0.0,-0.0,13.3,-0.0,-0.0,13.3,-0.0
10.26030199,-0.16409,13.5,-0.393816,-1.22664,13.3,-2.943936,-0.35777000000000003,13.3,-0.8586480000000001,-0.08070000000000001,13.3,-0.19368000000000002,0.0,13.3,0.0,-0.0,13.3,-0.0,-0.0,13.3,-0.0
10.294242075,-0.17216,13.5,-0.413184,-1.20512,13.4,-2.8922879999999997,-0.3497,13.3,-0.83928,-0.08877,13.3,-0.213048,-0.00269,13.3,-0.006456,-0.0,13.3,-0.0,-0.0,13.3,-0.0
10.327178584,-0.17216,13.5,-0.413184,-1.20781,13.3,-2.898744,-0.3497,13.3,-0.83928,-0.08339,13.3,-0.200136,0.0,13.3,0.0,-0.0,13.3,-0.0,-0.0,13.3,-0.0
10.361167713,-0.16409,13.600000000000001,-0.393816,-1.21319,13.4,-2.911656,-0.35777000000000003,13.3,-0.8586480000000001,-0.08070000000000001,13.3,-0.19368000000000002,0.0,13.3,0.0,-0.0,13.3,-0.0,0.00269,13.3,0.006456
10.394141275,-0.17485,13.600000000000001,-0.41964,-1.19974,13.3,-2.879376,-0.35239000000000004,13.3,-0.845736,-0.08339,13.3,-0.200136,0.0,13.3,0.0,-0.0,13.3,-0.0,0.00269,13.3,0.006456
10.427075703,-0.17485,13.5,-0.41964,-1.20243,13.4,-2.885832,-0.35508,13.3,-0.852192,-0.08339,13.3,-0.200136,0.0,13.3,0.0,-0.0,13.3,-0.0,0.00538,13.3,0.012912
10.461103906,-0.17485,13.600000000000001,-0.41964,-1.2105000000000001,13.4,-2.9052000000000002,-0.36046,13.3,-0.865104,-0.08070000000000001,13.3,-0.19368000000000002,0.0,13.3,0.0,-0.0,13.3,-0.0,0.00538,13.3,0.012912
10.49404024,-0.15871000000000002,13.600000000000001,-0.380904,-1.21588,13.4,-2.9181120000000003,-0.35508,13.4,-0.852192,-0.08070000000000001,13.3,-0.19368000000000002,0.0,13.3,0.0,-0.0,13.3,-0.0,0.00538,13.3,0.012912
10.5270482,-0.17485,13.5,-0.41964,-1.21588,13.5,-2.9181120000000003,-0.35239000000000004,13.4,-0.845736,-0.08070000000000001,13.3,-0.19368000000000002,0.0,13.3,0.0,-0.0,13.3,-0.0,0.00538,13.3,0.012912
10.56100087,-0.18023,13.5,-0.432552,-1.21319,13.3,-2.911656,-0.35239000000000004,13.4,-0.845736,-0.08339,13.3,-0.200136,0.0,13.3,0.0,-0.0,13.3,-0.0,0.00538,13.3,0.012912
10.594053071,-0.18023,13.5,-0.432552,-1.20512,13.4,-2.8922879999999997,-0.34163,13.3,-0.819912,-0.08339,13.3,-0.200136,0.0,13.3,0.0,-0.0,13.3,-0.0,0.00538,13.3,0.012912
10.627000359,-0.18023,13.5,-0.432552,-1.21588,13.4,-2.9181120000000003,-0.35508,13.200000000000001,-0.852192,-0.08339,13.3,-0.200136,0.0,13.3,0.0,-0.0,13.3,-0.0,0.00538,13.3,0.012912
10.66110956,-0.17216,13.5,-0.413184,-1.21588,13.5,-2.9181120000000003,-0.35508,13.3,-0.852192,-0.08339,13.3,-0.200136,0.0,13.3,0.0,-0.0,13.3,-0.0,0.00538,13.3,0.012912
10.693997812,-0.17216,13.600000000000001,-0.413184,-1.20243,13.5,-2.885832,-0.33894,13.3,-0.8134560000000001,-0.08070000000000001,13.3,-0.19368000000000002,0.0,13.3,0.0,-0.0,13.3,-0.0,0.00538,13.3,0.012912
10.726966052,-0.17216,13.600000000000001,-0.413184,-1.22395,13.4,-2.9374800000000003,-0.35508,13.3,-0.852192,-0.08070000000000001,13.3,-0.19368000000000002,-0.00269,13.3,-0.006456,-0.0,13.3,-0.0,0.00538,13.3,0.012912
10.760910426,-0.17485,13.5,-0.41964,-1.19974,13.4,-2.879376,-0.35508,13.3,-0.852192,-0.08070000000000001,13.3,-0.19368000000000002,0.0,13.3,0.0,-0.0,13.3,-0.0,0.00538,13.3,0.012912
10.793942623,-0.17485,13.5,-0.41964,-1.2105000000000001,13.5,-2.9052000000000002,-0.36046,13.3,-0.865104,-0.08339,13.3,-0.200136,0.0,13.3,0.0,-0.0,13.3,-0.0,0.00538,13.3,0.012912
10.827057908,-0.16678,13.5,-0.400272,-1.20512,13.4,-2.8922879999999997,-0.35777000000000003,13.3,-0.8586480000000001,-0.08339,13.3,-0.200136,-0.00538,13.3,-0.012912,-0.0,13.3,-0.0,0.00538,13.3,0.012912
10.860895441,-0.17754,13.5,-0.426096,-1.19974,13.4,-2.879376,-0.35777000000000003,13.3,-0.8586480000000001,-0.08339,13.3,-0.200136,-0.00538,13.3,-0.012912,-0.0,13.3,-0.0,0.00538,13.3,0.012912
10.893839875,-0.17754,13.600000000000001,-0.426096,-1.20781,13.5,-2.898744,-0.36046,13.3,-0.865104,-0.08339,13.3,-0.200136,0.0,13.3,0.0,-0.0,13.3,-0.0,0.00538,13.3,0.012912
10.926821773,-0.18023,13.600000000000001,-0.432552,-1.21588,13.4,-2.9181120000000003,-0.3497,13.4,-0.83928,-0.08339,13.3,-0.200136,0.0,13.3,0.0,-0.0,13.3,-0.0,0.00538,13.3,0.012912
10.960855714,-0.17485,13.5,-0.41964,-1.20512,13.4,-2.8922879999999997,-0.35508,13.4,-0.852192,-0.08339,13.3,-0.200136,0.0,13.3,0.0,-0.0,13.3,-0.0,0.00538,13.3,0.012912
10.993793465,-0.17216,13.600000000000001,-0.413184,-1.2185700000000002,13.4,-2.9245680000000003,-0.36046,13.3,-0.865104,-0.08339,13.3,-0.200136,0.0,13.3,0.0,-0.0,13.3,-0.0,0.00538,13.3,0.012912
11.027845709,-0.16947,13.5,-0.40672800000000003,-1.20243,13.4,-2.885832,-0.36046,13.3,-0.865104,-0.08339,13.3,-0.200136,0.0,13.3,0.0,-0.0,13.3,-0.0,0.00538,13.3,0.012912
11.060800746,-0.16409,13.600000000000001,-0.393816,-1.22126,13.4,-2.931024,-0.33625,13.3,-0.8069999999999999,-0.08339,13.3,-0.200136,0.0,13.3,0.0,-0.0,13.3,-0.0,0.00538,13.3,0.012912
11.093688039,-0.17485,13.600000000000001,-0.41964,-1.20512,13.4,-2.8922879999999997,-0.36046,13.3,-0.865104,-0.08339,13.3,-0.200136,0.0,13.3,0.0,-0.0,13.3,-0.0,0.00538,13.3,0.012912
11.127718219,-0.16947,13.600000000000001,-0.40672800000000003,-1.20781,13.3,-2.898744,-0.35508,13.3,-0.852192,-0.08070000000000001,13.3,-0.19368000000000002,-0.00269,13.3,-0.006456,-0.0,13.3,-0.0,0.00538,13.3,0.012912
11.160848323,-0.15602000000000002,13.600000000000001,-0.37444800000000006,-1.22395,13.5,-2.9374800000000003,-0.34701000000000004,13.3,-0.8328240000000001,-0.08070000000000001,13.3,-0.19368000000000002,-0.00269,13.3,-0.006456,-0.0,13.3,-0.0,0.00538,13.3,0.012912
11.19366823,-0.17485,13.5,-0.41964,-1.20781,13.3,-2.898744,-0.3497,13.3,-0.83928,-0.08070000000000001,13.3,-0.19368000000000002,0.0,13.3,0.0,-0.0,13.3,-0.0,0.00538,13.3,0.012912
11.227752179,-0.16678,13.600000000000001,-0.400272,-1.20781,13.4,-2.898744,-0.35239000000000004,13.3,-0.845736,-0.08070000000000001,13.3,-0.19368000000000002,-0.00269,13.3,-0.006456,-0.0,13.3,-0.0,0.00538,13.3,0.012912
11.260765153,-0.16947,13.5,-0.40672800000000003,-1.21588,13.5,-2.9181120000000003,-0.32818,13.3,-0.787632,-0.08339,13.3,-0.200136,0.0,13.3,0.0,-0.0,13.3,-0.0,0.00269,13.3,0.006456
11.293659893,-0.15602000000000002,13.600000000000001,-0.37444800000000006,-1.2185700000000002,13.4,-2.9245680000000003,-0.36046,13.4,-0.865104,-0.08339,13.3,-0.200136,0.0,13.3,0.0,-0.0,13.3,-0.0,0.00269,13.3,0.006456
11.327597694,-0.16947,13.600000000000001,-0.40672800000000003,-1.2105000000000001,13.4,-2.9052000000000002,-0.34163,13.3,-0.819912,-0.08339,13.3,-0.200136,0.0,13.3,0.0,-0.0,13.3,-0.0,0.00269,13.3,0.006456
11.360680633,-0.16409,13.5,-0.393816,-1.22126,13.4,-2.931024,-0.35777000000000003,13.3,-0.8586480000000001,-0.08339,13.3,-0.200136,0.0,13.3,0.0,-0.0,13.3,-0.0,0.00269,13.3,0.006456
11.393652283,-0.17754,13.600000000000001,-0.426096,-1.21319,13.4,-2.911656,-0.33894,13.4,-0.8134560000000001,-0.08339,13.3,-0.200136,-0.00269,13.3,-0.006456,-0.0,13.3,-0.0,0.00269,13.3,0.006456
11.427648212,-0.14795,13.5,-0.35508,-1.21319,13.5,-2.911656,-0.35508,13.3,-0.852192,-0.08339,13.3,-0.200136,-0.00269,13.3,-0.006456,-0.0,13.3,-0.0,0.00269,13.3,0.006456
11.460534231,-0.17216,13.600000000000001,-0.413184,-1.2105000000000001,13.4,-2.9052000000000002,-0.35777000000000003,13.3,-0.8586480000000001,-0.08339,13.3,-0.200136,0.0,13.3,0.0,-0.0,13.3,-0.0,0.00269,13.3,0.006456
11.493700448,-0.16947,13.600000000000001,-0.40672800000000003,-1.20781,13.4,-2.898744,-0.35777000000000003,13.3,-0.8586480000000001,-0.08339,13.3,-0.200136,0.0,13.3,0.0,-0.0,13.3,-0.0,0.00269,13.3,0.006456
11.527504559,-0.16409,13.5,-0.393816,-1.20243,13.4,-2.885832,-0.34701000000000004,13.3,-0.8328240000000001,-0.08339,13.3,-0.200136,0.0,13.3,0.0,-0.0,13.3,-0.0,0.00269,13.3,0.006456
11.560460349,-0.17216,13.600000000000001,-0.413184,-1.20512,13.5,-2.8922879999999997,-0.3497,13.3,-0.83928,-0.08339,13.3,-0.200136,0.0,13.3,0.0,-0.0,13.3,-0.0,0.00269,13.3,0.006456
11.593662012,-0.17216,13.5,-0.413184,-1.22126,13.5,-2.931024,-0.36046,13.3,-0.865104,-0.08339,13.3,-0.200136,0.0,13.3,0.0,-0.0,13.3,-0.0,0.00269,13.3,0.006456
11.627394079,-0.15871000000000002,13.5,-0.380904,-1.20512,13.5,-2.8922879999999997,-0.36046,13.200000000000001,-0.865104,-0.08339,13.3,-0.200136,0.0,13.3,0.0,-0.0,13.3,-0.0,0.00269,13.3,0.006456
11.660682528,-0.16947,13.5,-0.40672800000000003,-1.20243,13.4,-2.885832,-0.35508,13.4,-0.852192,-0.08339,13.3,-0.200136,0.0,13.3,0.0,-0.0,13.3,-0.0,0.00269,13.3,0.006456
11.693475173,-0.17754,13.5,-0.426096,-1.20512,13.3,-2.8922879999999997,-0.35777000000000003,13.3,-0.8586480000000001,-0.08339,13.3,-0.200136,0.0,13.3,0.0,-0.0,13.3,-0.0,0.00269,13.3,0.006456
11.727722252,-0.17485,13.5,-0.41964,-1.20781,13.4,-2.898744,-0.35239000000000004,13.3,-0.845736,-0.08339,13.3,-0.200136,0.0,13.3,0.0,-0.0,13.3,-0.0,0.00269,13.3,0.006456
11.760327484,-0.17485,13.600000000000001,-0.41964,-1.20781,13.3,-2.898744,-0.36046,13.3,-0.865104,-0.08070000000000001,13.3,-0.19368000000000002,0.0,13.3,0.0,-0.0,13.3,-0.0,0.00269,13.3,0.006456
11.793328362,-0.17754,13.600000000000001,-0.426096,-1.21588,13.5,-2.9181120000000003,-0.36046,13.3,-0.865104,-0.08339,13.3,-0.200136,0.0,13.3,0.0,-0.0,13.3,-0.0,0.00269,13.3,0.006456
11.827627041,-0.17754,13.600000000000001,-0.426096,-1.20781,13.4,-2.898744,-0.36046,13.3,-0.865104,-0.07532,13.3,-0.18076799999999998,-0.00269,13.3,-0.006456,-0.0,13.3,-0.0,0.00269,13.3,0.006456
11.860523853,-0.16678,13.5,-0.400272,-1.20781,13.4,-2.898744,-0.33894,13.3,-0.8134560000000001,-0.08339,13.3,-0.200136,0.0,13.3,0.0,-0.0,13.3,-0.0,0.00269,13.3,0.006456
11.894469941,-0.17754,13.5,-0.426096,-1.20512,13.5,-2.8922879999999997,-0.35508,13.4,-0.852192,-0.08608,13.3,-0.206592,0.0,13.3,0.0,-0.0,13.3,-0.0,0.00269,13.3,0.006456
11.927380734,-0.17754,13.600000000000001,-0.426096,-1.20512,13.4,-2.8922879999999997,-0.3497,13.3,-0.83928,-0.08339,13.3,-0.200136,0.0,13.3,0.0,-0.0,13.3,-0.0,0.00269,13.3,0.006456
11.96032221,-0.16947,13.5,-0.40672800000000003,-1.20512,13.5,-2.8922879999999997,-0.34701000000000004,13.3,-0.8328240000000001,-0.08339,13.3,-0.200136,0.0,13.3,0.0,-0.0,13.3,-0.0,0.00269,13.3,0.006456
11.994371074,-0.18023,13.600000000000001,-0.432552,-1.2105000000000001,13.5,-2.9052000000000002,-0.34432,13.3,-0.826368,-0.08339,13.3,-0.200136,0.0,13.3,0.0,-0.0,13.3,-0.0,0.00269,13.3,0.006456
12.027565947,-0.17216,13.5,-0.413184,-1.20781,13.4,-2.898744,-0.36046,13.3,-0.865104,-0.08339,13.3,-0.200136,0.0,13.3,0.0,-0.0,13.3,-0.0,0.00269,13.3,0.006456
12.060644134,-0.18023,13.600000000000001,-0.432552,-1.2185700000000002,13.4,-2.9245680000000003,-0.36046,13.4,-0.865104,-0.08339,13.3,-0.200136,0.0,13.3,0.0,-0.0,13.3,-0.0,0.00269,13.3,0.006456
12.094371339,-0.18023,13.5,-0.432552,-1.20512,13.4,-2.8922879999999997,-0.35777000000000003,13.3,-0.8586480000000001,-0.08339,13.3,-0.200136,0.0,13.3,0.0,-0.0,13.3,-0.0,0.00269,13.3,0.006456
12.127324177,-0.17485,13.600000000000001,-0.41964,-1.20512,13.3,-2.8922879999999997,-0.36046,13.3,-0.865104,-0.08339,13.3,-0.200136,0.0,13.3,0.0,-0.0,13.3,-0.0,0.00269,13.3,0.006456
12.160300495,-0.16947,13.5,-0.40672800000000003,-1.20781,13.5,-2.898744,-0.35239000000000004,13.3,-0.845736,-0.08339,13.3,-0.200136,0.0,13.3,0.0,-0.0,13.3,-0.0,0.00269,13.3,0.006456
12.194280426,-0.18023,13.600000000000001,-0.432552,-1.2185700000000002,13.3,-2.9245680000000003,-0.35508,13.3,-0.852192,-0.08339,13.3,-0.200136,-0.00269,13.3,-0.006456,-0.0,13.3,-0.0,0.00269,13.3,0.006456
12.227409015,-0.16947,13.5,-0.40672800000000003,-1.19974,13.4,-2.879376,-0.35777000000000003,13.3,-0.8586480000000001,-0.08339,13.3,-0.200136,0.0,13.3,0.0,-0.0,13.3,-0.0,0.00269,13.3,0.006456
12.260733773,-0.17485,13.600000000000001,-0.41964,-1.20512,13.3,-2.8922879999999997,-0.36046,13.3,-0.865104,-0.08339,13.3,-0.200136,0.0,13.3,0.0,-0.0,13.3,-0.0,0.00269,13.3,0.006456
12.294351776,-0.18023,13.5,-0.432552,-1.20781,13.4,-2.898744,-0.36046,13.3,-0.865104,-0.08339,13.3,-0.200136,0.0,13.3,0.0,-0.0,13.3,-0.0,0.00269,13.3,0.006456
12.327272779,-0.17216,13.600000000000001,-0.413184,-1.19974,13.4,-2.879376,-0.35777000000000003,13.3,-0.8586480000000001,-0.08339,13.3,-0.200136,0.0,13.3,0.0,-0.0,13.3,-0.0,0.00538,13.3,0.012912
12.360346029,-0.18023,13.5,-0.432552,-1.21588,13.4,-2.9181120000000003,-0.34432,13.3,-0.826368,-0.08339,13.3,-0.200136,0.0,13.3,0.0,-0.0,13.3,-0.0,0.00538,13.3,0.012912
12.394337087,-0.17754,13.600000000000001,-0.426096,-1.2105000000000001,13.4,-2.9052000000000002,-0.36315000000000003,13.4,-0.87156,-0.08339,13.3,-0.200136,0.0,13.3,0.0,-0.0,13.3,-0.0,0.00538,13.3,0.012912
12.427126877,-0.18023,13.5,-0.432552,-1.21319,13.5,-2.911656,-0.36046,13.3,-0.865104,-0.08608,13.3,-0.206592,0.0,13.3,0.0,-0.0,13.3,-0.0,0.00538,13.3,0.012912
12.460148446,-0.18023,13.5,-0.432552,-1.19974,13.5,-2.879376,-0.35239000000000004,13.3,-0.845736,-0.08339,13.3,-0.200136,0.0,13.3,0.0,-0.0,13.3,-0.0,0.00538,13.3,0.012912
12.49407028,-0.17216,13.5,-0.413184,-1.19974,13.3,-2.879376,-0.35508,13.3,-0.852192,-0.08339,13.3,-0.200136,0.0,13.3,0.0,-0.0,13.3,-0.0,0.00538,13.3,0.012912
12.527179007,-0.17754,13.600000000000001,-0.426096,-1.20512,13.4,-2.8922879999999997,-0.35508,13.3,-0.852192,-0.08339,13.3,-0.200136,0.0,13.3,0.0,-0.0,13.3,-0.0,0.00538,13.3,0.012912
12.559995205,-0.18023,13.600000000000001,-0.432552,-1.2185700000000002,13.5,-2.9245680000000003,-0.36046,13.3,-0.865104,-0.08339,13.3,-0.200136,0.0,13.3,0.0,-0.0,13.3,-0.0,0.00538,13.3,0.012912
12.594324221,-0.18023,13.600000000000001,-0.432552,-1.21319,13.5,-2.911656,-0.34701000000000004,13.3,-0.8328240000000001,-0.08339,13.3,-0.200136,0.0,13.3,0.0,-0.0,13.3,-0.0,0.00538,13.3,0.012912
12.626953952,-0.18023,13.600000000000001,-0.432552,-1.20243,13.3,-2.885832,-0.36046,13.3,-0.865104,-0.08339,13.3,-0.200136,-0.00269,13.3,-0.006456,-0.0,13.3,-0.0,0.00538,13.3,0.012912
12.661139686,-0.17754,13.5,-0.426096,-1.2105000000000001,13.4,-2.9052000000000002,-0.36315000000000003,13.3,-0.87156,-0.08339,13.3,-0.200136,0.0,13.3,0.0,-0.0,13.3,-0.0,0.00538,13.3,0.012912
12.693948232,-0.16947,13.5,-0.40672800000000003,-1.19436,13.4,-2.866464,-0.35777000000000003,13.3,-0.8586480000000001,-0.08339,13.3,-0.200136,0.0,13.3,0.0,-0.0,13.3,-0.0,0.00538,13.3,0.012912
12.726832904,-0.16947,13.5,-0.40672800000000003,-1.2105000000000001,13.4,-2.9052000000000002,-0.34701000000000004,13.3,-0.8328240000000001,-0.08339,13.3,-0.200136,0.0,13.3,0.0,-0.0,13.3,-0.0,0.00538,13.3,0.012912
12.760903112,-0.18023,13.600000000000001,-0.432552,-1.19974,13.3,-2.879376,-0.34432,13.3,-0.826368,-0.08339,13.3,-0.200136,0.0,13.3,0.0,-0.0,13.3,-0.0,0.00538,13.3,0.012912
12.793842812,-0.17754,13.5,-0.426096,-1.20243,13.4,-2.885832,-0.36046,13.3,-0.865104,-0.08070000000000001,13.3,-0.19368000000000002,0.0,13.3,0.0,-0.0,13.3,-0.0,0.00538,13.3,0.012912
12.826939055,-0.17216,13.600000000000001,-0.413184,-1.21319,13.3,-2.911656,-0.36046,13.3,-0.865104,-0.08070000000000001,13.3,-0.19368000000000002,0.0,13.3,0.0,-0.0,13.3,-0.0,0.00538,13.3,0.012912
12.86098014,-0.17216,13.600000000000001,-0.413184,-1.20512,13.4,-2.8922879999999997,-0.35777000000000003,13.4,-0.8586480000000001,-0.08070000000000001,13.3,-0.19368000000000002,0.0,13.3,0.0,-0.0,13.3,-0.0,0.00538,13.3,0.012912
12.893878255,-0.17485,13.600000000000001,-0.41964,-1.20243,13.4,-2.885832,-0.33894,13.3,-0.8134560000000001,-0.08339,13.3,-0.200136,-0.00538,13.3,-0.012912,-0.0,13.3,-0.0,0.00538,13.3,0.012912
12.926929082,-0.16947,13.5,-0.40672800000000003,-1.20781,13.4,-2.898744,-0.35508,13.3,-0.852192,-0.08339,13.3,-0.200136,0.0,13.3,0.0,-0.0,13.3,-0.0,0.00538,13.3,0.012912
12.960895082,-0.16678,13.600000000000001,-0.400272,-1.20512,13.4,-2.8922879999999997,-0.36046,13.3,-0.865104,-0.08339,13.3,-0.200136,0.0,13.3,0.0,-0.0,13.3,-0.0,0.00538,13.3,0.012912
12.993964146,-0.18023,13.5,-0.432552,-1.20243,13.5,-2.885832,-0.33894,13.3,-0.8134560000000001,-0.08339,13.3,-0.200136,0.0,13.3,0.0,-0.0,13.3,-0.0,0.00538,13.3,0.012912
13.026900018,-0.18023,13.5,-0.432552,-1.19974,13.4,-2.879376,-0.36046,13.3,-0.865104,-0.08339,13.3,-0.200136,0.0,13.3,0.0,-0.0,13.3,-0.0,0.00538,13.3,0.012912
13.060894426,-0.18023,13.5,-0.432552,-1.19705,13.5,-2.8729199999999997,-0.34701000000000004,13.3,-0.8328240000000001,-0.08070000000000001,13.3,-0.19368000000000002,-0.00269,13.3,-0.006456,-0.0,13.3,-0.0,0.00538,13.3,0.012912
13.093886251,-0.17216,13.5,-0.413184,-1.19974,13.5,-2.879376,-0.33894,13.3,-0.8134560000000001,-0.08070000000000001,13.3,-0.19368000000000002,0.0,13.3,0.0,-0.0,13.3,-0.0,0.00269,13.3,0.006456
13.126768385,-0.17485,13.5,-0.41964,-1.2105000000000001,13.3,-2.9052000000000002,-0.35508,13.3,-0.852192,-0.08070000000000001,13.3,-0.19368000000000002,0.0,13.3,0.0,-0.0,13.3,-0.0,0.00269,13.3,0.006456
13.16087072,-0.17485,13.5,-0.41964,-1.19705,13.4,-2.8729199999999997,-0.34163,13.3,-0.819912,-0.08070000000000001,13.3,-0.19368000000000002,-0.00269,13.3,-0.006456,-0.0,13.3,-0.0,0.00538,13.3,0.012912
13.193888366,-0.18292,13.600000000000001,-0.439008,-1.2105000000000001,13.4,-2.9052000000000002,-0.35777000000000003,13.3,-0.8586480000000001,-0.08070000000000001,13.3,-0.19368000000000002,-0.00269,13.3,-0.006456,-0.0,13.3,-0.0,0.00538,13.3,0.012912
13.226744091,-0.17216,13.5,-0.413184,-1.20512,13.4,-2.8922879999999997,-0.34432,13.3,-0.826368,-0.08070000000000001,13.3,-0.19368000000000002,0.0,13.3,0.0,-0.0,13.3,-0.0,0.00538,13.3,0.012912
13.260686351,-0.17754,13.600000000000001,-0.426096,-1.19974,13.4,-2.879376,-0.36046,13.3,-0.865104,-0.08339,13.3,-0.200136,-0.00269,13.3,-0.006456,-0.0,13.3,-0.0,0.00538,13.3,0.012912
13.293760397,-0.16947,13.5,-0.40672800000000003,-1.21319,13.4,-2.911656,-0.34163,13.3,-0.819912,-0.08339,13.3,-0.200136,0.0,13.3,0.0,-0.0,13.3,-0.0,0.00538,13.3,0.012912
13.326725413,-0.16140000000000002,13.600000000000001,-0.38736000000000004,-1.2105000000000001,13.5,-2.9052000000000002,-0.34163,13.3,-0.819912,-0.08339,13.3,-0.200136,-0.00269,13.3,-0.006456,-0.0,13.3,-0.0,0.00538,13.3,0.012912
13.360731523,-0.16678,13.5,-0.400272,-1.2105000000000001,13.5,-2.9052000000000002,-0.35777000000000003,13.3,-0.8586480000000001,-0.08070000000000001,13.3,-0.19368000000000002,-0.00269,13.3,-0.006456,-0.0,13.3,-0.0,0.00538,13.3,0.012912
13.393628072,-0.17485,13.5,-0.41964,-1.20781,13.5,-2.898744,-0.36046,13.3,-0.865104,-0.08070000000000001,13.3,-0.19368000000000002,0.0,13.3,0.0,-0.0,13.3,-0.0,0.00538,13.3,0.012912
13.42654289,-0.18023,13.600000000000001,-0.432552,-1.20781,13.5,-2.898744,-0.36046,13.3,-0.865104,-0.08070000000000001,13.3,-0.19368000000000002,0.0,13.3,0.0,-0.0,13.3,-0.0,0.00269,13.3,0.006456
13.460748529,-0.18292,13.600000000000001,-0.439008,-1.20781,13.3,-2.898744,-0.3497,13.3,-0.83928,-0.08070000000000001,13.3,-0.19368000000000002,-0.00538,13.3,-0.012912,-0.0,13.3,-0.0,0.00269,13.3,0.006456
13.493596337,-0.18023,13.600000000000001,-0.432552,-1.2105000000000001,13.4,-2.9052000000000002,-0.36046,13.3,-0.865104,-0.08070000000000001,13.3,-0.19368000000000002,0.0,13.3,0.0,-0.0,13.3,-0.0,0.00269,13.3,0.006456
13.527659435,-0.15871000000000002,13.5,-0.380904,-1.21319,13.4,-2.911656,-0.36046,13.3,-0.865104,-0.09146,13.3,-0.219504,0.0,13.3,0.0,-0.0,13.3,-0.0,0.00269,13.3,0.006456
13.560626355,-0.16409,13.5,-0.393816,-1.2105000000000001,13.3,-2.9052000000000002,-0.36046,13.3,-0.865104,-0.08339,13.3,-0.200136,0.0,13.3,0.0,-0.0,13.3,-0.0,0.00538,13.3,0.012912
13.593635234,-0.18292,13.600000000000001,-0.439008,-1.20512,13.4,-2.8922879999999997,-0.36046,13.3,-0.865104,-0.08339,13.3,-0.200136,0.0,13.3,0.0,-0.0,13.3,-0.0,0.00538,13.3,0.012912
13.627460026,-0.17216,13.5,-0.413184,-1.21588,13.4,-2.9181120000000003,-0.35239000000000004,13.3,-0.845736,-0.08339,13.3,-0.200136,-0.00269,13.3,-0.006456,-0.0,13.3,-0.0,0.00538,13.3,0.012912
13.660547035,-0.18023,13.600000000000001,-0.432552,-1.20243,13.4,-2.885832,-0.3497,13.3,-0.83928,-0.08339,13.3,-0.200136,0.0,13.3,0.0,-0.0,13.3,-0.0,0.00538,13.3,0.012912
13.693558865,-0.17754,13.600000000000001,-0.426096,-1.2105000000000001,13.3,-2.9052000000000002,-0.34432,13.3,-0.826368,-0.08070000000000001,13.3,-0.19368000000000002,0.0,13.3,0.0,-0.0,13.3,-0.0,0.00538,13.3,0.012912
13.727599105,-0.17216,13.600000000000001,-0.413184,-1.19705,13.4,-2.8729199999999997,-0.36046,13.3,-0.865104,-0.08339,13.3,-0.200136,0.0,13.3,0.0,-0.0,13.3,-0.0,0.00538,13.3,0.012912
13.76061134,-0.17216,13.600000000000001,-0.413184,-1.20512,13.5,-2.8922879999999997,-0.35239000000000004,13.3,-0.845736,-0.08339,13.3,-0.200136,0.0,13.3,0.0,-0.0,13.3,-0.0,0.00538,13.3,0.012912
13.793504073,-0.16140000000000002,13.600000000000001,-0.38736000000000004,-1.20243,13.4,-2.885832,-0.36315000000000003,13.3,-0.87156,-0.08339,13.3,-0.200136,0.0,13.3,0.0,-0.0,13.3,-0.0,0.00538,13.3,0.012912
13.827570814,-0.17485,13.5,-0.41964,-1.21319,13.4,-2.911656,-0.35239000000000004,13.3,-0.845736,-0.08070000000000001,13.3,-0.19368000000000002,0.0,13.3,0.0,-0.0,13.3,-0.0,0.00538,13.3,0.012912
13.86051648,-0.15064,13.600000000000001,-0.36153599999999997,-1.19974,13.4,-2.879376,-0.36046,13.3,-0.865104,-0.08070000000000001,13.3,-0.19368000000000002,0.0,13.3,0.0,-0.0,13.3,-0.0,0.00538,13.3,0.012912
13.893512002,-0.17754,13.600000000000001,-0.426096,-1.21319,13.5,-2.911656,-0.36046,13.3,-0.865104,-0.08070000000000001,13.3,-0.19368000000000002,0.0,13.3,0.0,-0.0,13.3,-0.0,0.00538,13.3,0.012912
13.927647328,-0.16140000000000002,13.5,-0.38736000000000004,-1.20243,13.4,-2.885832,-0.35508,13.3,-0.852192,-0.08339,13.3,-0.200136,0.0,13.3,0.0,-0.0,13.3,-0.0,0.00538,13.3,0.012912
13.960500256,-0.17485,13.600000000000001,-0.41964,-1.19974,13.4,-2.879376,-0.36046,13.3,-0.865104,-0.08339,13.3,-0.200136,0.0,13.3,0.0,-0.0,13.3,-0.0,0.00538,13.3,0.012912
13.993508136,-0.17754,13.600000000000001,-0.426096,-1.19436,13.4,-2.866464,-0.34701000000000004,13.3,-0.8328240000000001,-0.08339,13.3,-0.200136,0.0,13.3,0.0,-0.0,13.3,-0.0,0.00538,13.3,0.012912
14.027998214,-0.18023,13.600000000000001,-0.432552,-1.21319,13.4,-2.911656,-0.35239000000000004,13.3,-0.845736,-0.08339,13.3,-0.200136,0.0,13.3,0.0,-0.0,13.3,-0.0,0.00538,13.3,0.012912
14.060372731,-0.18023,13.5,-0.432552,-1.19436,13.3,-2.866464,-0.35508,13.3,-0.852192,-0.08339,13.3,-0.200136,0.0,13.3,0.0,-0.0,13.3,-0.0,0.00538,13.3,0.012912
14.093354835,-0.17216,13.600000000000001,-0.413184,-1.19705,13.5,-2.8729199999999997,-0.36315000000000003,13.4,-0.87156,-0.08339,13.3,-0.200136,0.0,13.3,0.0,-0.0,13.3,-0.0,0.00538,13.3,0.012912
14.127399886,-0.18292,13.5,-0.439008,-1.20781,13.5,-2.898744,-0.34432,13.3,-0.826368,-0.08339,13.3,-0.200136,-0.00269,13.3,-0.006456,-0.0,13.3,-0.0,0.00538,13.3,0.012912
14.160356481,-0.16678,13.600000000000001,-0.400272,-1.19974,13.4,-2.879376,-0.36046,13.3,-0.865104,-0.08339,13.3,-0.200136,0.0,13.3,0.0,-0.0,13.3,-0.0,0.00538,13.3,0.012912
14.19338608,-0.17216,13.5,-0.413184,-1.20243,13.4,-2.885832,-0.35239000000000004,13.4,-0.845736,-0.08339,13.3,-0.200136,0.0,13.200000000000001,0.0,-0.0,13.3,-0.0,0.00538,13.3,0.012912
14.227397169,-0.18023,13.5,-0.432552,-1.2105000000000001,13.4,-2.9052000000000002,-0.3497,13.3,-0.83928,-0.08339,13.3,-0.200136,0.0,13.200000000000001,0.0,-0.0,13.3,-0.0,0.00538,13.3,0.012912
14.260385815,-0.18292,13.5,-0.439008,-1.20512,13.3,-2.8922879999999997,-0.35777000000000003,13.3,-0.8586480000000001,-0.08339,13.3,-0.200136,0.0,13.200000000000001,0.0,-0.0,13.3,-0.0,0.00538,13.3,0.012912
14.294325129,-0.17485,13.600000000000001,-0.41964,-1.20243,13.4,-2.885832,-0.35777000000000003,13.4,-0.8586480000000001,-0.08070000000000001,13.3,-0.19368000000000002,0.0,13.200000000000001,0.0,-0.0,13.3,-0.0,0.00538,13.3,0.012912
14.327343954,-0.18023,13.600000000000001,-0.432552,-1.19167,13.3,-2.860008,-0.35508,13.3,-0.852192,-0.08070000000000001,13.3,-0.19368000000000002,-0.00269,13.200000000000001,-0.006456,-0.0,13.3,-0.0,0.00538,13.3,0.012912
14.360281867,-0.16947,13.600000000000001,-0.40672800000000003,-1.20512,13.4,-2.8922879999999997,-0.35777000000000003,13.4,-0.8586480000000001,-0.07801000000000001,13.3,-0.18722400000000003,0.0,13.200000000000001,0.0,-0.0,13.3,-0.0,0.00538,13.3,0.012912
14.394302432,-0.18023,13.600000000000001,-0.432552,-1.19436,13.5,-2.866464,-0.34163,13.3,-0.819912,-0.07801000000000001,13.3,-0.18722400000000003,0.0,13.200000000000001,0.0,-0.0,13.3,-0.0,0.00538,13.3,0.012912
14.42732321,-0.16409,13.5,-0.393816,-1.20243,13.4,-2.885832,-0.36046,13.3,-0.865104,-0.07801000000000001,13.3,-0.18722400000000003,0.0,13.200000000000001,0.0,-0.0,13.3,-0.0,0.00538,13.3,0.012912
14.460342935,-0.16947,13.600000000000001,-0.40672800000000003,-1.19974,13.5,-2.879376,-0.3497,13.3,-0.83928,-0.07801000000000001,13.3,-0.18722400000000003,0.0,13.200000000000001,0.0,-0.0,13.3,-0.0,0.00538,13.3,0.012912
14.494285495,-0.18023,13.5,-0.432552,-1.19974,13.5,-2.879376,-0.35777000000000003,13.3,-0.8586480000000001,-0.08339,13.3,-0.200136,0.0,13.200000000000001,0.0,-0.0,13.3,-0.0,0.00538,13.3,0.012912
14.527176372,-0.18292,13.600000000000001,-0.439008,-1.20781,13.5,-2.898744,-0.35508,13.3,-0.852192,-0.08339,13.3,-0.200136,0.0,13.200000000000001,0.0,-0.0,13.3,-0.0,0.00538,13.3,0.012912
14.560293791,-0.16140000000000002,13.600000000000001,-0.38736000000000004,-1.19705,13.4,-2.8729199999999997,-0.35508,13.3,-0.852192,-0.08339,13.3,-0.200136,0.0,13.200000000000001,0.0,-0.0,13.3,-0.0,0.00538,13.3,0.012912
14.594243539,-0.16678,13.5,-0.400272,-1.19705,13.4,-2.8729199999999997,-0.36046,13.3,-0.865104,-0.08339,13.3,-0.200136,0.0,13.200000000000001,0.0,-0.0,13.3,-0.0,0.00538,13.3,0.012912
14.627197718,-0.18292,13.600000000000001,-0.439008,-1.19167,13.5,-2.860008,-0.36046,13.3,-0.865104,-0.08339,13.3,-0.200136,0.0,13.200000000000001,0.0,-0.0,13.3,-0.0,0.00538,13.3,0.012912
14.660206983,-0.17216,13.600000000000001,-0.413184,-1.2105000000000001,13.4,-2.9052000000000002,-0.34432,13.4,-0.826368,-0.08339,13.3,-0.200136,0.0,13.200000000000001,0.0,-0.0,13.3,-0.0,0.00538,13.3,0.012912
14.69416597,-0.17216,13.600000000000001,-0.413184,-1.19974,13.3,-2.879376,-0.35508,13.4,-0.852192,-0.08339,13.3,-0.200136,0.0,13.200000000000001,0.0,-0.0,13.3,-0.0,0.00538,13.3,0.012912
14.727165298,-0.17216,13.600000000000001,-0.413184,-1.19167,13.4,-2.860008,-0.36046,13.3,-0.865104,-0.08070000000000001,13.3,-0.19368000000000002,0.0,13.200000000000001,0.0,-0.0,13.3,-0.0,0.00538,13.3,0.012912
14.760174496,-0.18023,13.5,-0.432552,-1.19974,13.5,-2.879376,-0.36046,13.3,-0.865104,-0.08070000000000001,13.3,-0.19368000000000002,0.0,13.200000000000001,0.0,-0.0,13.3,-0.0,0.00538,13.3,0.012912
14.794137499,-0.17485,13.5,-0.41964,-1.20512,13.5,-2.8922879999999997,-0.34701000000000004,13.3,-0.8328240000000001,-0.08070000000000001,13.3,-0.19368000000000002,0.0,13.200000000000001,0.0,-0.0,13.3,-0.0,0.00538,13.3,0.012912
14.827093248,-0.18023,13.5,-0.432552,-1.2105000000000001,13.3,-2.9052000000000002,-0.35239000000000004,13.3,-0.845736,-0.08070000000000001,13.3,-0.19368000000000002,-0.00269,13.200000000000001,-0.006456,-0.0,13.3,-0.0,0.00538,13.3,0.012912
14.860148685,-0.17754,13.5,-0.426096,-1.19974,13.4,-2.879376,-0.34432,13.3,-0.826368,-0.08339,13.3,-0.200136,-0.00538,13.3,-0.012912,-0.0,13.3,-0.0,0.00538,13.3,0.012912
14.894245399,-0.16409,13.5,-0.393816,-1.19705,13.5,-2.8729199999999997,-0.35777000000000003,13.3,-0.8586480000000001,-0.08339,13.3,-0.200136,0.0,13.3,0.0,-0.0,13.3,-0.0,0.00538,13.3,0.012912
14.927085896,-0.18023,13.5,-0.432552,-1.21588,13.4,-2.9181120000000003,-0.34432,13.3,-0.826368,-0.08339,13.3,-0.200136,0.0,13.3,0.0,-0.0,13.3,-0.0,0.00538,13.3,0.012912
14.960083269,-0.18023,13.600000000000001,-0.432552,-1.20781,13.4,-2.898744,-0.35777000000000003,13.3,-0.8586480000000001,-0.08339,13.3,-0.200136,0.0,13.3,0.0,-0.0,13.3,-0.0,0.00538,13.3,0.012912
14.994053544,-0.17485,13.600000000000001,-0.41964,-1.19167,13.4,-2.860008,-0.35239000000000004,13.3,-0.845736,-0.08339,13.3,-0.200136,-0.00269,13.3,-0.006456,-0.0,13.3,-0.0,0.00538,13.3,0.012912
15.026859478,-0.15871000000000002,13.600000000000001,-0.380904,-1.20243,13.4,-2.885832,-0.35508,13.3,-0.852192,-0.08339,13.3,-0.200136,0.0,13.3,0.0,-0.0,13.3,-0.0,0.00538,13.3,0.012912
15.061050708,-0.18292,13.5,-0.439008,-1.19974,13.5,-2.879376,-0.35777000000000003,13.3,-0.8586480000000001,-0.08339,13.3,-0.200136,0.0,13.3,0.0,-0.0,13.3,-0.0,0.00538,13.3,0.012912
15.093949593,-0.18292,13.5,-0.439008,-1.21588,13.3,-2.9181120000000003,-0.3497,13.3,-0.83928,-0.08339,13.3,-0.200136,0.0,13.3,0.0,-0.0,13.3,-0.0,0.00538,13.3,0.012912
15.126941806,-0.18023,13.5,-0.432552,-1.20512,13.4,-2.8922879999999997,-0.36046,13.3,-0.865104,-0.08339,13.3,-0.200136,0.0,13.3,0.0,-0.0,13.3,-0.0,0.00538,13.3,0.012912
15.160941393,-0.17754,13.5,-0.426096,-1.19974,13.4,-2.879376,-0.3497,13.3,-0.83928,-0.08339,13.3,-0.200136,0.0,13.3,0.0,-0.0,13.3,-0.0,0.00538,13.3,0.012912
15.193894417,-0.16140000000000002,13.600000000000001,-0.38736000000000004,-1.19974,13.5,-2.879376,-0.35239000000000004,13.3,-0.845736,-0.08339,13.3,-0.200136,0.0,13.3,0.0,-0.0,13.3,-0.0,0.00538,13.3,0.012912
15.226935889,-0.18023,13.600000000000001,-0.432552,-1.19705,13.4,-2.8729199999999997,-0.36046,13.3,-0.865104,-0.08070000000000001,13.3,-0.19368000000000002,0.0,13.3,0.0,-0.0,13.3,-0.0,0.00538,13.3,0.012912
15.260960302,-0.17216,13.600000000000001,-0.413184,-1.19167,13.5,-2.860008,-0.35508,13.3,-0.852192,-0.08070000000000001,13.3,-0.19368000000000002,0.0,13.3,0.0,-0.0,13.3,-0.0,0.00538,13.3,0.012912
15.293949141,-0.18023,13.600000000000001,-0.432552,-1.2105000000000001,13.4,-2.9052000000000002,-0.35239000000000004,13.3,-0.845736,-0.08339,13.3,-0.200136,0.0,13.3,0.0,-0.0,13.3,-0.0,0.00538,13.3,0.012912
15.326854916,-0.17754,13.5,-0.426096,-1.19436,13.5,-2.866464,-0.35508,13.4,-0.852192,-0.08339,13.3,-0.200136,0.0,13.3,0.0,-0.0,13.3,-0.0,0.00538,13.3,0.012912
15.360921872,-0.16409,13.600000000000001,-0.393816,-1.1889800000000001,13.4,-2.853552,-0.35508,13.3,-0.852192,-0.08339,13.3,-0.200136,0.0,13.3,0.0,-0.0,13.3,-0.0,0.00538,13.3,0.012912
15.393944976,-0.18023,13.600000000000001,-0.432552,-1.19705,13.3,-2.8729199999999997,-0.36046,13.3,-0.865104,-0.07801000000000001,13.3,-0.18722400000000003,0.0,13.3,0.0,-0.0,13.3,-0.0,0.00538,13.3,0.012912
15.426836088,-0.17216,13.5,-0.413184,-1.19974,13.4,-2.879376,-0.35777000000000003,13.4,-0.8586480000000001,-0.07801000000000001,13.3,-0.18722400000000003,0.0,13.3,0.0,-0.0,13.3,-0.0,0.00538,13.3,0.012912
15.460841003,-0.16140000000000002,13.5,-0.38736000000000004,-1.1889800000000001,13.4,-2.853552,-0.35508,13.3,-0.852192,-0.08339,13.3,-0.200136,0.0,13.3,0.0,-0.0,13.3,-0.0,0.00269,13.3,0.006456
15.493825432,-0.16678,13.600000000000001,-0.400272,-1.20512,13.4,-2.8922879999999997,-0.36046,13.3,-0.865104,-0.08339,13.3,-0.200136,0.0,13.3,0.0,-0.0,13.3,-0.0,0.00269,13.3,0.006456
15.52673365,-0.16678,13.600000000000001,-0.400272,-1.20781,13.5,-2.898744,-0.34701000000000004,13.4,-0.8328240000000001,-0.08339,13.3,-0.200136,0.0,13.3,0.0,-0.0,13.3,-0.0,-0.0,13.3,-0.0
15.560859305,-0.16140000000000002,13.5,-0.38736000000000004,-1.20243,13.4,-2.885832,-0.33894,13.3,-0.8134560000000001,-0.08339,13.3,-0.200136,0.0,13.3,0.0,-0.0,13.3,-0.0,-0.0,13.3,-0.0
15.593784665,-0.18023,13.600000000000001,-0.432552,-1.19974,13.5,-2.879376,-0.36315000000000003,13.3,-0.87156,-0.08339,13.3,-0.200136,0.0,13.3,0.0,-0.0,13.3,-0.0,-0.0,13.3,-0.0
15.626626033,-0.16409,13.600000000000001,-0.393816,-1.19436,13.3,-2.866464,-0.35777000000000003,13.3,-0.8586480000000001,-0.08339,13.3,-0.200136,0.0,13.3,0.0,-0.0,13.3,-0.0,-0.0,13.3,-0.0
15.660654536,-0.17216,13.600000000000001,-0.413184,-1.19167,13.4,-2.860008,-0.35508,13.3,-0.852192,-0.08339,13.3,-0.200136,0.0,13.3,0.0,-0.0,13.3,-0.0,-0.0,13.3,-0.0
15.693657034,-0.18023,13.5,-0.432552,-1.19436,13.5,-2.866464,-0.35508,13.3,-0.852192,-0.08339,13.3,-0.200136,0.0,13.3,0.0,-0.0,13.3,-0.0,-0.0,13.3,-0.0
15.726669358,-0.18292,13.600000000000001,-0.439008,-1.20512,13.4,-2.8922879999999997,-0.35508,13.3,-0.852192,-0.08339,13.3,-0.200136,0.0,13.3,0.0,-0.0,13.3,-0.0,0.00269,13.3,0.006456
15.760618018,-0.18023,13.600000000000001,-0.432552,-1.19436,13.5,-2.866464,-0.3497,13.3,-0.83928,-0.08339,13.3,-0.200136,-0.00269,13.3,-0.006456,-0.0,13.3,-0.0,0.00538,13.3,0.012912
15.793660431,-0.17485,13.600000000000001,-0.41964,-1.19705,13.5,-2.8729199999999997,-0.35508,13.3,-0.852192,-0.08339,13.3,-0.200136,0.0,13.3,0.0,-0.0,13.3,-0.0,0.00538,13.3,0.012912
15.827787548,-0.16947,13.5,-0.40672800000000003,-1.19436,13.3,-2.866464,-0.35777000000000003,13.3,-0.8586480000000001,-0.08339,13.3,-0.200136,0.0,13.3,0.0,-0.0,13.200000000000001,-0.0,0.00538,13.3,0.012912
15.860759961,-0.17754,13.600000000000001,-0.426096,-1.21588,13.4,-2.9181120000000003,-0.34701000000000004,13.3,-0.8328240000000001,-0.08070000000000001,13.3,-0.19368000000000002,0.0,13.3,0.0,-0.0,13.3,-0.0,0.00538,13.3,0.012912
15.893658029,-0.17216,13.5,-0.413184,-1.19167,13.3,-2.860008,-0.35777000000000003,13.4,-0.8586480000000001,-0.08070000000000001,13.3,-0.19368000000000002,0.0,13.3,0.0,-0.0,13.3,-0.0,0.00538,13.3,0.012912
15.927624629,-0.17754,13.600000000000001,-0.426096,-1.20243,13.4,-2.885832,-0.35239000000000004,13.3,-0.845736,-0.09146,13.3,-0.219504,0.0,13.3,0.0,-0.0,13.3,-0.0,0.00538,13.3,0.012912
15.960538423,-0.17485,13.600000000000001,-0.41964,-1.21588,13.3,-2.9181120000000003,-0.34701000000000004,13.3,-0.8328240000000001,-0.08339,13.3,-0.200136,0.0,13.3,0.0,-0.0,13.3,-0.0,0.00538,13.3,0.012912
15.993694313,-0.18023,13.5,-0.432552,-1.19974,13.4,-2.879376,-0.3497,13.4,-0.83928,-0.08339,13.3,-0.200136,0.0,13.3,0.0,-0.0,13.3,-0.0,0.00269,13.3,0.006456
16.02790405,-0.18023,13.600000000000001,-0.432552,-1.19167,13.4,-2.860008,-0.3497,13.3,-0.83928,-0.08339,13.3,-0.200136,-0.00269,13.3,-0.006456,-0.0,13.3,-0.0,0.00269,13.3,0.006456
16.060563041,-0.18292,13.600000000000001,-0.439008,-1.1889800000000001,13.4,-2.853552,-0.35239000000000004,13.4,-0.845736,-0.08070000000000001,13.3,-0.19368000000000002,0.0,13.3,0.0,-0.0,13.3,-0.0,0.00269,13.3,0.006456
16.093534696,-0.17754,13.600000000000001,-0.426096,-1.19705,13.4,-2.8729199999999997,-0.3497,13.3,-0.83928,-0.08070000000000001,13.3,-0.19368000000000002,0.0,13.3,0.0,-0.0,13.3,-0.0,0.00269,13.3,0.006456
16.127619554,-0.17485,13.5,-0.41964,-1.19436,13.4,-2.866464,-0.34701000000000004,13.4,-0.8328240000000001,-0.08070000000000001,13.3,-0.19368000000000002,-0.00269,13.3,-0.006456,-0.0,13.3,-0.0,0.00269,13.3,0.006456
16.160638986,-0.18023,13.5,-0.432552,-1.19974,13.4,-2.879376,-0.36315000000000003,13.3,-0.87156,-0.08070000000000001,13.3,-0.19368000000000002,0.0,13.3,0.0,-0.0,13.3,-0.0,0.00269,13.3,0.006456
16.1936095,-0.16947,13.5,-0.40672800000000003,-1.19167,13.5,-2.860008,-0.35777000000000003,13.3,-0.8586480000000001,-0.08070000000000001,13.3,-0.19368000000000002,0.0,13.3,0.0,-0.0,13.3,-0.0,0.00269,13.3,0.006456
16.227483091,-0.17216,13.600000000000001,-0.413184,-1.19167,13.4,-2.860008,-0.36046,13.3,-0.865104,-0.08070000000000001,13.3,-0.19368000000000002,0.0,13.3,0.0,-0.0,13.3,-0.0,0.00269,13.3,0.006456
