RoboFEI-Work/manip_ws/pick_telemetry/pick_telemetry_20260626_145512.csv
time,manip_joint1/current,manip_joint1/voltage,manip_joint1/effort,manip_joint2/current,manip_joint2/voltage,manip_joint2/effort,manip_joint3/current,manip_joint3/voltage,manip_joint3/effort,manip_joint4/current,manip_joint4/voltage,manip_joint4/effort,manip_joint5/current,manip_joint5/voltage,manip_joint5/effort,manip_joint6/current,manip_joint6/voltage,manip_joint6/effort,manip_joint7/current,manip_joint7/voltage,manip_joint7/effort
0.021605602,-0.00538,13.8,-0.012912,0.0,13.700000000000001,0.0,0.0,13.600000000000001,0.0,0.0,13.600000000000001,0.0,0.0,13.5,0.0,0.00269,13.600000000000001,0.006456,-0.0,13.600000000000001,-0.0
0.053746009,-0.00269,13.8,-0.006456,0.0,13.700000000000001,0.0,0.0,13.600000000000001,0.0,0.0,13.600000000000001,0.0,0.0,13.5,0.0,-0.0,13.600000000000001,-0.0,-0.0,13.600000000000001,-0.0
0.087926652,0.0,13.8,0.0,0.0,13.700000000000001,0.0,0.0,13.600000000000001,0.0,0.0,13.600000000000001,0.0,0.0,13.5,0.0,-0.0,13.600000000000001,-0.0,-0.0,13.600000000000001,-0.0
0.120954276,0.0,13.8,0.0,0.0,13.700000000000001,0.0,0.0,13.600000000000001,0.0,0.0,13.600000000000001,0.0,0.0,13.5,0.0,-0.0,13.600000000000001,-0.0,-0.0,13.600000000000001,-0.0
0.154031844,0.0,13.8,0.0,0.0,13.700000000000001,0.0,0.0,13.600000000000001,0.0,0.0,13.600000000000001,0.0,0.0,13.5,0.0,0.00269,13.600000000000001,0.006456,-0.0,13.600000000000001,-0.0
0.187870684,-0.00269,13.8,-0.006456,0.0,13.700000000000001,0.0,0.0,13.600000000000001,0.0,0.0,13.600000000000001,0.0,0.0,13.5,0.0,-0.0,13.600000000000001,-0.0,-0.0,13.600000000000001,-0.0
0.220834134,0.0,13.8,0.0,0.0,13.700000000000001,0.0,0.0,13.600000000000001,0.0,0.0,13.600000000000001,0.0,0.0,13.5,0.0,0.00269,13.600000000000001,0.006456,-0.0,13.600000000000001,-0.0
0.253818323,-0.00269,13.8,-0.006456,0.0,13.700000000000001,0.0,0.0,13.600000000000001,0.0,0.0,13.600000000000001,0.0,0.0,13.5,0.0,0.00269,13.600000000000001,0.006456,-0.0,13.600000000000001,-0.0
0.287844726,-0.00269,13.8,-0.006456,0.0,13.700000000000001,0.0,0.0,13.600000000000001,0.0,0.0,13.600000000000001,0.0,0.0,13.5,0.0,-0.0,13.600000000000001,-0.0,-0.0,13.600000000000001,-0.0
0.32087239,-0.00269,13.8,-0.006456,0.0,13.700000000000001,0.0,0.0,13.600000000000001,0.0,0.0,13.600000000000001,0.0,0.0,13.5,0.0,-0.0,13.600000000000001,-0.0,-0.0,13.5,-0.0
0.354991403,-0.00269,13.8,-0.006456,0.0,13.700000000000001,0.0,0.0,13.600000000000001,0.0,0.0,13.600000000000001,0.0,0.0,13.5,0.0,-0.0,13.600000000000001,-0.0,-0.0,13.600000000000001,-0.0
0.38784938,-0.00269,13.8,-0.006456,0.0,13.700000000000001,0.0,0.0,13.600000000000001,0.0,0.0,13.600000000000001,0.0,0.0,13.5,0.0,-0.0,13.600000000000001,-0.0,-0.0,13.600000000000001,-0.0
0.434279963,-0.00269,13.8,-0.006456,0.0,13.700000000000001,0.0,0.0,13.600000000000001,0.0,0.0,13.600000000000001,0.0,0.0,13.5,0.0,-0.0,13.600000000000001,-0.0,-0.0,13.600000000000001,-0.0
0.487866574,-0.00269,13.700000000000001,-0.006456,0.0,13.600000000000001,0.0,0.0,13.600000000000001,0.0,0.0,13.5,0.0,0.0,13.5,0.0,0.00538,13.5,0.012912,0.00807,13.4,0.019368
0.520754218,-0.00269,13.700000000000001,-0.006456,0.0,13.600000000000001,0.0,0.0,13.5,0.0,0.0,13.5,0.0,0.0,13.4,0.0,-0.03766,13.4,-0.09038399999999999,-0.01345,13.4,-0.032279999999999996
0.554913742,-0.00269,13.700000000000001,-0.006456,0.0,13.600000000000001,0.0,0.0,13.5,0.0,0.0,13.5,0.0,0.0,13.4,0.0,-0.02959,13.4,-0.071016,-0.0,13.4,-0.0
0.58793299,-0.00269,13.700000000000001,-0.006456,0.0,13.600000000000001,0.0,0.0,13.5,0.0,0.0,13.5,0.0,0.0,13.4,0.0,-0.01883,13.4,-0.045191999999999996,-0.00538,13.4,-0.012912
0.620782463,-0.00269,13.700000000000001,-0.006456,0.0,13.600000000000001,0.0,0.0,13.5,0.0,0.0,13.5,0.0,0.0,13.4,0.0,-0.02959,13.4,-0.071016,-0.00269,13.4,-0.006456
0.654741309,-0.00269,13.700000000000001,-0.006456,0.0,13.600000000000001,0.0,0.0,13.5,0.0,0.0,13.5,0.0,0.0,13.4,0.0,-0.00538,13.4,-0.012912,-0.00538,13.4,-0.012912
0.68785434,-0.00269,13.700000000000001,-0.006456,0.0,13.600000000000001,0.0,0.0,13.5,0.0,0.0,13.5,0.0,0.0,13.3,0.0,-0.02152,13.3,-0.051648,-0.00538,13.4,-0.012912
0.72069297,-0.00269,13.700000000000001,-0.006456,0.0,13.600000000000001,0.0,0.0,13.5,0.0,0.0,13.5,0.0,0.0,13.3,0.0,-0.01345,13.4,-0.032279999999999996,-0.01614,13.3,-0.038736
0.754602304,-0.00269,13.700000000000001,-0.006456,0.0,13.600000000000001,0.0,0.0,13.5,0.0,0.0,13.4,0.0,0.0,13.4,0.0,-0.01883,13.4,-0.045191999999999996,-0.00269,13.3,-0.006456
0.787683918,0.0,13.700000000000001,0.0,0.0,13.600000000000001,0.0,0.0,13.5,0.0,0.0,13.5,0.0,0.0,13.3,0.0,-0.01614,13.3,-0.038736,-0.00538,13.3,-0.012912
0.82070638,-0.00269,13.700000000000001,-0.006456,0.0,13.600000000000001,0.0,0.0,13.5,0.0,0.0,13.4,0.0,0.0,13.3,0.0,-0.02152,13.3,-0.051648,-0.00807,13.3,-0.019368
0.854567785,-0.00269,13.700000000000001,-0.006456,0.0,13.600000000000001,0.0,0.0,13.5,0.0,0.0,13.4,0.0,0.0,13.3,0.0,-0.01076,13.3,-0.025824,-0.00269,13.200000000000001,-0.006456
0.887537451,-0.00269,13.700000000000001,-0.006456,0.0,13.600000000000001,0.0,0.0,13.5,0.0,0.0,13.4,0.0,0.0,13.3,0.0,-0.0269,13.3,-0.06455999999999999,-0.01883,13.200000000000001,-0.045191999999999996
0.920528763,0.0,13.600000000000001,0.0,0.0,13.5,0.0,0.0,13.4,0.0,0.0,13.4,0.0,0.0,13.3,0.0,-0.02152,13.200000000000001,-0.051648,-0.01345,13.3,-0.032279999999999996
0.954511328,0.0,13.600000000000001,0.0,0.0,13.5,0.0,0.0,13.4,0.0,0.0,13.4,0.0,0.0,13.200000000000001,0.0,-0.01076,13.200000000000001,-0.025824,-0.01076,13.200000000000001,-0.025824
0.98743413,0.0,13.600000000000001,0.0,0.0,13.5,0.0,0.0,13.4,0.0,0.0,13.4,0.0,0.0,13.200000000000001,0.0,-0.03228,13.200000000000001,-0.077472,-0.01345,13.200000000000001,-0.032279999999999996
1.02034363,-0.00269,13.600000000000001,-0.006456,0.0,13.5,0.0,0.0,13.4,0.0,0.0,13.4,0.0,0.0,13.200000000000001,0.0,-0.024210000000000002,13.200000000000001,-0.058104,-0.00807,13.200000000000001,-0.019368
1.054381939,-0.00269,13.700000000000001,-0.006456,0.0,13.5,0.0,0.0,13.4,0.0,0.0,13.4,0.0,0.0,13.200000000000001,0.0,-0.01614,13.200000000000001,-0.038736,-0.01076,13.200000000000001,-0.025824
1.087598666,-0.00269,13.700000000000001,-0.006456,0.0,13.5,0.0,0.0,13.4,0.0,0.0,13.4,0.0,0.0,13.3,0.0,-0.01076,13.3,-0.025824,-0.01345,13.200000000000001,-0.032279999999999996
1.120491549,-0.00269,13.700000000000001,-0.006456,0.0,13.600000000000001,0.0,0.0,13.4,0.0,0.0,13.4,0.0,0.0,13.3,0.0,-0.01614,13.3,-0.038736,-0.00807,13.3,-0.019368
1.15445851,-0.00269,13.700000000000001,-0.006456,0.0,13.600000000000001,0.0,0.0,13.4,0.0,0.0,13.4,0.0,0.0,13.3,0.0,-0.01345,13.3,-0.032279999999999996,-0.0,13.200000000000001,-0.0
1.187382435,0.0,13.700000000000001,0.0,0.0,13.600000000000001,0.0,0.0,13.5,0.0,0.0,13.4,0.0,0.0,13.3,0.0,-0.01614,13.3,-0.038736,-0.00538,13.3,-0.012912
1.220409514,-0.00269,13.700000000000001,-0.006456,0.0,13.600000000000001,0.0,0.0,13.5,0.0,0.0,13.5,0.0,0.0,13.4,0.0,-0.00807,13.3,-0.019368,-0.00538,13.3,-0.012912
1.254386111,0.0,13.700000000000001,0.0,0.0,13.600000000000001,0.0,0.0,13.5,0.0,0.0,13.5,0.0,0.0,13.4,0.0,-0.00807,13.200000000000001,-0.019368,-0.0,13.3,-0.0
1.287406122,0.0,13.700000000000001,0.0,0.0,13.600000000000001,0.0,0.0,13.5,0.0,0.0,13.5,0.0,0.0,13.4,0.0,-0.01076,13.3,-0.025824,-0.0,13.4,-0.0
1.320338084,0.0,13.700000000000001,0.0,0.0,13.600000000000001,0.0,0.0,13.5,0.0,0.0,13.5,0.0,0.0,13.4,0.0,-0.01076,13.4,-0.025824,-0.0,13.4,-0.0
1.35437704,-0.00269,13.700000000000001,-0.006456,0.0,13.600000000000001,0.0,0.0,13.5,0.0,0.0,13.5,0.0,0.0,13.4,0.0,-0.0269,13.4,-0.06455999999999999,-0.0,13.3,-0.0
1.38742276,-0.00538,13.700000000000001,-0.012912,0.0,13.600000000000001,0.0,0.0,13.5,0.0,0.0,13.5,0.0,0.0,13.4,0.0,-0.00538,13.4,-0.012912,-0.00269,13.4,-0.006456
1.42134243,-0.00269,13.700000000000001,-0.006456,0.0,13.600000000000001,0.0,0.0,13.5,0.0,0.0,13.5,0.0,0.0,13.4,0.0,-0.01076,13.4,-0.025824,0.00269,13.4,0.006456
1.454345323,-0.00269,13.700000000000001,-0.006456,0.0,13.600000000000001,0.0,0.0,13.5,0.0,0.0,13.5,0.0,0.0,13.4,0.0,-0.02152,13.4,-0.051648,-0.0,13.4,-0.0
1.487353113,-0.00269,13.700000000000001,-0.006456,0.0,13.600000000000001,0.0,0.0,13.5,0.0,0.0,13.5,0.0,0.0,13.4,0.0,-0.02152,13.4,-0.051648,-0.0,13.4,-0.0
1.521286075,0.0,13.700000000000001,0.0,0.0,13.600000000000001,0.0,0.0,13.5,0.0,0.0,13.5,0.0,-0.00269,13.5,-0.006456,-0.0,13.5,-0.0,-0.0,13.5,-0.0
1.55442105,-0.00538,13.700000000000001,-0.012912,0.0,13.600000000000001,0.0,0.0,13.5,0.0,0.00269,13.5,0.006456,0.0,13.5,0.0,-0.024210000000000002,13.5,-0.058104,-0.0,13.5,-0.0
1.587431637,-0.00269,13.700000000000001,-0.006456,0.0,13.600000000000001,0.0,0.0,13.600000000000001,0.0,0.0,13.600000000000001,0.0,0.0,13.5,0.0,-0.0,13.5,-0.0,-0.0,13.5,-0.0
1.621525733,0.0,13.700000000000001,0.0,0.0,13.700000000000001,0.0,0.0,13.600000000000001,0.0,0.0,13.600000000000001,0.0,0.0,13.5,0.0,-0.0,13.5,-0.0,-0.0,13.5,-0.0
1.654290035,0.0,13.700000000000001,0.0,0.0,13.700000000000001,0.0,0.0,13.600000000000001,0.0,0.0,13.600000000000001,0.0,0.0,13.5,0.0,-0.0,13.600000000000001,-0.0,-0.0,13.5,-0.0
1.687348979,0.0,13.700000000000001,0.0,0.0,13.700000000000001,0.0,0.0,13.600000000000001,0.0,0.0,13.600000000000001,0.0,0.0,13.5,0.0,-0.0,13.600000000000001,-0.0,-0.0,13.5,-0.0
1.721124858,-0.00538,13.700000000000001,-0.012912,0.0,13.700000000000001,0.0,0.0,13.600000000000001,0.0,0.0,13.600000000000001,0.0,0.0,13.5,0.0,-0.0,13.5,-0.0,-0.0,13.600000000000001,-0.0
1.754294258,-0.00269,13.700000000000001,-0.006456,0.0,13.700000000000001,0.0,0.0,13.600000000000001,0.0,0.0,13.600000000000001,0.0,0.0,13.5,0.0,-0.0,13.600000000000001,-0.0,-0.0,13.600000000000001,-0.0
1.787249451,-0.00269,13.700000000000001,-0.006456,0.0,13.700000000000001,0.0,0.0,13.600000000000001,0.0,0.0,13.600000000000001,0.0,0.0,13.5,0.0,-0.0,13.600000000000001,-0.0,-0.0,13.600000000000001,-0.0
1.821403892,-0.01883,13.700000000000001,-0.045191999999999996,0.0,13.700000000000001,0.0,0.0,13.600000000000001,0.0,0.0,13.600000000000001,0.0,-0.00807,13.5,-0.019368,-0.0,13.5,-0.0,-0.0,13.600000000000001,-0.0
1.854309656,-0.01883,13.700000000000001,-0.045191999999999996,0.0,13.700000000000001,0.0,0.0,13.600000000000001,0.0,0.01614,13.600000000000001,0.038736,-0.00269,13.5,-0.006456,-0.00269,13.600000000000001,-0.006456,-0.0,13.600000000000001,-0.0
1.887285107,-0.024210000000000002,13.700000000000001,-0.058104,0.0,13.700000000000001,0.0,0.0,13.600000000000001,0.0,0.04304,13.600000000000001,0.103296,0.0,13.5,0.0,-0.0,13.600000000000001,-0.0,-0.0,13.600000000000001,-0.0
1.921179032,-0.0269,13.700000000000001,-0.06455999999999999,0.01614,13.700000000000001,0.038736,0.0,13.600000000000001,0.0,0.07801000000000001,13.600000000000001,0.18722400000000003,-0.00269,13.5,-0.006456,-0.0,13.600000000000001,-0.0,-0.0,13.600000000000001,-0.0
1.954262867,-0.0269,13.700000000000001,-0.06455999999999999,0.040350000000000004,13.700000000000001,0.09684000000000001,0.0,13.600000000000001,0.0,0.14526,13.600000000000001,0.348624,-0.00269,13.5,-0.006456,-0.0,13.600000000000001,-0.0,-0.0,13.600000000000001,-0.0
1.988181374,-0.0269,13.700000000000001,-0.06455999999999999,0.05111,13.700000000000001,0.122664,0.0,13.600000000000001,0.0,0.18561,13.600000000000001,0.44546399999999997,-0.00807,13.5,-0.019368,-0.0,13.600000000000001,-0.0,-0.0,13.600000000000001,-0.0
2.021153322,-0.0269,13.700000000000001,-0.06455999999999999,0.1076,13.700000000000001,0.25823999999999997,0.0,13.600000000000001,0.0,0.23134000000000002,13.600000000000001,0.555216,-0.00269,13.5,-0.006456,-0.0,13.600000000000001,-0.0,-0.0,13.600000000000001,-0.0
2.054100459,-0.0269,13.700000000000001,-0.06455999999999999,0.16409,13.700000000000001,0.393816,0.0,13.5,0.0,0.24479,13.5,0.587496,-0.00807,13.5,-0.019368,-0.0,13.5,-0.0,0.00269,13.5,0.006456
2.088029241,-0.0269,13.700000000000001,-0.06455999999999999,0.23941,13.700000000000001,0.574584,0.0,13.5,0.0,0.22327,13.5,0.535848,-0.00538,13.5,-0.012912,-0.0,13.5,-0.0,0.00269,13.5,0.006456
2.121097922,-0.0269,13.700000000000001,-0.06455999999999999,0.29859,13.600000000000001,0.716616,0.0,13.5,0.0,0.23941,13.5,0.574584,0.0,13.5,0.0,-0.0,13.5,-0.0,-0.0,13.5,-0.0
2.154062326,-0.0269,13.700000000000001,-0.06455999999999999,0.35508,13.5,0.852192,0.0,13.5,0.0,0.22327,13.4,0.535848,-0.01076,13.5,-0.025824,-0.0,13.5,-0.0,-0.0,13.4,-0.0
2.188160884,-0.024210000000000002,13.600000000000001,-0.058104,0.43578,13.5,1.045872,0.0,13.4,0.0,0.25017,13.5,0.6004079999999999,0.0,13.4,0.0,-0.0,13.5,-0.0,-0.0,13.4,-0.0
2.221231628,-0.0269,13.700000000000001,-0.06455999999999999,0.50303,13.5,1.207272,0.0,13.4,0.0,0.23134000000000002,13.4,0.555216,-0.01076,13.4,-0.025824,-0.0,13.4,-0.0,-0.0,13.4,-0.0
2.254107785,-0.0269,13.600000000000001,-0.06455999999999999,0.51379,13.5,1.233096,0.0,13.4,0.0,0.23941,13.4,0.574584,-0.00538,13.4,-0.012912,-0.0,13.4,-0.0,-0.0,13.4,-0.0
2.288053703,-0.04304,13.600000000000001,-0.103296,0.48958,13.5,1.174992,0.0,13.4,0.0,0.24479,13.3,0.587496,-0.00807,13.3,-0.019368,-0.0,13.4,-0.0,-0.0,13.3,-0.0
2.320999047,-0.048420000000000005,13.600000000000001,-0.116208,0.48689000000000004,13.5,1.168536,0.0,13.4,0.0,0.23672,13.3,0.568128,0.00269,13.3,0.006456,-0.0,13.4,-0.0,-0.0,13.3,-0.0
2.354166328,-0.0538,13.5,-0.12911999999999998,0.43578,13.5,1.045872,0.0,13.4,0.0,0.24479,13.4,0.587496,-0.00807,13.3,-0.019368,-0.0,13.3,-0.0,-0.0,13.3,-0.0
2.387918823,-0.05111,13.600000000000001,-0.122664,0.47075,13.5,1.1298,0.0,13.4,0.0,0.24479,13.3,0.587496,0.0,13.3,0.0,-0.0,13.3,-0.0,-0.0,13.3,-0.0
2.420877806,-0.04573,13.5,-0.109752,0.45730000000000004,13.5,1.09752,0.0,13.3,0.0,0.24479,13.4,0.587496,-0.01345,13.200000000000001,-0.032279999999999996,-0.0,13.3,-0.0,-0.0,13.3,-0.0
2.453891828,-0.06456,13.600000000000001,-0.154944,0.43847,13.5,1.052328,0.0,13.4,0.0,0.23941,13.4,0.574584,-0.01614,13.3,-0.038736,-0.0,13.3,-0.0,-0.0,13.3,-0.0
2.487953554,-0.07263,13.5,-0.174312,0.41426,13.5,0.994224,0.0,13.3,0.0,0.2421,13.200000000000001,0.58104,-0.00807,13.3,-0.019368,-0.0,13.3,-0.0,-0.0,13.3,-0.0
2.521041998,-0.07532,13.600000000000001,-0.18076799999999998,0.41157,13.4,0.987768,0.0,13.3,0.0,0.25286000000000003,13.3,0.6068640000000001,-0.01076,13.200000000000001,-0.025824,-0.0,13.3,-0.0,-0.0,13.3,-0.0
2.554015258,-0.07801000000000001,13.600000000000001,-0.18722400000000003,0.40081,13.4,0.9619439999999999,0.0,13.3,0.0,0.22327,13.3,0.535848,-0.00807,13.200000000000001,-0.019368,-0.0,13.3,-0.0,-0.0,13.200000000000001,-0.0
2.587815316,-0.08070000000000001,13.5,-0.19368000000000002,0.39005,13.5,0.93612,0.0,13.3,0.0,0.24748,13.200000000000001,0.593952,-0.01614,13.3,-0.038736,-0.0,13.200000000000001,-0.0,-0.0,13.3,-0.0
2.620962036,-0.09415,13.600000000000001,-0.22596,0.39543,13.4,0.949032,0.0,13.3,0.0,0.26362,13.3,0.632688,-0.01076,13.200000000000001,-0.025824,-0.0,13.200000000000001,-0.0,-0.0,13.200000000000001,-0.0
2.653835216,-0.10491,13.5,-0.251784,0.35508,13.4,0.852192,0.0,13.3,0.0,0.23941,13.200000000000001,0.574584,-0.01614,13.200000000000001,-0.038736,-0.0,13.200000000000001,-0.0,-0.0,13.200000000000001,-0.0
2.687811181,-0.10491,13.600000000000001,-0.251784,0.35508,13.4,0.852192,0.0,13.3,0.0,0.21251,13.200000000000001,0.510024,-0.01345,13.200000000000001,-0.032279999999999996,-0.0,13.200000000000001,-0.0,-0.0,13.200000000000001,-0.0
2.720993481,-0.10222,13.5,-0.245328,0.36315000000000003,13.3,0.87156,0.0,13.200000000000001,0.0,0.25017,13.200000000000001,0.6004079999999999,-0.01345,13.200000000000001,-0.032279999999999996,-0.0,13.200000000000001,-0.0,0.00269,13.200000000000001,0.006456
2.754789473,-0.10222,13.5,-0.245328,0.35508,13.3,0.852192,0.0,13.200000000000001,0.0,0.22596000000000002,13.3,0.542304,-0.01076,13.100000000000001,-0.025824,-0.0,13.200000000000001,-0.0,-0.0,13.200000000000001,-0.0
2.787802385,-0.11029,13.5,-0.264696,0.36853,13.4,0.884472,0.0,13.200000000000001,0.0,0.27976,13.3,0.671424,-0.01345,13.200000000000001,-0.032279999999999996,-0.0,13.100000000000001,-0.0,-0.0,13.200000000000001,-0.0
2.820868442,-0.11567000000000001,13.5,-0.277608,0.32549,13.3,0.781176,0.0,13.3,0.0,0.24748,13.200000000000001,0.593952,-0.01345,13.200000000000001,-0.032279999999999996,-0.0,13.200000000000001,-0.0,-0.0,13.200000000000001,-0.0
2.854765562,-0.13181,13.5,-0.316344,0.30935,13.4,0.74244,0.0,13.200000000000001,0.0,0.22058,13.3,0.529392,-0.01076,13.200000000000001,-0.025824,-0.0,13.100000000000001,-0.0,-0.0,13.200000000000001,-0.0
2.887800889,-0.12374,12.3,-0.296976,0.30935,11.8,0.74244,-1.5628900000000001,11.700000000000001,-3.7509360000000003,0.25555,11.5,0.61332,-0.00538,11.3,-0.012912,-0.0,11.3,-0.0,-0.0,11.4,-0.0
2.920835163,-0.07532,12.9,-0.18076799999999998,-0.02152,12.5,-0.051648,-0.98185,12.3,-2.35644,0.17754,12.200000000000001,0.426096,-0.03228,12.200000000000001,-0.077472,-0.0,12.100000000000001,-0.0,-0.00269,12.200000000000001,-0.006456
2.954951222,-0.09684000000000001,13.5,-0.232416,-0.19906000000000001,13.3,-0.477744,-0.03497,13.200000000000001,-0.083928,-0.01076,13.200000000000001,-0.025824,0.0,13.100000000000001,0.0,-0.0,13.100000000000001,-0.0,-0.01345,13.100000000000001,-0.032279999999999996
2.987796285,-0.040350000000000004,13.4,-0.09684000000000001,0.20444,13.3,0.490656,-0.3497,13.100000000000001,-0.83928,0.20713,13.0,0.497112,-0.00538,13.0,-0.012912,-0.0,13.0,-0.0,0.00538,13.0,0.012912
3.020785767,-0.040350000000000004,13.4,-0.09684000000000001,0.73168,13.100000000000001,1.756032,-0.05111,13.100000000000001,-0.122664,0.29859,13.0,0.716616,-0.01076,12.9,-0.025824,-0.0,12.9,-0.0,0.00538,12.9,0.012912
3.054737962,-0.06187,13.3,-0.148488,0.87156,13.200000000000001,2.091744,0.09146,13.0,0.219504,0.36584,13.100000000000001,0.878016,-0.00269,12.9,-0.006456,-0.0,12.9,-0.0,0.00538,12.9,0.012912
3.087820383,-0.08070000000000001,13.4,-0.19368000000000002,0.71285,13.100000000000001,1.71084,-0.01076,13.100000000000001,-0.025824,0.33894,13.0,0.8134560000000001,0.0,12.9,0.0,-0.0,12.9,-0.0,-0.0,12.9,-0.0
3.120794116,-0.09684000000000001,13.3,-0.232416,0.5918,13.200000000000001,1.42032,-0.22327,13.0,-0.535848,0.25555,13.100000000000001,0.61332,-0.00269,12.9,-0.006456,-0.0,12.9,-0.0,0.00538,12.9,0.012912
3.154723522,-0.09415,13.4,-0.22596,0.20713,13.3,0.497112,-0.39274000000000003,13.200000000000001,-0.9425760000000001,0.17216,13.100000000000001,0.413184,0.0,13.0,0.0,-0.0,13.0,-0.0,0.00538,13.0,0.012912
3.187708514,-0.10222,13.5,-0.245328,0.08339,13.200000000000001,0.200136,-0.50841,13.100000000000001,-1.220184,0.15333,13.100000000000001,0.367992,-0.00538,13.0,-0.012912,-0.0,13.0,-0.0,0.00538,13.100000000000001,0.012912
3.220752729,-0.11298000000000001,13.5,-0.271152,0.12374,13.3,0.296976,-0.51648,13.100000000000001,-1.239552,0.14795,13.100000000000001,0.35508,-0.00807,13.0,-0.019368,-0.0,13.100000000000001,-0.0,0.00538,13.0,0.012912
3.254638933,-0.12105,13.5,-0.29052,0.21789,13.3,0.522936,-0.41426,13.200000000000001,-0.994224,0.14526,13.100000000000001,0.348624,-0.01076,13.100000000000001,-0.025824,-0.0,13.100000000000001,-0.0,0.00538,13.0,0.012912
3.287854082,-0.13719,13.4,-0.329256,0.27976,13.3,0.671424,-0.36315000000000003,13.100000000000001,-0.87156,0.22327,13.200000000000001,0.535848,-0.01076,13.0,-0.025824,-0.0,13.100000000000001,-0.0,0.00538,13.100000000000001,0.012912
3.32073672,-0.12105,13.5,-0.29052,0.32280000000000003,13.200000000000001,0.7747200000000001,-0.36046,13.200000000000001,-0.865104,0.19637000000000002,13.100000000000001,0.47128800000000004,0.0,13.0,0.0,-0.0,13.0,-0.0,0.00538,13.0,0.012912
3.354577817,-0.1345,13.5,-0.32280000000000003,0.29859,13.3,0.716616,-0.36046,13.100000000000001,-0.865104,0.16947,13.100000000000001,0.40672800000000003,-0.00538,13.0,-0.012912,-0.0,13.0,-0.0,0.00538,13.0,0.012912
3.387546672,-0.12912,13.5,-0.309888,0.25555,13.200000000000001,0.61332,-0.4304,13.200000000000001,-1.0329599999999999,0.19906000000000001,13.100000000000001,0.477744,-0.01614,13.0,-0.038736,-0.0,13.0,-0.0,0.00538,13.0,0.012912
3.420555597,-0.15064,13.5,-0.36153599999999997,0.23941,13.3,0.574584,-0.42233000000000004,13.100000000000001,-1.013592,0.16409,13.100000000000001,0.393816,-0.01345,13.0,-0.032279999999999996,-0.0,13.0,-0.0,0.00538,13.100000000000001,0.012912
3.454596925,-0.14526,13.5,-0.348624,0.19906000000000001,13.200000000000001,0.477744,-0.42502,13.100000000000001,-1.020048,0.11567000000000001,13.100000000000001,0.277608,-0.01345,13.0,-0.032279999999999996,-0.0,13.100000000000001,-0.0,0.00538,13.100000000000001,0.012912
3.487564021,-0.14257,13.5,-0.34216799999999997,0.18561,13.3,0.44546399999999997,-0.47882,13.200000000000001,-1.149168,0.1883,13.100000000000001,0.45192,-0.00538,13.100000000000001,-0.012912,-0.0,13.0,-0.0,0.00538,13.100000000000001,0.012912
3.520589569,-0.14526,13.4,-0.348624,0.15602000000000002,13.200000000000001,0.37444800000000006,-0.46537,13.100000000000001,-1.1168879999999999,0.12105,13.100000000000001,0.29052,-0.01345,13.100000000000001,-0.032279999999999996,-0.0,13.0,-0.0,0.00538,13.100000000000001,0.012912
3.554615479,-0.12912,13.4,-0.309888,0.15064,13.3,0.36153599999999997,-0.45192000000000004,13.200000000000001,-1.084608,0.09684000000000001,13.200000000000001,0.232416,-0.00807,13.100000000000001,-0.019368,-0.0,13.100000000000001,-0.0,0.00538,13.100000000000001,0.012912
3.587606838,-0.11836,13.5,-0.284064,0.15333,13.3,0.367992,-0.48689000000000004,13.200000000000001,-1.168536,0.14526,13.100000000000001,0.348624,-0.00807,13.100000000000001,-0.019368,-0.0,13.100000000000001,-0.0,0.00538,13.0,0.012912
3.622724447,-0.13181,13.5,-0.316344,0.16140000000000002,13.3,0.38736000000000004,-0.45461,13.0,-1.091064,0.1076,13.200000000000001,0.25823999999999997,-0.00538,13.100000000000001,-0.012912,-0.0,13.100000000000001,-0.0,0.00538,13.100000000000001,0.012912
3.654643952,-0.11298000000000001,13.5,-0.271152,0.13988,13.3,0.335712,-0.44385,13.200000000000001,-1.06524,0.10491,13.100000000000001,0.251784,-0.01345,13.100000000000001,-0.032279999999999996,-0.0,13.100000000000001,-0.0,0.00538,13.100000000000001,0.012912
3.687648349,-0.1076,13.5,-0.25823999999999997,0.11836,13.3,0.284064,-0.5057200000000001,13.100000000000001,-1.2137280000000001,0.1345,13.200000000000001,0.32280000000000003,-0.00269,13.0,-0.006456,-0.0,13.100000000000001,-0.0,0.00538,13.100000000000001,0.012912
3.720620776,-0.12374,13.5,-0.296976,0.11298000000000001,13.3,0.271152,-0.47613,13.200000000000001,-1.142712,0.08877,13.100000000000001,0.213048,-0.01345,13.100000000000001,-0.032279999999999996,-0.0,13.100000000000001,-0.0,0.00269,13.100000000000001,0.006456
3.754615986,-0.1076,13.4,-0.25823999999999997,0.07263,13.3,0.174312,-0.50841,13.200000000000001,-1.220184,0.06725,13.200000000000001,0.16140000000000002,-0.01076,13.100000000000001,-0.025824,-0.0,13.100000000000001,-0.0,0.00269,13.100000000000001,0.006456
3.787597806,-0.09953000000000001,13.5,-0.238872,0.08070000000000001,13.3,0.19368000000000002,-0.5541400000000001,13.200000000000001,-1.3299360000000002,0.11836,13.100000000000001,0.284064,-0.01345,13.100000000000001,-0.032279999999999996,-0.0,13.0,-0.0,0.00538,13.100000000000001,0.012912
3.8206007,-0.10491,13.5,-0.251784,0.07263,13.3,0.174312,-0.57297,13.200000000000001,-1.375128,0.06994,13.200000000000001,0.167856,-0.01076,13.100000000000001,-0.025824,-0.0,13.100000000000001,-0.0,0.00538,13.100000000000001,0.012912
3.854523202,-0.09415,13.5,-0.22596,0.03497,13.3,0.083928,-0.5353100000000001,13.100000000000001,-1.284744,0.05918,13.200000000000001,0.142032,-0.00269,13.100000000000001,-0.006456,-0.0,13.100000000000001,-0.0,0.00538,13.100000000000001,0.012912
3.887673386,-0.09146,13.5,-0.219504,0.03766,13.3,0.09038399999999999,-0.58642,13.100000000000001,-1.407408,0.06725,13.100000000000001,0.16140000000000002,-0.01076,13.100000000000001,-0.025824,-0.0,13.100000000000001,-0.0,0.00538,13.100000000000001,0.012912
3.920609684,-0.08339,13.5,-0.200136,0.040350000000000004,13.3,0.09684000000000001,-0.53262,13.200000000000001,-1.2782879999999999,0.07801000000000001,13.200000000000001,0.18722400000000003,-0.02152,13.100000000000001,-0.051648,-0.0,13.100000000000001,-0.0,0.00538,13.100000000000001,0.012912
3.954512229,-0.08608,13.5,-0.206592,0.01614,13.3,0.038736,-0.56221,13.200000000000001,-1.3493039999999998,0.0538,13.100000000000001,0.12911999999999998,-0.00269,13.100000000000001,-0.006456,-0.0,13.100000000000001,-0.0,0.00538,13.100000000000001,0.012912
3.98753581,-0.07801000000000001,13.5,-0.18722400000000003,-0.01076,13.3,-0.025824,-0.5918,13.100000000000001,-1.42032,0.056490000000000005,13.200000000000001,0.135576,-0.01076,13.100000000000001,-0.025824,-0.0,13.100000000000001,-0.0,0.00538,13.100000000000001,0.012912
4.020644041,-0.05918,13.4,-0.142032,-0.02959,13.3,-0.071016,-0.61332,13.200000000000001,-1.471968,0.03766,13.100000000000001,0.09038399999999999,-0.01076,13.100000000000001,-0.025824,-0.0,13.100000000000001,-0.0,0.00538,13.100000000000001,0.012912
4.054699566,-0.08070000000000001,13.4,-0.19368000000000002,-0.040350000000000004,13.3,-0.09684000000000001,-0.66981,13.200000000000001,-1.607544,0.02959,13.200000000000001,0.071016,-0.00538,13.100000000000001,-0.012912,-0.0,13.100000000000001,-0.0,0.00538,13.100000000000001,0.012912
4.08769625,-0.06187,13.4,-0.148488,-0.040350000000000004,13.3,-0.09684000000000001,-0.65905,13.100000000000001,-1.58172,0.03766,13.0,0.09038399999999999,-0.00807,13.100000000000001,-0.019368,-0.0,13.100000000000001,-0.0,0.00538,13.100000000000001,0.012912
4.120570019,-0.06456,13.4,-0.154944,-0.03228,13.3,-0.077472,-0.68057,13.100000000000001,-1.633368,0.02152,13.200000000000001,0.051648,-0.00269,13.100000000000001,-0.006456,-0.0,13.0,-0.0,0.00538,13.100000000000001,0.012912
4.154659235,-0.06994,13.5,-0.167856,-0.02152,13.3,-0.051648,-0.64291,13.200000000000001,-1.542984,0.01614,13.100000000000001,0.038736,-0.00807,13.100000000000001,-0.019368,-0.0,13.100000000000001,-0.0,0.00538,13.100000000000001,0.012912
4.187629321,-0.08608,13.5,-0.206592,-0.02152,13.3,-0.051648,-0.64291,13.100000000000001,-1.542984,0.03766,13.200000000000001,0.09038399999999999,-0.01076,13.100000000000001,-0.025824,-0.0,13.100000000000001,-0.0,0.00538,13.100000000000001,0.012912
4.22059839,-0.06456,13.5,-0.154944,-0.03766,13.3,-0.09038399999999999,-0.6240800000000001,13.200000000000001,-1.4977920000000002,0.05111,13.100000000000001,0.122664,-0.00269,13.100000000000001,-0.006456,-0.0,13.100000000000001,-0.0,0.00538,13.100000000000001,0.012912
4.254706846,-0.06456,13.5,-0.154944,-0.06725,13.3,-0.16140000000000002,-0.65367,13.200000000000001,-1.568808,0.00807,13.200000000000001,0.019368,-0.01076,13.100000000000001,-0.025824,-0.0,13.100000000000001,-0.0,0.00538,13.100000000000001,0.012912
4.287604438,-0.07532,13.5,-0.18076799999999998,-0.05918,13.3,-0.142032,-0.63753,13.3,-1.530072,0.02959,13.100000000000001,0.071016,-0.01076,13.100000000000001,-0.025824,-0.0,13.100000000000001,-0.0,0.00538,13.100000000000001,0.012912
4.320598193,-0.06456,13.5,-0.154944,-0.1076,13.3,-0.25823999999999997,-0.68326,13.200000000000001,-1.639824,0.02959,13.200000000000001,0.071016,-0.00807,13.100000000000001,-0.019368,-0.0,13.100000000000001,-0.0,0.00538,13.100000000000001,0.012912
4.354828161,-0.05918,13.5,-0.142032,-0.11029,13.3,-0.264696,-0.7155400000000001,13.200000000000001,-1.7172960000000002,-0.00538,13.200000000000001,-0.012912,-0.00807,13.100000000000001,-0.019368,-0.0,13.0,-0.0,0.00538,13.100000000000001,0.012912
4.387521011,-0.07263,13.5,-0.174312,-0.08877,13.3,-0.213048,-0.6859500000000001,13.200000000000001,-1.6462800000000002,0.01883,13.100000000000001,0.045191999999999996,0.0,13.100000000000001,0.0,-0.0,13.100000000000001,-0.0,0.00269,13.100000000000001,0.006456
4.420518888,-0.0538,13.5,-0.12911999999999998,-0.13181,13.4,-0.316344,-0.73706,13.100000000000001,-1.768944,0.01883,13.100000000000001,0.045191999999999996,-0.00807,13.100000000000001,-0.019368,-0.0,13.0,-0.0,0.00538,13.100000000000001,0.012912
4.454502454,-0.06725,13.5,-0.16140000000000002,-0.13181,13.3,-0.316344,-0.69671,13.100000000000001,-1.672104,-0.00269,13.200000000000001,-0.006456,-0.00538,13.100000000000001,-0.012912,-0.0,13.100000000000001,-0.0,0.00538,13.100000000000001,0.012912
4.487506705,-0.06456,13.5,-0.154944,-0.13719,13.3,-0.329256,-0.71285,13.100000000000001,-1.71084,0.01883,13.200000000000001,0.045191999999999996,0.0,13.100000000000001,0.0,-0.0,13.100000000000001,-0.0,0.00538,13.100000000000001,0.012912
4.52046651,-0.07532,13.4,-0.18076799999999998,-0.14795,13.200000000000001,-0.35508,-0.74782,13.3,-1.7947680000000001,0.01345,13.100000000000001,0.032279999999999996,-0.00807,13.100000000000001,-0.019368,-0.0,13.0,-0.0,0.00538,13.100000000000001,0.012912
4.554553263,-0.06994,13.5,-0.167856,-0.15871000000000002,13.3,-0.380904,-0.69133,13.200000000000001,-1.659192,-0.01076,13.200000000000001,-0.025824,0.0,13.100000000000001,0.0,-0.0,13.100000000000001,-0.0,0.00538,13.100000000000001,0.012912
4.587490332,-0.06725,13.5,-0.16140000000000002,-0.13988,13.3,-0.335712,-0.7451300000000001,13.200000000000001,-1.7883120000000001,0.0,13.200000000000001,0.0,-0.01076,13.100000000000001,-0.025824,-0.0,13.100000000000001,-0.0,0.00538,13.100000000000001,0.012912
4.621454428,-0.08070000000000001,13.5,-0.19368000000000002,-0.19099000000000002,13.3,-0.458376,-0.69133,13.100000000000001,-1.659192,0.01345,13.100000000000001,0.032279999999999996,-0.01076,13.100000000000001,-0.025824,-0.0,13.100000000000001,-0.0,0.00538,13.100000000000001,0.012912
4.654457659,-0.06994,13.4,-0.167856,-0.16947,13.3,-0.40672800000000003,-0.7263000000000001,13.200000000000001,-1.74312,0.01883,13.0,0.045191999999999996,-0.01345,13.100000000000001,-0.032279999999999996,-0.0,13.0,-0.0,0.00538,13.100000000000001,0.012912
4.687526259,-0.06456,13.5,-0.154944,-0.16678,13.4,-0.400272,-0.6994,13.100000000000001,-1.67856,-0.00538,13.200000000000001,-0.012912,-0.01076,13.100000000000001,-0.025824,-0.0,13.100000000000001,-0.0,0.00538,13.100000000000001,0.012912
4.72151425,-0.08339,13.5,-0.200136,-0.18023,13.3,-0.432552,-0.7263000000000001,13.200000000000001,-1.74312,-0.00269,13.200000000000001,-0.006456,-0.01076,13.100000000000001,-0.025824,-0.0,13.100000000000001,-0.0,0.00269,13.100000000000001,0.006456
4.754690317,-0.08070000000000001,13.4,-0.19368000000000002,-0.18292,13.3,-0.439008,-0.68057,13.100000000000001,-1.633368,0.03228,13.100000000000001,0.077472,-0.0269,13.0,-0.06455999999999999,-0.0,13.100000000000001,-0.0,0.00538,13.100000000000001,0.012912
4.787649565,-0.07263,13.4,-0.174312,-0.19099000000000002,13.3,-0.458376,-0.71285,13.200000000000001,-1.71084,0.01614,13.100000000000001,0.038736,0.0,13.100000000000001,0.0,-0.0,13.100000000000001,-0.0,0.00538,13.100000000000001,0.012912
4.821601227,-0.07263,13.5,-0.174312,-0.19637000000000002,13.3,-0.47128800000000004,-0.71285,13.3,-1.71084,-0.01076,13.100000000000001,-0.025824,-0.00807,13.100000000000001,-0.019368,-0.0,13.100000000000001,-0.0,0.00538,13.100000000000001,0.012912
4.854576282,-0.07801000000000001,13.5,-0.18722400000000003,-0.22596000000000002,13.3,-0.542304,-0.73168,13.200000000000001,-1.756032,0.024210000000000002,13.100000000000001,0.058104,-0.00807,13.100000000000001,-0.019368,-0.0,13.100000000000001,-0.0,0.00269,13.100000000000001,0.006456
4.887586321,-0.08070000000000001,13.5,-0.19368000000000002,-0.22058,13.3,-0.529392,-0.7962400000000001,13.3,-1.910976,-0.00269,13.100000000000001,-0.006456,-0.01076,13.100000000000001,-0.025824,-0.0,13.100000000000001,-0.0,0.00538,13.100000000000001,0.012912
4.921492117,-0.07532,13.5,-0.18076799999999998,-0.25286000000000003,13.4,-0.6068640000000001,-0.77203,13.200000000000001,-1.8528719999999999,-0.00538,13.100000000000001,-0.012912,-0.00807,13.100000000000001,-0.019368,-0.0,13.100000000000001,-0.0,0.00538,13.100000000000001,0.012912
4.954560803,-0.08070000000000001,13.5,-0.19368000000000002,-0.22865000000000002,13.3,-0.54876,-0.76665,13.200000000000001,-1.83996,0.01076,13.100000000000001,0.025824,-0.01076,13.100000000000001,-0.025824,-0.0,13.100000000000001,-0.0,0.00538,13.100000000000001,0.012912
4.98752623,-0.08339,13.5,-0.200136,-0.26093,13.4,-0.626232,-0.78817,13.0,-1.891608,0.00269,13.100000000000001,0.006456,-0.01076,13.100000000000001,-0.025824,-0.0,13.0,-0.0,0.00538,13.100000000000001,0.012912
5.02166607,-0.07263,13.5,-0.174312,-0.25555,13.200000000000001,-0.61332,-0.74244,13.200000000000001,-1.7818559999999999,-0.01614,13.100000000000001,-0.038736,-0.00538,13.100000000000001,-0.012912,-0.0,13.100000000000001,-0.0,0.00538,13.100000000000001,0.012912
5.054280462,-0.09415,13.5,-0.22596,-0.25286000000000003,13.200000000000001,-0.6068640000000001,-0.74244,13.200000000000001,-1.7818559999999999,0.03497,13.100000000000001,0.083928,0.0,13.100000000000001,0.0,-0.0,13.100000000000001,-0.0,0.00269,13.100000000000001,0.006456
5.087588225,-0.08070000000000001,13.5,-0.19368000000000002,-0.27976,13.3,-0.671424,-0.75858,13.200000000000001,-1.820592,0.0269,13.100000000000001,0.06455999999999999,-0.00269,13.100000000000001,-0.006456,-0.0,13.100000000000001,-0.0,0.00269,13.100000000000001,0.006456
5.121175838,-0.08070000000000001,13.5,-0.19368000000000002,-0.28245000000000003,13.4,-0.67788,-0.71285,13.200000000000001,-1.71084,-0.00269,13.200000000000001,-0.006456,-0.00269,13.100000000000001,-0.006456,-0.0,13.100000000000001,-0.0,0.00269,13.100000000000001,0.006456
5.154199251,-0.08877,13.4,-0.213048,-0.28245000000000003,13.3,-0.67788,-0.7854800000000001,13.200000000000001,-1.8851520000000002,0.04304,13.100000000000001,0.103296,-0.01345,13.100000000000001,-0.032279999999999996,-0.0,13.100000000000001,-0.0,0.00269,13.100000000000001,0.006456
5.187259995,-0.08877,13.5,-0.213048,-0.28783000000000003,13.3,-0.6907920000000001,-0.7747200000000001,13.100000000000001,-1.859328,-0.00538,13.200000000000001,-0.012912,0.0,13.100000000000001,0.0,-0.0,13.100000000000001,-0.0,0.00269,13.100000000000001,0.006456
5.221206812,-0.06725,13.5,-0.16140000000000002,-0.33356,13.3,-0.800544,-0.7532,13.200000000000001,-1.80768,-0.01614,13.200000000000001,-0.038736,-0.00269,13.100000000000001,-0.006456,-0.0,13.100000000000001,-0.0,0.00269,13.100000000000001,0.006456
5.254217205,-0.08070000000000001,13.5,-0.19368000000000002,-0.29321,13.3,-0.703704,-0.81238,13.200000000000001,-1.949712,0.01076,13.200000000000001,0.025824,-0.01345,13.100000000000001,-0.032279999999999996,-0.0,13.0,-0.0,0.00269,13.100000000000001,0.006456
5.287068001,-0.09146,13.5,-0.219504,-0.32011,13.4,-0.768264,-0.75858,13.200000000000001,-1.820592,0.0,13.100000000000001,0.0,-0.00807,13.100000000000001,-0.019368,-0.0,13.100000000000001,-0.0,0.00269,13.100000000000001,0.006456
5.321159262,-0.09415,13.5,-0.22596,-0.36584,13.3,-0.878016,-0.78279,13.200000000000001,-1.878696,-0.01614,13.100000000000001,-0.038736,-0.00807,13.100000000000001,-0.019368,-0.0,13.100000000000001,-0.0,0.00269,13.100000000000001,0.006456
5.354281131,-0.08608,13.5,-0.206592,-0.29321,13.3,-0.703704,-0.75051,13.200000000000001,-1.801224,0.02152,13.100000000000001,0.051648,-0.00538,13.100000000000001,-0.012912,-0.0,13.0,-0.0,0.00269,13.100000000000001,0.006456
5.38723925,-0.09684000000000001,13.5,-0.232416,-0.33625,13.4,-0.8069999999999999,-0.76127,13.3,-1.827048,0.00269,13.200000000000001,0.006456,-0.01076,13.100000000000001,-0.025824,-0.0,13.100000000000001,-0.0,0.00538,13.100000000000001,0.012912
5.42124981,-0.07801000000000001,13.5,-0.18722400000000003,-0.33625,13.3,-0.8069999999999999,-0.73168,13.200000000000001,-1.756032,0.00807,13.100000000000001,0.019368,-0.01076,13.100000000000001,-0.025824,-0.0,13.100000000000001,-0.0,0.00269,13.100000000000001,0.006456
5.454312504,-0.08608,13.5,-0.206592,-0.33894,13.3,-0.8134560000000001,-0.76665,13.100000000000001,-1.83996,0.03766,13.200000000000001,0.09038399999999999,-0.01345,13.100000000000001,-0.032279999999999996,-0.0,13.100000000000001,-0.0,0.00538,13.100000000000001,0.012912
5.487240618,-0.09415,13.5,-0.22596,-0.36046,13.3,-0.865104,-0.71016,13.100000000000001,-1.704384,0.00269,13.200000000000001,0.006456,0.0,13.100000000000001,0.0,-0.0,13.100000000000001,-0.0,0.00538,13.100000000000001,0.012912
5.521205393,-0.08877,13.5,-0.213048,-0.38736000000000004,13.4,-0.929664,-0.77203,13.200000000000001,-1.8528719999999999,-0.01345,13.200000000000001,-0.032279999999999996,0.0,13.200000000000001,0.0,-0.0,13.100000000000001,-0.0,0.00538,13.200000000000001,0.012912
5.554111077,-0.08608,13.5,-0.206592,-0.36584,13.4,-0.878016,-0.75051,13.200000000000001,-1.801224,-0.00269,13.3,-0.006456,-0.00807,13.200000000000001,-0.019368,-0.0,13.100000000000001,-0.0,0.00538,13.200000000000001,0.012912
5.587240405,-0.08070000000000001,13.5,-0.19368000000000002,-0.38198000000000004,13.3,-0.916752,-0.72092,13.200000000000001,-1.730208,0.00269,13.100000000000001,0.006456,-0.00269,13.100000000000001,-0.006456,-0.0,13.100000000000001,-0.0,0.00538,13.200000000000001,0.012912
5.621233718,-0.11029,13.5,-0.264696,-0.39543,13.4,-0.949032,-0.78279,13.200000000000001,-1.878696,0.00269,13.200000000000001,0.006456,-0.00269,13.100000000000001,-0.006456,-0.0,13.100000000000001,-0.0,0.00538,13.200000000000001,0.012912
5.654157827,-0.11298000000000001,13.5,-0.271152,-0.35508,13.3,-0.852192,-0.74782,13.200000000000001,-1.7947680000000001,-0.00538,13.200000000000001,-0.012912,-0.00538,13.200000000000001,-0.012912,-0.0,13.200000000000001,-0.0,0.00538,13.200000000000001,0.012912
5.687116421,-0.10491,13.5,-0.251784,-0.3497,13.3,-0.83928,-0.71823,13.200000000000001,-1.723752,0.00807,13.200000000000001,0.019368,-0.00269,13.200000000000001,-0.006456,-0.0,13.200000000000001,-0.0,0.00538,13.200000000000001,0.012912
5.72110556,-0.08877,13.5,-0.213048,-0.37929,13.3,-0.910296,-0.68057,13.3,-1.633368,-0.01883,13.3,-0.045191999999999996,-0.00538,13.200000000000001,-0.012912,-0.0,13.200000000000001,-0.0,0.00538,13.200000000000001,0.012912
5.754142459,-0.11298000000000001,13.5,-0.271152,-0.34701000000000004,13.4,-0.8328240000000001,-0.72092,13.200000000000001,-1.730208,0.01345,13.200000000000001,0.032279999999999996,-0.01076,13.200000000000001,-0.025824,-0.0,13.200000000000001,-0.0,0.00538,13.200000000000001,0.012912
5.787217133,-0.10222,13.600000000000001,-0.245328,-0.35777000000000003,13.4,-0.8586480000000001,-0.6751900000000001,13.3,-1.6204560000000001,0.01076,13.200000000000001,0.025824,0.0,13.200000000000001,0.0,-0.0,13.200000000000001,-0.0,0.00269,13.200000000000001,0.006456
5.821083319,-0.09684000000000001,13.600000000000001,-0.232416,-0.37391,13.4,-0.8973840000000001,-0.6940200000000001,13.4,-1.6656480000000002,-0.00538,13.3,-0.012912,-0.01076,13.200000000000001,-0.025824,-0.0,13.200000000000001,-0.0,0.00269,13.200000000000001,0.006456
5.854099167,-0.09684000000000001,13.600000000000001,-0.232416,-0.35239000000000004,13.5,-0.845736,-0.68864,13.3,-1.652736,0.0,13.3,0.0,-0.00807,13.200000000000001,-0.019368,-0.0,13.200000000000001,-0.0,0.00269,13.200000000000001,0.006456
5.88710328,-0.10491,13.600000000000001,-0.251784,-0.33356,13.4,-0.800544,-0.6725,13.3,-1.6139999999999999,0.00538,13.3,0.012912,0.0,13.200000000000001,0.0,-0.0,13.3,-0.0,0.00269,13.3,0.006456
5.921064574,-0.09415,13.600000000000001,-0.22596,-0.34432,13.5,-0.826368,-0.6725,13.3,-1.6139999999999999,-0.01345,13.4,-0.032279999999999996,-0.01345,13.3,-0.032279999999999996,-0.0,13.3,-0.0,0.00269,13.3,0.006456
5.954226226,-0.10222,13.600000000000001,-0.245328,-0.32549,13.4,-0.781176,-0.7343700000000001,13.4,-1.762488,-0.01076,13.3,-0.025824,-0.00269,13.3,-0.006456,-0.0,13.3,-0.0,0.00269,13.3,0.006456
5.987232438,-0.09953000000000001,13.600000000000001,-0.238872,-0.39812000000000003,13.5,-0.955488,-0.71285,13.5,-1.71084,0.00269,13.3,0.006456,0.0,13.3,0.0,-0.0,13.3,-0.0,0.00538,13.3,0.012912
6.020948393,-0.09684000000000001,13.600000000000001,-0.232416,-0.42502,13.5,-1.020048,-0.6859500000000001,13.4,-1.6462800000000002,-0.01883,13.4,-0.045191999999999996,-0.01345,13.3,-0.032279999999999996,-0.0,13.3,-0.0,0.00538,13.3,0.012912
6.054219226,-0.10491,13.600000000000001,-0.251784,-0.41157,13.5,-0.987768,-0.7047800000000001,13.3,-1.691472,0.0,13.4,0.0,-0.00269,13.3,-0.006456,-0.0,13.3,-0.0,0.00538,13.3,0.012912
6.088043702,-0.08877,13.600000000000001,-0.213048,-0.39274000000000003,13.5,-0.9425760000000001,-0.69133,13.4,-1.659192,-0.01345,13.4,-0.032279999999999996,0.0,13.3,0.0,-0.0,13.4,-0.0,0.00538,13.4,0.012912
6.121130895,-0.09146,13.600000000000001,-0.219504,-0.38736000000000004,13.5,-0.929664,-0.6751900000000001,13.5,-1.6204560000000001,-0.00807,13.4,-0.019368,-0.01883,13.4,-0.045191999999999996,-0.0,13.4,-0.0,0.00538,13.4,0.012912
6.15412974,-0.1076,13.600000000000001,-0.25823999999999997,-0.38198000000000004,13.5,-0.916752,-0.6994,13.4,-1.67856,-0.00269,13.4,-0.006456,0.0,13.4,0.0,-0.0,13.4,-0.0,0.00538,13.4,0.012912
6.188176932,-0.09415,13.600000000000001,-0.22596,-0.36315000000000003,13.5,-0.87156,-0.67788,13.3,-1.6269120000000001,-0.01614,13.4,-0.038736,-0.01076,13.4,-0.025824,-0.0,13.4,-0.0,0.00538,13.4,0.012912
6.221107155,-0.11836,13.600000000000001,-0.284064,-0.39274000000000003,13.5,-0.9425760000000001,-0.7155400000000001,13.4,-1.7172960000000002,-0.00807,13.4,-0.019368,-0.01614,13.4,-0.038736,-0.0,13.4,-0.0,0.00538,13.4,0.012912
6.254081014,-0.10222,13.600000000000001,-0.245328,-0.37391,13.5,-0.8973840000000001,-0.67788,13.4,-1.6269120000000001,-0.01883,13.4,-0.045191999999999996,-0.00538,13.4,-0.012912,-0.0,13.4,-0.0,0.00269,13.4,0.006456
6.288140547,-0.10491,13.600000000000001,-0.251784,-0.38736000000000004,13.5,-0.929664,-0.74782,13.4,-1.7947680000000001,-0.06456,13.4,-0.154944,0.0,13.4,0.0,-0.0,13.4,-0.0,0.00269,13.4,0.006456
6.321238862,-0.09953000000000001,13.600000000000001,-0.238872,-0.38736000000000004,13.5,-0.929664,-0.64022,13.5,-1.536528,-0.06994,13.4,-0.167856,-0.00269,13.4,-0.006456,-0.0,13.4,-0.0,0.00269,13.4,0.006456
6.354101969,-0.09953000000000001,13.700000000000001,-0.238872,-0.37391,13.600000000000001,-0.8973840000000001,-0.62946,13.4,-1.510704,-0.040350000000000004,13.5,-0.09684000000000001,-0.01614,13.4,-0.038736,-0.0,13.4,-0.0,0.00269,13.4,0.006456
6.388252566,-0.11029,13.700000000000001,-0.264696,-0.43309000000000003,13.600000000000001,-1.0394160000000001,-0.6644300000000001,13.5,-1.594632,-0.03766,13.5,-0.09038399999999999,0.0,13.4,0.0,-0.0,13.4,-0.0,0.00269,13.4,0.006456
6.421373253,-0.09146,13.700000000000001,-0.219504,-0.39812000000000003,13.600000000000001,-0.955488,-0.63215,13.4,-1.5171599999999998,-0.03228,13.5,-0.077472,0.0,13.4,0.0,-0.0,13.4,-0.0,0.00538,13.4,0.012912
6.454075498,-0.08877,13.700000000000001,-0.213048,-0.38736000000000004,13.600000000000001,-0.929664,-0.66174,13.5,-1.588176,-0.02152,13.5,-0.051648,-0.00269,13.4,-0.006456,-0.0,13.4,-0.0,0.00538,13.4,0.012912
6.487978379,-0.09953000000000001,13.700000000000001,-0.238872,-0.41695000000000004,13.600000000000001,-1.00068,-0.6751900000000001,13.4,-1.6204560000000001,-0.03228,13.4,-0.077472,-0.00269,13.4,-0.006456,-0.0,13.4,-0.0,0.00538,13.4,0.012912
6.521134983,-0.08877,13.700000000000001,-0.213048,-0.41695000000000004,13.600000000000001,-1.00068,-0.7155400000000001,13.5,-1.7172960000000002,-0.02959,13.4,-0.071016,-0.00269,13.4,-0.006456,-0.0,13.4,-0.0,0.00538,13.4,0.012912
6.5539655,-0.09415,13.600000000000001,-0.22596,-0.41695000000000004,13.600000000000001,-1.00068,-0.71823,13.3,-1.723752,-0.03228,13.4,-0.077472,-0.00538,13.4,-0.012912,-0.0,13.4,-0.0,0.00538,13.4,0.012912
6.587822778,-0.10491,13.700000000000001,-0.251784,-0.41426,13.600000000000001,-0.994224,-0.71823,13.5,-1.723752,-0.02959,13.4,-0.071016,-0.00807,13.4,-0.019368,-0.0,13.4,-0.0,0.00538,13.4,0.012912
6.621122644,-0.09146,13.600000000000001,-0.219504,-0.41426,13.600000000000001,-0.994224,-0.71823,13.4,-1.723752,-0.02959,13.4,-0.071016,-0.00538,13.4,-0.012912,-0.0,13.4,-0.0,0.00538,13.4,0.012912
6.65401825,-0.09146,13.700000000000001,-0.219504,-0.41426,13.600000000000001,-0.994224,-0.71823,13.4,-1.723752,-0.04304,13.4,-0.103296,-0.00807,13.4,-0.019368,-0.0,13.4,-0.0,0.00538,13.4,0.012912
6.688059914,-0.09146,13.600000000000001,-0.219504,-0.4035,13.600000000000001,-0.9684,-0.71823,13.4,-1.723752,-0.03228,13.4,-0.077472,-0.00807,13.4,-0.019368,-0.0,13.4,-0.0,0.00538,13.4,0.012912
6.721059714,-0.08877,13.700000000000001,-0.213048,-0.41695000000000004,13.600000000000001,-1.00068,-0.71823,13.4,-1.723752,-0.04304,13.4,-0.103296,-0.00269,13.4,-0.006456,-0.0,13.4,-0.0,0.00538,13.4,0.012912
6.753993491,-0.09146,13.700000000000001,-0.219504,-0.40619,13.5,-0.974856,-0.71823,13.5,-1.723752,-0.03766,13.4,-0.09038399999999999,-0.00807,13.4,-0.019368,-0.0,13.4,-0.0,0.00538,13.4,0.012912
6.787819315,-0.08877,13.700000000000001,-0.213048,-0.41426,13.600000000000001,-0.994224,-0.71823,13.5,-1.723752,-0.03228,13.4,-0.077472,-0.00807,13.4,-0.019368,-0.0,13.4,-0.0,0.00538,13.4,0.012912
6.820947455,-0.08877,13.700000000000001,-0.213048,-0.41426,13.5,-0.994224,-0.71823,13.4,-1.723752,-0.03766,13.4,-0.09038399999999999,-0.00807,13.4,-0.019368,-0.0,13.4,-0.0,0.00538,13.4,0.012912
6.853887098,-0.09146,13.700000000000001,-0.219504,-0.41695000000000004,13.600000000000001,-1.00068,-0.72092,13.5,-1.730208,-0.03228,13.5,-0.077472,-0.00807,13.4,-0.019368,-0.0,13.4,-0.0,0.00269,13.4,0.006456
6.887905176,-0.09146,13.600000000000001,-0.219504,-0.41695000000000004,13.600000000000001,-1.00068,-0.72092,13.5,-1.730208,-0.05111,13.4,-0.122664,-0.00538,13.4,-0.012912,-0.0,13.4,-0.0,0.00269,13.4,0.006456
6.920900175,-0.09684000000000001,13.700000000000001,-0.232416,-0.41695000000000004,13.600000000000001,-1.00068,-0.72092,13.4,-1.730208,-0.0538,13.4,-0.12911999999999998,-0.00538,13.4,-0.012912,-0.0,13.4,-0.0,0.00269,13.4,0.006456
6.954012645,-0.09146,13.700000000000001,-0.219504,-0.41695000000000004,13.600000000000001,-1.00068,-0.72092,13.4,-1.730208,-0.03766,13.4,-0.09038399999999999,-0.00269,13.4,-0.006456,-0.0,13.4,-0.0,0.00269,13.4,0.006456
6.987862107,-0.08877,13.600000000000001,-0.213048,-0.41695000000000004,13.600000000000001,-1.00068,-0.72092,13.4,-1.730208,-0.0538,13.4,-0.12911999999999998,-0.00538,13.4,-0.012912,-0.0,13.4,-0.0,0.00538,13.4,0.012912
7.020999151,-0.08877,13.700000000000001,-0.213048,-0.41695000000000004,13.5,-1.00068,-0.72092,13.5,-1.730208,-0.04304,13.4,-0.103296,-0.00538,13.4,-0.012912,-0.0,13.4,-0.0,0.00538,13.4,0.012912
7.053969168,-0.08877,13.600000000000001,-0.213048,-0.41695000000000004,13.600000000000001,-1.00068,-0.72092,13.4,-1.730208,-0.06725,13.4,-0.16140000000000002,-0.00269,13.4,-0.006456,-0.0,13.4,-0.0,0.00538,13.4,0.012912
7.088160876,-0.09146,13.700000000000001,-0.219504,-0.42771000000000003,13.600000000000001,-1.026504,-0.72092,13.4,-1.730208,-0.048420000000000005,13.4,-0.116208,-0.00538,13.4,-0.012912,-0.0,13.4,-0.0,0.00538,13.4,0.012912
7.121217074,-0.08877,13.700000000000001,-0.213048,-0.41964,13.600000000000001,-1.007136,-0.72092,13.4,-1.730208,-0.03497,13.4,-0.083928,-0.00269,13.4,-0.006456,-0.0,13.4,-0.0,0.00538,13.4,0.012912
7.154104511,-0.08877,13.700000000000001,-0.213048,-0.41695000000000004,13.5,-1.00068,-0.72092,13.5,-1.730208,-0.05918,13.4,-0.142032,-0.00538,13.4,-0.012912,-0.0,13.4,-0.0,0.00538,13.4,0.012912
7.188006239,-0.09415,13.700000000000001,-0.22596,-0.41695000000000004,13.5,-1.00068,-0.72092,13.4,-1.730208,-0.0538,13.4,-0.12911999999999998,-0.00538,13.4,-0.012912,-0.0,13.4,-0.0,0.00538,13.4,0.012912
7.220978858,-0.09146,13.700000000000001,-0.219504,-0.41695000000000004,13.600000000000001,-1.00068,-0.72092,13.4,-1.730208,-0.03497,13.4,-0.083928,-0.00538,13.4,-0.012912,-0.0,13.4,-0.0,0.00538,13.4,0.012912
7.253853568,-0.09684000000000001,13.600000000000001,-0.232416,-0.41964,13.5,-1.007136,-0.72092,13.4,-1.730208,-0.05111,13.4,-0.122664,-0.00269,13.4,-0.006456,-0.0,13.4,-0.0,0.00538,13.4,0.012912
7.287912465,-0.08877,13.600000000000001,-0.213048,-0.41695000000000004,13.600000000000001,-1.00068,-0.72092,13.5,-1.730208,-0.048420000000000005,13.4,-0.116208,-0.00269,13.4,-0.006456,-0.0,13.4,-0.0,0.00538,13.4,0.012912
7.320847938,-0.08877,13.700000000000001,-0.213048,-0.41695000000000004,13.600000000000001,-1.00068,-0.72092,13.5,-1.730208,-0.05111,13.4,-0.122664,-0.00807,13.4,-0.019368,-0.0,13.4,-0.0,0.00538,13.4,0.012912
7.354734661,-0.09146,13.600000000000001,-0.219504,-0.41964,13.600000000000001,-1.007136,-0.72092,13.4,-1.730208,-0.04573,13.4,-0.109752,-0.00269,13.4,-0.006456,-0.0,13.4,-0.0,0.00538,13.4,0.012912
7.387709772,-0.08877,13.600000000000001,-0.213048,-0.41964,13.600000000000001,-1.007136,-0.72092,13.5,-1.730208,-0.0538,13.4,-0.12911999999999998,-0.00538,13.4,-0.012912,-0.0,13.4,-0.0,0.00538,13.4,0.012912
7.420854462,-0.08877,13.700000000000001,-0.213048,-0.41964,13.600000000000001,-1.007136,-0.72092,13.5,-1.730208,-0.04573,13.4,-0.109752,-0.00538,13.4,-0.012912,-0.0,13.4,-0.0,0.00538,13.4,0.012912
7.453711176,-0.08877,13.700000000000001,-0.213048,-0.41695000000000004,13.600000000000001,-1.00068,-0.72092,13.4,-1.730208,-0.02959,13.4,-0.071016,0.0,13.4,0.0,-0.0,13.4,-0.0,0.00538,13.4,0.012912
7.48788992,-0.08877,13.700000000000001,-0.213048,-0.41695000000000004,13.600000000000001,-1.00068,-0.72092,13.4,-1.730208,-0.06994,13.4,-0.167856,-0.00269,13.4,-0.006456,-0.0,13.4,-0.0,0.00538,13.4,0.012912
7.520714345,-0.08877,13.700000000000001,-0.213048,-0.41964,13.600000000000001,-1.007136,-0.72092,13.5,-1.730208,-0.048420000000000005,13.4,-0.116208,0.0,13.4,0.0,-0.0,13.4,-0.0,0.00538,13.4,0.012912
7.554841582,-0.09415,13.700000000000001,-0.22596,-0.41695000000000004,13.600000000000001,-1.00068,-0.72092,13.4,-1.730208,-0.0538,13.4,-0.12911999999999998,-0.00269,13.4,-0.006456,-0.0,13.4,-0.0,0.00538,13.4,0.012912
7.587643904,-0.09953000000000001,13.600000000000001,-0.238872,-0.41964,13.600000000000001,-1.007136,-0.72092,13.4,-1.730208,-0.040350000000000004,13.4,-0.09684000000000001,-0.00269,13.4,-0.006456,-0.0,13.4,-0.0,0.00538,13.4,0.012912
7.620669809,-0.09146,13.700000000000001,-0.219504,-0.41964,13.600000000000001,-1.007136,-0.72092,13.4,-1.730208,-0.04304,13.4,-0.103296,-0.00269,13.4,-0.006456,-0.0,13.4,-0.0,0.00538,13.4,0.012912
7.654646297,-0.08877,13.700000000000001,-0.213048,-0.41964,13.5,-1.007136,-0.72092,13.5,-1.730208,-0.03766,13.4,-0.09038399999999999,-0.00269,13.4,-0.006456,-0.0,13.4,-0.0,-0.0,13.4,-0.0
7.687736397,-0.08877,13.600000000000001,-0.213048,-0.4304,13.600000000000001,-1.0329599999999999,-0.72092,13.4,-1.730208,-0.040350000000000004,13.4,-0.09684000000000001,-0.00538,13.4,-0.012912,-0.0,13.4,-0.0,0.00269,13.4,0.006456
7.720774263,-0.08877,13.700000000000001,-0.213048,-0.41964,13.5,-1.007136,-0.72092,13.5,-1.730208,-0.06187,13.4,-0.148488,-0.00269,13.4,-0.006456,-0.0,13.4,-0.0,0.00269,13.4,0.006456
7.754777252,-0.09146,13.700000000000001,-0.219504,-0.41964,13.600000000000001,-1.007136,-0.72092,13.5,-1.730208,-0.048420000000000005,13.4,-0.116208,-0.00269,13.4,-0.006456,-0.0,13.4,-0.0,0.00269,13.4,0.006456
7.787727658,-0.09146,13.700000000000001,-0.219504,-0.41964,13.600000000000001,-1.007136,-0.72092,13.5,-1.730208,-0.048420000000000005,13.4,-0.116208,-0.00269,13.4,-0.006456,-0.0,13.4,-0.0,0.00269,13.4,0.006456
7.820664481,-0.08877,13.700000000000001,-0.213048,-0.41964,13.600000000000001,-1.007136,-0.72092,13.5,-1.730208,-0.04304,13.4,-0.103296,0.0,13.4,0.0,-0.0,13.4,-0.0,0.00269,13.4,0.006456
7.854756015,-0.08877,13.700000000000001,-0.213048,-0.41964,13.600000000000001,-1.007136,-0.72092,13.4,-1.730208,-0.05111,13.4,-0.122664,-0.00538,13.4,-0.012912,-0.0,13.4,-0.0,0.00269,13.4,0.006456
7.888028546,-0.08877,13.700000000000001,-0.213048,-0.42233000000000004,13.5,-1.013592,-0.72092,13.4,-1.730208,-0.06187,13.4,-0.148488,-0.00269,13.4,-0.006456,-0.0,13.4,-0.0,0.00269,13.4,0.006456
7.920968808,-0.09146,13.700000000000001,-0.219504,-0.41964,13.5,-1.007136,-0.72092,13.5,-1.730208,-0.03497,13.4,-0.083928,-0.00269,13.4,-0.006456,-0.0,13.4,-0.0,0.00269,13.4,0.006456
7.95454901,-0.09415,13.700000000000001,-0.22596,-0.41695000000000004,13.600000000000001,-1.00068,-0.72092,13.4,-1.730208,-0.05111,13.4,-0.122664,-0.00269,13.4,-0.006456,-0.0,13.4,-0.0,0.00269,13.4,0.006456
7.987716109,-0.09146,13.700000000000001,-0.219504,-0.41695000000000004,13.600000000000001,-1.00068,-0.72092,13.4,-1.730208,-0.048420000000000005,13.4,-0.116208,-0.00269,13.4,-0.006456,-0.0,13.4,-0.0,0.00269,13.4,0.006456
8.020665134,-0.08877,13.700000000000001,-0.213048,-0.41964,13.5,-1.007136,-0.72092,13.4,-1.730208,-0.0538,13.4,-0.12911999999999998,-0.00269,13.4,-0.006456,-0.0,13.4,-0.0,0.00538,13.4,0.012912
8.054653889,-0.09146,13.700000000000001,-0.219504,-0.41964,13.600000000000001,-1.007136,-0.72092,13.4,-1.730208,-0.03766,13.4,-0.09038399999999999,-0.00269,13.4,-0.006456,-0.0,13.4,-0.0,0.00538,13.4,0.012912
8.087781249,-0.09415,13.700000000000001,-0.22596,-0.41964,13.5,-1.007136,-0.72092,13.5,-1.730208,-0.05111,13.4,-0.122664,0.0,13.4,0.0,-0.0,13.4,-0.0,0.00538,13.4,0.012912
8.120811731,-0.08877,13.700000000000001,-0.213048,-0.41964,13.600000000000001,-1.007136,-0.72092,13.3,-1.730208,-0.05111,13.4,-0.122664,-0.00269,13.4,-0.006456,-0.0,13.4,-0.0,0.00538,13.4,0.012912
8.154604083,-0.08877,13.700000000000001,-0.213048,-0.41964,13.600000000000001,-1.007136,-0.72092,13.5,-1.730208,-0.05111,13.4,-0.122664,-0.00269,13.4,-0.006456,-0.0,13.4,-0.0,0.00538,13.4,0.012912
8.187520815,-0.08877,13.700000000000001,-0.213048,-0.41964,13.5,-1.007136,-0.72092,13.5,-1.730208,-0.048420000000000005,13.4,-0.116208,0.0,13.4,0.0,-0.0,13.4,-0.0,0.00538,13.4,0.012912
8.220498148,-0.08877,13.700000000000001,-0.213048,-0.41964,13.600000000000001,-1.007136,-0.72092,13.5,-1.730208,-0.04573,13.4,-0.109752,-0.00269,13.4,-0.006456,-0.0,13.4,-0.0,0.00538,13.4,0.012912
8.254508717,-0.08877,13.700000000000001,-0.213048,-0.41695000000000004,13.600000000000001,-1.00068,-0.72092,13.4,-1.730208,-0.06187,13.4,-0.148488,0.0,13.4,0.0,-0.0,13.4,-0.0,0.00538,13.4,0.012912
8.287611483,-0.1076,13.700000000000001,-0.25823999999999997,-0.41695000000000004,13.600000000000001,-1.00068,-0.72092,13.5,-1.730208,-0.03228,13.4,-0.077472,0.0,13.4,0.0,-0.0,13.4,-0.0,0.00538,13.4,0.012912
8.320535388,-0.08877,13.700000000000001,-0.213048,-0.41964,13.600000000000001,-1.007136,-0.72092,13.4,-1.730208,-0.04304,13.4,-0.103296,-0.00269,13.4,-0.006456,-0.0,13.4,-0.0,0.00538,13.4,0.012912
8.354636591,-0.08877,13.700000000000001,-0.213048,-0.41964,13.600000000000001,-1.007136,-0.72092,13.4,-1.730208,-0.04573,13.4,-0.109752,-0.00269,13.4,-0.006456,-0.0,13.4,-0.0,0.00538,13.4,0.012912
8.387566602,-0.08877,13.700000000000001,-0.213048,-0.41964,13.5,-1.007136,-0.72092,13.5,-1.730208,-0.040350000000000004,13.4,-0.09684000000000001,-0.00269,13.4,-0.006456,-0.0,13.4,-0.0,0.00538,13.4,0.012912
8.420427484,-0.08877,13.700000000000001,-0.213048,-0.41964,13.600000000000001,-1.007136,-0.72092,13.4,-1.730208,-0.048420000000000005,13.4,-0.116208,-0.00269,13.4,-0.006456,-0.0,13.4,-0.0,0.00538,13.4,0.012912
8.454477604,-0.09146,13.700000000000001,-0.219504,-0.41964,13.5,-1.007136,-0.72092,13.5,-1.730208,-0.03228,13.4,-0.077472,0.0,13.4,0.0,-0.0,13.4,-0.0,0.00538,13.4,0.012912
8.487428723,-0.08877,13.700000000000001,-0.213048,-0.41964,13.5,-1.007136,-0.72092,13.4,-1.730208,-0.0538,13.4,-0.12911999999999998,-0.00269,13.4,-0.006456,-0.0,13.4,-0.0,0.00538,13.4,0.012912
8.520665042,-0.08877,13.700000000000001,-0.213048,-0.41964,13.5,-1.007136,-0.72092,13.4,-1.730208,-0.05918,13.4,-0.142032,-0.00269,13.4,-0.006456,-0.0,13.4,-0.0,0.00538,13.4,0.012912
8.554395858,-0.08877,13.700000000000001,-0.213048,-0.41964,13.5,-1.007136,-0.72092,13.5,-1.730208,-0.04573,13.4,-0.109752,-0.00269,13.4,-0.006456,-0.0,13.4,-0.0,0.00538,13.4,0.012912
8.587442042,-0.08877,13.700000000000001,-0.213048,-0.41964,13.5,-1.007136,-0.72092,13.4,-1.730208,-0.04304,13.4,-0.103296,0.0,13.4,0.0,-0.0,13.4,-0.0,0.00538,13.4,0.012912
8.621476338,-0.08877,13.700000000000001,-0.213048,-0.41964,13.600000000000001,-1.007136,-0.72092,13.4,-1.730208,-0.048420000000000005,13.4,-0.116208,0.0,13.4,0.0,-0.0,13.4,-0.0,0.00538,13.4,0.012912
8.654386552,-0.08877,13.700000000000001,-0.213048,-0.41964,13.5,-1.007136,-0.72092,13.5,-1.730208,-0.03497,13.4,-0.083928,-0.00269,13.4,-0.006456,-0.0,13.4,-0.0,0.00538,13.4,0.012912
8.68749059,-0.08877,13.700000000000001,-0.213048,-0.41964,13.600000000000001,-1.007136,-0.72092,13.5,-1.730208,-0.05918,13.4,-0.142032,-0.00269,13.4,-0.006456,-0.0,13.4,-0.0,0.00538,13.4,0.012912
8.720386208,-0.09146,13.700000000000001,-0.219504,-0.41964,13.600000000000001,-1.007136,-0.72092,13.5,-1.730208,-0.0269,13.4,-0.06455999999999999,0.0,13.4,0.0,-0.0,13.4,-0.0,0.00538,13.4,0.012912
8.754354834,-0.09146,13.600000000000001,-0.219504,-0.41964,13.600000000000001,-1.007136,-0.72092,13.4,-1.730208,-0.03766,13.4,-0.09038399999999999,0.0,13.4,0.0,-0.0,13.4,-0.0,0.00538,13.4,0.012912
8.787338296,-0.08877,13.700000000000001,-0.213048,-0.41964,13.600000000000001,-1.007136,-0.72092,13.4,-1.730208,-0.04304,13.4,-0.103296,0.0,13.4,0.0,-0.0,13.4,-0.0,0.00538,13.4,0.012912
8.821302466,-0.08877,13.700000000000001,-0.213048,-0.41964,13.600000000000001,-1.007136,-0.72092,13.5,-1.730208,-0.048420000000000005,13.4,-0.116208,0.0,13.4,0.0,-0.0,13.4,-0.0,0.00538,13.4,0.012912
8.854267138,-0.09146,13.700000000000001,-0.219504,-0.41964,13.600000000000001,-1.007136,-0.72092,13.5,-1.730208,-0.04573,13.4,-0.109752,-0.00538,13.4,-0.012912,-0.0,13.4,-0.0,0.00538,13.4,0.012912
8.887296323,-0.09146,13.700000000000001,-0.219504,-0.41695000000000004,13.600000000000001,-1.00068,-0.72092,13.5,-1.730208,-0.05111,13.4,-0.122664,0.0,13.4,0.0,-0.0,13.4,-0.0,0.00538,13.4,0.012912
8.921297348,-0.08877,13.700000000000001,-0.213048,-0.41695000000000004,13.600000000000001,-1.00068,-0.72092,13.5,-1.730208,-0.0538,13.4,-0.12911999999999998,0.0,13.4,0.0,-0.0,13.4,-0.0,0.00538,13.4,0.012912
8.954341841,-0.08877,13.700000000000001,-0.213048,-0.41695000000000004,13.600000000000001,-1.00068,-0.72092,13.5,-1.730208,-0.056490000000000005,13.4,-0.135576,-0.00269,13.4,-0.006456,-0.0,13.4,-0.0,0.00538,13.4,0.012912
8.987292319,-0.08877,13.700000000000001,-0.213048,-0.42233000000000004,13.5,-1.013592,-0.72092,13.5,-1.730208,-0.04304,13.4,-0.103296,0.0,13.4,0.0,-0.0,13.4,-0.0,0.00538,13.4,0.012912
9.021222099,-0.08877,13.700000000000001,-0.213048,-0.41964,13.600000000000001,-1.007136,-0.72092,13.4,-1.730208,-0.04573,13.4,-0.109752,-0.00538,13.4,-0.012912,-0.0,13.4,-0.0,0.00538,13.4,0.012912
9.054165406,-0.08877,13.700000000000001,-0.213048,-0.41964,13.600000000000001,-1.007136,-0.72092,13.5,-1.730208,-0.056490000000000005,13.4,-0.135576,0.0,13.4,0.0,-0.0,13.4,-0.0,0.00538,13.4,0.012912
9.087239531,-0.09415,13.700000000000001,-0.22596,-0.41964,13.5,-1.007136,-0.72092,13.5,-1.730208,-0.03497,13.4,-0.083928,0.0,13.4,0.0,-0.0,13.4,-0.0,0.00538,13.4,0.012912
9.121088398,-0.09146,13.700000000000001,-0.219504,-0.4304,13.600000000000001,-1.0329599999999999,-0.72092,13.4,-1.730208,-0.03228,13.4,-0.077472,0.0,13.4,0.0,-0.0,13.4,-0.0,0.00538,13.4,0.012912
9.154252544,-0.08877,13.600000000000001,-0.213048,-0.41964,13.5,-1.007136,-0.72092,13.5,-1.730208,-0.04304,13.4,-0.103296,-0.00269,13.4,-0.006456,-0.0,13.4,-0.0,0.00538,13.4,0.012912
9.187141789,-0.09415,13.700000000000001,-0.22596,-0.41964,13.600000000000001,-1.007136,-0.72092,13.4,-1.730208,-0.03766,13.4,-0.09038399999999999,-0.00269,13.4,-0.006456,-0.0,13.4,-0.0,0.00538,13.4,0.012912
9.221059015,-0.08877,13.700000000000001,-0.213048,-0.41964,13.600000000000001,-1.007136,-0.72092,13.4,-1.730208,-0.04573,13.4,-0.109752,0.0,13.4,0.0,-0.0,13.4,-0.0,0.00538,13.4,0.012912
9.25411063,-0.09146,13.700000000000001,-0.219504,-0.41964,13.600000000000001,-1.007136,-0.72092,13.4,-1.730208,-0.04573,13.4,-0.109752,-0.00269,13.4,-0.006456,-0.0,13.4,-0.0,0.00538,13.4,0.012912
9.287133932,-0.08877,13.700000000000001,-0.213048,-0.41964,13.5,-1.007136,-0.72092,13.5,-1.730208,-0.06187,13.4,-0.148488,-0.00269,13.4,-0.006456,-0.0,13.4,-0.0,0.00538,13.4,0.012912
9.321087061,-0.08877,13.700000000000001,-0.213048,-0.41964,13.600000000000001,-1.007136,-0.72092,13.5,-1.730208,-0.06187,13.4,-0.148488,-0.00269,13.4,-0.006456,-0.0,13.4,-0.0,0.00269,13.4,0.006456
9.354225344,-0.08877,13.700000000000001,-0.213048,-0.41964,13.5,-1.007136,-0.72092,13.4,-1.730208,-0.06456,13.4,-0.154944,0.0,13.4,0.0,-0.0,13.4,-0.0,-0.0,13.4,-0.0
9.387007352,-0.08877,13.700000000000001,-0.213048,-0.41964,13.600000000000001,-1.007136,-0.72092,13.5,-1.730208,-0.03228,13.4,-0.077472,-0.00269,13.4,-0.006456,-0.0,13.4,-0.0,-0.0,13.4,-0.0
9.421110486,-0.08877,13.700000000000001,-0.213048,-0.41964,13.600000000000001,-1.007136,-0.72092,13.4,-1.730208,-0.0538,13.4,-0.12911999999999998,0.0,13.4,0.0,-0.0,13.4,-0.0,0.00269,13.4,0.006456
9.454036554,-0.08877,13.700000000000001,-0.213048,-0.41964,13.600000000000001,-1.007136,-0.72092,13.5,-1.730208,-0.04304,13.4,-0.103296,0.0,13.4,0.0,-0.0,13.4,-0.0,0.00269,13.4,0.006456
9.487911266,-0.09146,13.700000000000001,-0.219504,-0.41964,13.600000000000001,-1.007136,-0.72092,13.4,-1.730208,-0.0538,13.4,-0.12911999999999998,-0.00538,13.4,-0.012912,-0.0,13.4,-0.0,0.00269,13.4,0.006456
9.520966724,-0.09146,13.700000000000001,-0.219504,-0.41964,13.5,-1.007136,-0.72092,13.4,-1.730208,-0.0538,13.4,-0.12911999999999998,0.0,13.4,0.0,-0.0,13.4,-0.0,0.00269,13.4,0.006456
9.55402096,-0.09146,13.700000000000001,-0.219504,-0.41964,13.600000000000001,-1.007136,-0.72092,13.5,-1.730208,-0.056490000000000005,13.4,-0.135576,-0.00269,13.4,-0.006456,-0.0,13.4,-0.0,0.00538,13.4,0.012912
9.58804859,-0.08877,13.700000000000001,-0.213048,-0.41964,13.600000000000001,-1.007136,-0.72092,13.5,-1.730208,-0.06187,13.4,-0.148488,-0.00269,13.4,-0.006456,-0.0,13.4,-0.0,0.00538,13.4,0.012912
9.620985313,-0.08877,13.700000000000001,-0.213048,-0.41964,13.600000000000001,-1.007136,-0.72092,13.4,-1.730208,-0.05111,13.4,-0.122664,-0.00538,13.4,-0.012912,-0.0,13.4,-0.0,0.00538,13.4,0.012912
9.653988122,-0.08877,13.700000000000001,-0.213048,-0.41964,13.600000000000001,-1.007136,-0.72092,13.5,-1.730208,-0.05111,13.4,-0.122664,-0.00269,13.4,-0.006456,-0.0,13.4,-0.0,-0.0,13.4,-0.0
9.687956279,-0.08877,13.700000000000001,-0.213048,-0.41964,13.600000000000001,-1.007136,-0.72092,13.4,-1.730208,-0.04573,13.4,-0.109752,-0.00269,13.4,-0.006456,-0.0,13.4,-0.0,0.00269,13.4,0.006456
9.720839976,-0.08877,13.700000000000001,-0.213048,-0.41964,13.600000000000001,-1.007136,-0.72092,13.5,-1.730208,-0.056490000000000005,13.4,-0.135576,0.0,13.4,0.0,-0.0,13.4,-0.0,0.00269,13.4,0.006456
9.754027448,-0.08877,13.700000000000001,-0.213048,-0.41964,13.600000000000001,-1.007136,-0.72092,13.4,-1.730208,-0.048420000000000005,13.4,-0.116208,0.0,13.4,0.0,-0.0,13.4,-0.0,0.00269,13.4,0.006456
9.787946772,-0.08877,13.700000000000001,-0.213048,-0.41964,13.5,-1.007136,-0.72092,13.4,-1.730208,-0.04573,13.4,-0.109752,-0.00538,13.4,-0.012912,-0.0,13.4,-0.0,0.00269,13.4,0.006456
9.821081773,-0.08877,13.700000000000001,-0.213048,-0.41964,13.600000000000001,-1.007136,-0.72092,13.4,-1.730208,-0.048420000000000005,13.4,-0.116208,0.0,13.4,0.0,-0.0,13.4,-0.0,0.00269,13.4,0.006456
9.853927732,-0.08877,13.700000000000001,-0.213048,-0.41964,13.600000000000001,-1.007136,-0.72092,13.5,-1.730208,-0.06456,13.4,-0.154944,0.0,13.4,0.0,-0.0,13.4,-0.0,0.00269,13.4,0.006456
9.887838723,-0.08877,13.700000000000001,-0.213048,-0.42233000000000004,13.5,-1.013592,-0.72092,13.5,-1.730208,-0.05111,13.4,-0.122664,-0.00269,13.4,-0.006456,-0.0,13.4,-0.0,0.00269,13.4,0.006456
9.920750005,-0.08877,13.700000000000001,-0.213048,-0.41695000000000004,13.600000000000001,-1.00068,-0.72092,13.5,-1.730208,-0.03497,13.4,-0.083928,0.0,13.4,0.0,-0.0,13.4,-0.0,0.00269,13.4,0.006456
9.95378459,-0.08877,13.700000000000001,-0.213048,-0.41695000000000004,13.5,-1.00068,-0.72092,13.4,-1.730208,-0.05111,13.4,-0.122664,0.0,13.4,0.0,-0.0,13.4,-0.0,0.00269,13.4,0.006456
9.987674153,-0.08877,13.700000000000001,-0.213048,-0.41695000000000004,13.600000000000001,-1.00068,-0.72092,13.5,-1.730208,-0.04304,13.4,-0.103296,0.0,13.4,0.0,-0.0,13.4,-0.0,0.00269,13.4,0.006456
10.020834595,-0.08877,13.700000000000001,-0.213048,-0.41695000000000004,13.5,-1.00068,-0.72092,13.5,-1.730208,-0.03228,13.4,-0.077472,0.0,13.4,0.0,-0.0,13.4,-0.0,0.00269,13.4,0.006456
10.053760859,-0.09146,13.700000000000001,-0.219504,-0.41964,13.600000000000001,-1.007136,-0.71823,13.4,-1.723752,-0.03766,13.4,-0.09038399999999999,-0.00538,13.4,-0.012912,-0.0,13.4,-0.0,0.00269,13.4,0.006456
10.087833626,-0.08877,13.700000000000001,-0.213048,-0.41695000000000004,13.5,-1.00068,-0.71823,13.5,-1.723752,-0.03497,13.4,-0.083928,0.0,13.4,0.0,-0.0,13.4,-0.0,0.00269,13.4,0.006456
10.120771472,-0.08877,13.700000000000001,-0.213048,-0.41964,13.600000000000001,-1.007136,-0.71823,13.5,-1.723752,-0.03766,13.4,-0.09038399999999999,0.0,13.4,0.0,-0.0,13.4,-0.0,0.00269,13.4,0.006456
10.153809423,-0.09953000000000001,13.600000000000001,-0.238872,-0.41964,13.600000000000001,-1.007136,-0.71823,13.4,-1.723752,-0.04304,13.4,-0.103296,0.0,13.4,0.0,-0.0,13.4,-0.0,0.00269,13.4,0.006456
10.187844819,-0.08877,13.600000000000001,-0.213048,-0.41964,13.600000000000001,-1.007136,-0.71823,13.5,-1.723752,-0.04304,13.4,-0.103296,-0.00538,13.4,-0.012912,-0.0,13.4,-0.0,0.00269,13.4,0.006456
10.220788972,-0.08877,13.600000000000001,-0.213048,-0.41964,13.5,-1.007136,-0.71823,13.5,-1.723752,-0.056490000000000005,13.4,-0.135576,-0.00269,13.4,-0.006456,-0.0,13.4,-0.0,0.00269,13.4,0.006456
10.253669067,-0.08877,13.700000000000001,-0.213048,-0.41964,13.600000000000001,-1.007136,-0.71823,13.4,-1.723752,-0.03766,13.4,-0.09038399999999999,0.0,13.4,0.0,-0.0,13.4,-0.0,0.00269,13.4,0.006456
10.287859889,-0.08877,13.700000000000001,-0.213048,-0.41964,13.5,-1.007136,-0.71823,13.5,-1.723752,-0.05918,13.4,-0.142032,0.0,13.4,0.0,-0.0,13.4,-0.0,0.00269,13.4,0.006456
10.320796329,-0.08877,13.700000000000001,-0.213048,-0.41964,13.600000000000001,-1.007136,-0.71823,13.4,-1.723752,-0.04573,13.4,-0.109752,-0.00538,13.4,-0.012912,-0.0,13.4,-0.0,0.00269,13.4,0.006456
10.354684744,-0.08877,13.700000000000001,-0.213048,-0.41964,13.5,-1.007136,-0.71823,13.4,-1.723752,-0.04573,13.4,-0.109752,0.0,13.4,0.0,-0.0,13.4,-0.0,0.00269,13.4,0.006456
10.387692499,-0.08877,13.700000000000001,-0.213048,-0.41964,13.600000000000001,-1.007136,-0.71823,13.4,-1.723752,-0.03766,13.4,-0.09038399999999999,0.0,13.4,0.0,-0.0,13.4,-0.0,0.00269,13.4,0.006456
10.420644549,-0.08877,13.700000000000001,-0.213048,-0.41964,13.600000000000001,-1.007136,-0.71823,13.4,-1.723752,-0.05918,13.4,-0.142032,0.0,13.4,0.0,-0.0,13.4,-0.0,0.00269,13.4,0.006456
10.454591182,-0.08877,13.700000000000001,-0.213048,-0.41964,13.5,-1.007136,-0.71823,13.5,-1.723752,-0.03228,13.4,-0.077472,-0.00269,13.4,-0.006456,-0.0,13.4,-0.0,0.00269,13.4,0.006456
10.487702037,-0.08877,13.700000000000001,-0.213048,-0.41964,13.600000000000001,-1.007136,-0.71823,13.4,-1.723752,-0.048420000000000005,13.4,-0.116208,0.0,13.4,0.0,-0.0,13.4,-0.0,0.00269,13.4,0.006456
10.520716101,-0.08877,13.700000000000001,-0.213048,-0.41695000000000004,13.5,-1.00068,-0.71823,13.4,-1.723752,-0.056490000000000005,13.5,-0.135576,0.0,13.4,0.0,-0.0,13.4,-0.0,0.00269,13.4,0.006456
10.554645283,-0.10222,13.700000000000001,-0.245328,-0.41695000000000004,13.5,-1.00068,-0.71823,13.4,-1.723752,-0.06187,13.4,-0.148488,0.0,13.4,0.0,-0.0,13.4,-0.0,0.00269,13.4,0.006456
10.587640177,-0.08877,13.700000000000001,-0.213048,-0.41695000000000004,13.600000000000001,-1.00068,-0.71823,13.5,-1.723752,-0.048420000000000005,13.5,-0.116208,-0.00538,13.4,-0.012912,-0.0,13.4,-0.0,0.00269,13.4,0.006456
10.620758569,-0.09146,13.700000000000001,-0.219504,-0.41695000000000004,13.600000000000001,-1.00068,-0.71823,13.4,-1.723752,-0.03766,13.4,-0.09038399999999999,-0.00538,13.4,-0.012912,-0.0,13.4,-0.0,0.00538,13.4,0.012912
10.654605231,-0.08877,13.700000000000001,-0.213048,-0.41695000000000004,13.5,-1.00068,-0.71823,13.5,-1.723752,-0.04304,13.4,-0.103296,-0.00269,13.4,-0.006456,-0.0,13.4,-0.0,0.00538,13.4,0.012912
10.687659223,-0.09146,13.700000000000001,-0.219504,-0.41964,13.600000000000001,-1.007136,-0.71823,13.4,-1.723752,-0.04304,13.4,-0.103296,0.0,13.4,0.0,-0.0,13.4,-0.0,0.00538,13.4,0.012912
10.720491306,-0.08877,13.700000000000001,-0.213048,-0.41964,13.600000000000001,-1.007136,-0.71823,13.5,-1.723752,-0.0538,13.4,-0.12911999999999998,0.0,13.4,0.0,-0.0,13.4,-0.0,0.00538,13.4,0.012912
10.754354629,-0.08877,13.700000000000001,-0.213048,-0.41964,13.600000000000001,-1.007136,-0.71823,13.5,-1.723752,-0.0538,13.4,-0.12911999999999998,0.0,13.4,0.0,-0.0,13.4,-0.0,0.00538,13.4,0.012912
10.787535611,-0.08877,13.700000000000001,-0.213048,-0.41695000000000004,13.600000000000001,-1.00068,-0.71823,13.4,-1.723752,-0.0538,13.4,-0.12911999999999998,0.0,13.4,0.0,-0.0,13.4,-0.0,0.00538,13.4,0.012912
10.82050556,-0.09146,13.700000000000001,-0.219504,-0.41695000000000004,13.5,-1.00068,-0.71823,13.5,-1.723752,-0.04573,13.4,-0.109752,-0.00538,13.4,-0.012912,-0.0,13.4,-0.0,0.00538,13.4,0.012912
10.854456421,-0.09146,13.700000000000001,-0.219504,-0.41695000000000004,13.600000000000001,-1.00068,-0.71823,13.4,-1.723752,-0.04573,13.4,-0.109752,-0.00269,13.4,-0.006456,-0.0,13.4,-0.0,0.00538,13.4,0.012912
10.887481686,-0.09415,13.700000000000001,-0.22596,-0.41964,13.600000000000001,-1.007136,-0.71823,13.5,-1.723752,-0.06456,13.4,-0.154944,0.0,13.4,0.0,-0.0,13.4,-0.0,0.00538,13.4,0.012912
10.920470954,-0.08877,13.700000000000001,-0.213048,-0.41964,13.600000000000001,-1.007136,-0.71823,13.5,-1.723752,-0.04573,13.4,-0.109752,-0.00269,13.4,-0.006456,-0.0,13.4,-0.0,0.00538,13.4,0.012912
10.954490455,-0.08877,13.700000000000001,-0.213048,-0.42771000000000003,13.5,-1.026504,-0.71823,13.5,-1.723752,-0.05111,13.4,-0.122664,-0.00269,13.4,-0.006456,-0.0,13.4,-0.0,0.00538,13.4,0.012912
10.987444471,-0.09146,13.700000000000001,-0.219504,-0.41964,13.600000000000001,-1.007136,-0.71823,13.4,-1.723752,-0.0538,13.4,-0.12911999999999998,0.0,13.4,0.0,-0.0,13.4,-0.0,0.00538,13.4,0.012912
11.02055698,-0.09415,13.700000000000001,-0.22596,-0.41964,13.600000000000001,-1.007136,-0.71823,13.4,-1.723752,-0.05111,13.4,-0.122664,0.0,13.4,0.0,-0.0,13.4,-0.0,0.00538,13.4,0.012912
11.054467173,-0.08877,13.700000000000001,-0.213048,-0.41964,13.600000000000001,-1.007136,-0.71823,13.5,-1.723752,-0.06187,13.4,-0.148488,-0.00269,13.4,-0.006456,-0.0,13.4,-0.0,0.00538,13.4,0.012912
11.08760212,-0.08877,13.700000000000001,-0.213048,-0.41695000000000004,13.600000000000001,-1.00068,-0.71823,13.5,-1.723752,-0.04304,13.4,-0.103296,0.0,13.4,0.0,-0.0,13.4,-0.0,0.00538,13.4,0.012912
11.1204971,-0.08877,13.700000000000001,-0.213048,-0.41964,13.600000000000001,-1.007136,-0.71823,13.5,-1.723752,-0.040350000000000004,13.4,-0.09684000000000001,0.0,13.4,0.0,-0.0,13.4,-0.0,0.00538,13.4,0.012912
11.154461019,-0.08877,13.700000000000001,-0.213048,-0.43309000000000003,13.600000000000001,-1.0394160000000001,-0.71823,13.5,-1.723752,-0.06456,13.4,-0.154944,0.0,13.4,0.0,-0.0,13.4,-0.0,0.00538,13.4,0.012912
11.187463136,-0.09146,13.700000000000001,-0.219504,-0.41964,13.600000000000001,-1.007136,-0.71823,13.4,-1.723752,-0.05111,13.4,-0.122664,0.0,13.4,0.0,-0.0,13.4,-0.0,0.00538,13.4,0.012912
11.221406014,-0.08877,13.700000000000001,-0.213048,-0.41964,13.5,-1.007136,-0.72092,13.5,-1.730208,-0.05111,13.4,-0.122664,-0.00269,13.4,-0.006456,-0.0,13.4,-0.0,0.00538,13.4,0.012912
11.254388641,-0.08877,13.700000000000001,-0.213048,-0.42233000000000004,13.600000000000001,-1.013592,-0.72092,13.5,-1.730208,-0.04573,13.4,-0.109752,-0.00538,13.4,-0.012912,-0.0,13.4,-0.0,0.00538,13.4,0.012912
11.287402431,-0.08877,13.700000000000001,-0.213048,-0.41964,13.600000000000001,-1.007136,-0.72092,13.5,-1.730208,-0.0538,13.4,-0.12911999999999998,0.0,13.4,0.0,-0.0,13.4,-0.0,0.00269,13.4,0.006456
11.321268498,-0.08877,13.700000000000001,-0.213048,-0.41964,13.600000000000001,-1.007136,-0.72092,13.5,-1.730208,-0.048420000000000005,13.4,-0.116208,0.0,13.4,0.0,-0.0,13.4,-0.0,0.00269,13.4,0.006456
11.354333538,-0.08877,13.700000000000001,-0.213048,-0.41964,13.600000000000001,-1.007136,-0.72092,13.5,-1.730208,-0.0538,13.4,-0.12911999999999998,0.0,13.4,0.0,-0.0,13.4,-0.0,0.00538,13.4,0.012912
11.387350621,-0.09146,13.700000000000001,-0.219504,-0.41964,13.600000000000001,-1.007136,-0.72092,13.5,-1.730208,-0.04304,13.4,-0.103296,0.0,13.4,0.0,-0.0,13.4,-0.0,0.00538,13.4,0.012912
11.421315615,-0.08877,13.600000000000001,-0.213048,-0.41964,13.600000000000001,-1.007136,-0.72092,13.4,-1.730208,-0.056490000000000005,13.4,-0.135576,0.0,13.4,0.0,-0.0,13.4,-0.0,0.00538,13.4,0.012912
11.454289506,-0.08877,13.700000000000001,-0.213048,-0.41964,13.600000000000001,-1.007136,-0.72092,13.5,-1.730208,-0.040350000000000004,13.4,-0.09684000000000001,-0.00538,13.4,-0.012912,-0.0,13.4,-0.0,0.00538,13.4,0.012912
11.487273147,-0.09146,13.700000000000001,-0.219504,-0.41964,13.5,-1.007136,-0.72092,13.4,-1.730208,-0.04573,13.4,-0.109752,0.0,13.4,0.0,-0.0,13.4,-0.0,0.00538,13.4,0.012912
11.521256434,-0.09953000000000001,13.700000000000001,-0.238872,-0.41964,13.600000000000001,-1.007136,-0.72092,13.5,-1.730208,-0.04304,13.4,-0.103296,0.0,13.4,0.0,-0.0,13.4,-0.0,0.00538,13.4,0.012912
11.554175357,-0.08877,13.700000000000001,-0.213048,-0.41964,13.600000000000001,-1.007136,-0.72092,13.4,-1.730208,-0.040350000000000004,13.4,-0.09684000000000001,-0.00269,13.4,-0.006456,-0.0,13.4,-0.0,0.00538,13.4,0.012912
11.587203404,-0.08339,13.600000000000001,-0.200136,-0.41964,13.600000000000001,-1.007136,-0.72092,13.4,-1.730208,-0.048420000000000005,13.4,-0.116208,0.0,13.4,0.0,-0.0,13.4,-0.0,0.00538,13.4,0.012912
11.621208916,-0.08877,13.600000000000001,-0.213048,-0.41964,13.600000000000001,-1.007136,-0.72092,13.4,-1.730208,-0.04304,13.4,-0.103296,0.0,13.4,0.0,-0.0,13.4,-0.0,0.00538,13.4,0.012912
11.654129597,-0.08877,13.600000000000001,-0.213048,-0.41964,13.600000000000001,-1.007136,-0.72092,13.5,-1.730208,-0.04573,13.4,-0.109752,0.0,13.4,0.0,-0.0,13.4,-0.0,0.00538,13.4,0.012912
11.687224211,-0.09146,13.600000000000001,-0.219504,-0.41964,13.600000000000001,-1.007136,-0.72092,13.4,-1.730208,-0.05918,13.4,-0.142032,0.0,13.4,0.0,-0.0,13.4,-0.0,0.00538,13.4,0.012912
11.721260316,-0.08877,13.700000000000001,-0.213048,-0.41964,13.5,-1.007136,-0.72092,13.4,-1.730208,-0.04304,13.4,-0.103296,0.0,13.4,0.0,-0.0,13.4,-0.0,0.00538,13.4,0.012912
11.754172545,-0.08877,13.700000000000001,-0.213048,-0.41964,13.5,-1.007136,-0.72092,13.4,-1.730208,-0.03766,13.4,-0.09038399999999999,0.0,13.4,0.0,-0.0,13.4,-0.0,0.00538,13.4,0.012912
11.787226866,-0.08877,13.600000000000001,-0.213048,-0.41964,13.5,-1.007136,-0.72092,13.5,-1.730208,-0.05918,13.4,-0.142032,0.0,13.4,0.0,-0.0,13.4,-0.0,0.00538,13.4,0.012912
11.82129077,-0.08877,13.700000000000001,-0.213048,-0.41964,13.600000000000001,-1.007136,-0.72092,13.5,-1.730208,-0.0538,13.4,-0.12911999999999998,-0.00269,13.4,-0.006456,-0.0,13.4,-0.0,0.00538,13.4,0.012912
11.854191684,-0.08877,13.700000000000001,-0.213048,-0.41964,13.600000000000001,-1.007136,-0.72092,13.5,-1.730208,-0.04573,13.5,-0.109752,0.0,13.4,0.0,-0.0,13.4,-0.0,0.00538,13.4,0.012912
11.88710143,-0.08877,13.700000000000001,-0.213048,-0.41695000000000004,13.600000000000001,-1.00068,-0.72092,13.4,-1.730208,-0.05111,13.4,-0.122664,0.0,13.4,0.0,-0.0,13.4,-0.0,0.00538,13.4,0.012912
11.921131311,-0.09146,13.700000000000001,-0.219504,-0.41695000000000004,13.600000000000001,-1.00068,-0.72092,13.5,-1.730208,-0.0538,13.4,-0.12911999999999998,-0.00538,13.4,-0.012912,-0.0,13.4,-0.0,0.00538,13.4,0.012912
11.954158222,-0.08877,13.700000000000001,-0.213048,-0.41695000000000004,13.600000000000001,-1.00068,-0.72092,13.4,-1.730208,-0.048420000000000005,13.4,-0.116208,0.0,13.4,0.0,-0.0,13.4,-0.0,0.00538,13.4,0.012912
11.988166775,-0.08877,13.600000000000001,-0.213048,-0.41695000000000004,13.600000000000001,-1.00068,-0.72092,13.4,-1.730208,-0.040350000000000004,13.4,-0.09684000000000001,0.0,13.4,0.0,-0.0,13.4,-0.0,-0.0,13.4,-0.0
12.020951694,-0.09146,13.700000000000001,-0.219504,-0.41964,13.600000000000001,-1.007136,-0.72092,13.4,-1.730208,-0.03228,13.4,-0.077472,0.0,13.4,0.0,-0.0,13.4,-0.0,0.00269,13.4,0.006456
12.053945776,-0.08877,13.600000000000001,-0.213048,-0.41964,13.600000000000001,-1.007136,-0.72092,13.4,-1.730208,-0.04573,13.4,-0.109752,0.0,13.4,0.0,-0.0,13.4,-0.0,0.00269,13.4,0.006456
12.087919994,-0.08877,13.700000000000001,-0.213048,-0.41964,13.600000000000001,-1.007136,-0.72092,13.4,-1.730208,-0.03228,13.4,-0.077472,-0.00538,13.4,-0.012912,-0.0,13.4,-0.0,0.00269,13.4,0.006456
12.120942701,-0.08877,13.600000000000001,-0.213048,-0.42502,13.600000000000001,-1.020048,-0.72092,13.4,-1.730208,-0.05111,13.4,-0.122664,-0.00538,13.4,-0.012912,-0.0,13.4,-0.0,0.00538,13.4,0.012912
12.153969352,-0.08877,13.600000000000001,-0.213048,-0.41964,13.5,-1.007136,-0.72092,13.5,-1.730208,-0.06456,13.4,-0.154944,0.0,13.4,0.0,-0.0,13.4,-0.0,0.00538,13.4,0.012912
12.187991428,-0.09146,13.700000000000001,-0.219504,-0.41964,13.600000000000001,-1.007136,-0.72092,13.5,-1.730208,-0.056490000000000005,13.4,-0.135576,-0.00269,13.4,-0.006456,-0.0,13.4,-0.0,0.00538,13.4,0.012912
12.220875347,-0.09953000000000001,13.700000000000001,-0.238872,-0.41964,13.5,-1.007136,-0.72092,13.5,-1.730208,-0.05111,13.4,-0.122664,0.0,13.4,0.0,-0.0,13.4,-0.0,0.00538,13.4,0.012912
12.253945395,-0.08877,13.700000000000001,-0.213048,-0.41695000000000004,13.600000000000001,-1.00068,-0.72092,13.4,-1.730208,-0.0538,13.4,-0.12911999999999998,0.0,13.4,0.0,-0.0,13.4,-0.0,0.00538,13.4,0.012912
12.287868454,-0.08877,13.700000000000001,-0.213048,-0.41964,13.600000000000001,-1.007136,-0.72092,13.4,-1.730208,-0.05111,13.4,-0.122664,0.0,13.4,0.0,-0.0,13.4,-0.0,0.00538,13.4,0.012912
12.321002122,-0.09146,13.700000000000001,-0.219504,-0.41964,13.600000000000001,-1.007136,-0.72092,13.5,-1.730208,-0.056490000000000005,13.4,-0.135576,-0.00269,13.4,-0.006456,-0.0,13.4,-0.0,0.00538,13.4,0.012912
12.35391775,-0.08877,13.600000000000001,-0.213048,-0.41964,13.600000000000001,-1.007136,-0.72092,13.4,-1.730208,-0.0538,13.4,-0.12911999999999998,0.0,13.4,0.0,-0.0,13.4,-0.0,0.00538,13.4,0.012912
12.387806846,-0.09953000000000001,13.700000000000001,-0.238872,-0.41964,13.600000000000001,-1.007136,-0.72092,13.4,-1.730208,-0.05111,13.4,-0.122664,-0.00538,13.4,-0.012912,-0.0,13.4,-0.0,0.00538,13.4,0.012912
12.42096815,-0.08877,13.700000000000001,-0.213048,-0.41964,13.600000000000001,-1.007136,-0.72092,13.4,-1.730208,-0.05111,13.4,-0.122664,0.0,13.4,0.0,-0.0,13.4,-0.0,0.00538,13.4,0.012912
12.45381912,-0.09146,13.700000000000001,-0.219504,-0.41964,13.5,-1.007136,-0.72092,13.5,-1.730208,-0.04304,13.4,-0.103296,-0.00269,13.4,-0.006456,-0.0,13.4,-0.0,0.00538,13.4,0.012912
12.487818563,-0.08877,13.600000000000001,-0.213048,-0.41964,13.600000000000001,-1.007136,-0.72092,13.5,-1.730208,-0.06456,13.4,-0.154944,0.0,13.4,0.0,-0.0,13.4,-0.0,0.00538,13.4,0.012912
12.520980808,-0.08877,13.600000000000001,-0.213048,-0.41964,13.5,-1.007136,-0.72092,13.5,-1.730208,-0.03497,13.4,-0.083928,0.0,13.4,0.0,-0.0,13.4,-0.0,0.00538,13.4,0.012912
12.553915727,-0.08877,13.600000000000001,-0.213048,-0.41964,13.600000000000001,-1.007136,-0.72092,13.4,-1.730208,-0.04573,13.4,-0.109752,0.0,13.4,0.0,-0.0,13.4,-0.0,0.00538,13.4,0.012912
12.587917037,-0.08877,13.700000000000001,-0.213048,-0.41964,13.600000000000001,-1.007136,-0.72092,13.4,-1.730208,-0.06725,13.4,-0.16140000000000002,0.0,13.4,0.0,-0.0,13.4,-0.0,0.00538,13.4,0.012912
12.620861936,-0.08877,13.600000000000001,-0.213048,-0.41964,13.600000000000001,-1.007136,-0.72092,13.4,-1.730208,-0.04304,13.4,-0.103296,0.0,13.4,0.0,-0.0,13.4,-0.0,0.00538,13.4,0.012912
12.653844597,-0.09146,13.700000000000001,-0.219504,-0.41964,13.5,-1.007136,-0.72092,13.5,-1.730208,-0.06187,13.4,-0.148488,0.0,13.4,0.0,-0.0,13.4,-0.0,0.00538,13.4,0.012912
12.687857744,-0.09146,13.700000000000001,-0.219504,-0.41964,13.600000000000001,-1.007136,-0.72092,13.5,-1.730208,-0.048420000000000005,13.4,-0.116208,0.0,13.4,0.0,-0.0,13.4,-0.0,0.00538,13.4,0.012912
12.720870115,-0.09684000000000001,13.700000000000001,-0.232416,-0.41964,13.5,-1.007136,-0.72092,13.4,-1.730208,-0.05918,13.4,-0.142032,0.0,13.4,0.0,-0.0,13.4,-0.0,0.00538,13.4,0.012912
12.753780079,-0.08877,13.600000000000001,-0.213048,-0.41964,13.5,-1.007136,-0.72092,13.3,-1.730208,-0.02959,13.4,-0.071016,0.0,13.4,0.0,-0.0,13.4,-0.0,0.00538,13.4,0.012912
12.78783047,-0.09146,13.700000000000001,-0.219504,-0.41964,13.600000000000001,-1.007136,-0.72092,13.4,-1.730208,-0.04573,13.4,-0.109752,0.0,13.4,0.0,-0.0,13.4,-0.0,0.00538,13.4,0.012912
12.820739658,-0.08877,13.600000000000001,-0.213048,-0.41964,13.600000000000001,-1.007136,-0.72092,13.4,-1.730208,-0.06187,13.4,-0.148488,-0.00269,13.4,-0.006456,-0.0,13.4,-0.0,0.00538,13.4,0.012912
12.854676983,-0.09415,13.600000000000001,-0.22596,-0.41964,13.600000000000001,-1.007136,-0.72092,13.4,-1.730208,-0.04304,13.4,-0.103296,0.0,13.4,0.0,-0.0,13.4,-0.0,0.00538,13.4,0.012912
12.887756956,-0.08877,13.700000000000001,-0.213048,-0.41964,13.600000000000001,-1.007136,-0.72092,13.5,-1.730208,-0.03766,13.4,-0.09038399999999999,-0.00269,13.4,-0.006456,-0.0,13.4,-0.0,0.00538,13.4,0.012912
12.920767633,-0.09146,13.700000000000001,-0.219504,-0.41964,13.600000000000001,-1.007136,-0.72092,13.4,-1.730208,-0.02959,13.4,-0.071016,-0.00269,13.4,-0.006456,-0.0,13.4,-0.0,-0.0,13.4,-0.0
12.954701256,-0.09146,13.700000000000001,-0.219504,-0.41964,13.600000000000001,-1.007136,-0.72092,13.5,-1.730208,-0.04304,13.4,-0.103296,0.0,13.4,0.0,-0.0,13.4,-0.0,-0.0,13.4,-0.0
12.987608699,-0.08877,13.700000000000001,-0.213048,-0.41964,13.5,-1.007136,-0.72092,13.5,-1.730208,-0.03766,13.4,-0.09038399999999999,-0.00807,13.4,-0.019368,-0.0,13.4,-0.0,-0.0,13.4,-0.0
13.020716072,-0.08877,13.600000000000001,-0.213048,-0.41964,13.600000000000001,-1.007136,-0.72092,13.5,-1.730208,-0.048420000000000005,13.4,-0.116208,0.0,13.4,0.0,-0.0,13.4,-0.0,-0.0,13.4,-0.0
13.054644351,-0.08877,13.700000000000001,-0.213048,-0.41964,13.600000000000001,-1.007136,-0.72092,13.4,-1.730208,-0.04573,13.4,-0.109752,-0.00269,13.4,-0.006456,-0.0,13.4,-0.0,-0.0,13.4,-0.0
13.087673203,-0.08877,13.700000000000001,-0.213048,-0.41964,13.600000000000001,-1.007136,-0.72092,13.4,-1.730208,-0.048420000000000005,13.4,-0.116208,0.0,13.4,0.0,-0.0,13.4,-0.0,-0.0,13.4,-0.0
13.120589092,-0.08877,13.700000000000001,-0.213048,-0.41964,13.5,-1.007136,-0.72092,13.5,-1.730208,-0.06187,13.4,-0.148488,0.0,13.4,0.0,-0.0,13.4,-0.0,-0.0,13.4,-0.0
13.154615909,-0.09146,13.700000000000001,-0.219504,-0.41964,13.600000000000001,-1.007136,-0.72092,13.4,-1.730208,-0.056490000000000005,13.4,-0.135576,0.0,13.4,0.0,-0.0,13.4,-0.0,0.00269,13.4,0.006456
13.187616814,-0.09146,13.700000000000001,-0.219504,-0.41964,13.600000000000001,-1.007136,-0.72092,13.3,-1.730208,-0.05111,13.4,-0.122664,0.0,13.4,0.0,-0.0,13.4,-0.0,0.00269,13.4,0.006456
13.220536034,-0.08877,13.700000000000001,-0.213048,-0.41426,13.5,-0.994224,-0.72092,13.4,-1.730208,-0.06456,13.4,-0.154944,0.0,13.4,0.0,-0.0,13.4,-0.0,0.00269,13.4,0.006456
13.254482205,-0.08877,13.700000000000001,-0.213048,-0.41695000000000004,13.600000000000001,-1.00068,-0.72092,13.5,-1.730208,-0.05918,13.4,-0.142032,0.0,13.4,0.0,-0.0,13.4,-0.0,-0.0,13.4,-0.0
13.28765987,-0.08877,13.700000000000001,-0.213048,-0.41964,13.5,-1.007136,-0.72092,13.4,-1.730208,-0.06456,13.4,-0.154944,-0.00269,13.4,-0.006456,-0.0,13.4,-0.0,-0.0,13.4,-0.0
13.320523261,-0.08877,13.700000000000001,-0.213048,-0.41964,13.600000000000001,-1.007136,-0.72092,13.5,-1.730208,-0.0538,13.4,-0.12911999999999998,0.0,13.4,0.0,-0.0,13.4,-0.0,-0.0,13.4,-0.0
13.354528025,-0.09146,13.700000000000001,-0.219504,-0.41964,13.600000000000001,-1.007136,-0.72092,13.4,-1.730208,-0.0538,13.4,-0.12911999999999998,-0.00269,13.4,-0.006456,-0.0,13.4,-0.0,-0.0,13.4,-0.0
13.387431778,-0.09146,13.700000000000001,-0.219504,-0.41964,13.600000000000001,-1.007136,-0.72092,13.4,-1.730208,-0.03497,13.4,-0.083928,0.0,13.4,0.0,-0.0,13.4,-0.0,-0.0,13.4,-0.0
13.420472075,-0.09146,13.700000000000001,-0.219504,-0.41964,13.600000000000001,-1.007136,-0.72092,13.4,-1.730208,-0.05918,13.4,-0.142032,-0.00538,13.4,-0.012912,-0.0,13.4,-0.0,-0.0,13.4,-0.0
13.454509703,-0.09146,13.700000000000001,-0.219504,-0.41964,13.600000000000001,-1.007136,-0.72092,13.3,-1.730208,-0.0538,13.4,-0.12911999999999998,-0.00269,13.4,-0.006456,-0.0,13.4,-0.0,-0.0,13.4,-0.0
13.487706894,-0.09146,13.700000000000001,-0.219504,-0.41964,13.5,-1.007136,-0.72092,13.5,-1.730208,-0.0538,13.4,-0.12911999999999998,-0.00269,13.4,-0.006456,-0.0,13.4,-0.0,-0.0,13.4,-0.0
13.520618649,-0.08877,13.700000000000001,-0.213048,-0.41964,13.600000000000001,-1.007136,-0.72092,13.5,-1.730208,-0.040350000000000004,13.4,-0.09684000000000001,0.0,13.4,0.0,-0.0,13.4,-0.0,-0.0,13.4,-0.0
13.554456292,-0.08877,13.700000000000001,-0.213048,-0.41964,13.600000000000001,-1.007136,-0.72092,13.4,-1.730208,-0.05918,13.4,-0.142032,0.0,13.4,0.0,-0.0,13.4,-0.0,-0.0,13.4,-0.0
13.587396752,-0.09146,13.600000000000001,-0.219504,-0.41964,13.5,-1.007136,-0.72092,13.4,-1.730208,-0.06456,13.4,-0.154944,0.0,13.4,0.0,-0.0,13.4,-0.0,0.00269,13.4,0.006456
13.621470331,-0.08877,13.700000000000001,-0.213048,-0.41964,13.600000000000001,-1.007136,-0.72092,13.5,-1.730208,-0.040350000000000004,13.4,-0.09684000000000001,-0.00269,13.4,-0.006456,-0.0,13.4,-0.0,0.00269,13.4,0.006456
13.654383142,-0.09146,13.700000000000001,-0.219504,-0.41964,13.600000000000001,-1.007136,-0.72092,13.5,-1.730208,-0.048420000000000005,13.4,-0.116208,0.0,13.4,0.0,-0.0,13.4,-0.0,-0.0,13.4,-0.0
13.687460498,-0.09146,13.700000000000001,-0.219504,-0.41964,13.5,-1.007136,-0.72092,13.5,-1.730208,-0.048420000000000005,13.4,-0.116208,-0.00269,13.4,-0.006456,-0.0,13.4,-0.0,0.00269,13.4,0.006456
13.721346758,-0.08877,13.700000000000001,-0.213048,-0.41964,13.5,-1.007136,-0.72092,13.5,-1.730208,-0.04304,13.4,-0.103296,0.0,13.4,0.0,-0.0,13.4,-0.0,0.00538,13.4,0.012912
13.754408356,-0.08877,13.700000000000001,-0.213048,-0.41695000000000004,13.600000000000001,-1.00068,-0.72092,13.5,-1.730208,-0.06456,13.4,-0.154944,0.0,13.4,0.0,-0.0,13.4,-0.0,0.00269,13.4,0.006456
13.787283831,-0.08877,13.700000000000001,-0.213048,-0.41426,13.600000000000001,-0.994224,-0.7155400000000001,13.5,-1.7172960000000002,-0.05918,13.4,-0.142032,0.0,13.4,0.0,-0.0,13.4,-0.0,-0.0,13.4,-0.0
13.82128499,-0.08877,13.700000000000001,-0.213048,-0.41964,13.5,-1.007136,-0.7155400000000001,13.4,-1.7172960000000002,-0.04573,13.4,-0.109752,-0.00269,13.4,-0.006456,-0.0,13.4,-0.0,0.00269,13.4,0.006456
13.854420717,-0.08877,13.700000000000001,-0.213048,-0.41964,13.5,-1.007136,-0.7155400000000001,13.5,-1.7172960000000002,-0.05918,13.4,-0.142032,0.0,13.4,0.0,-0.0,13.4,-0.0,0.00538,13.4,0.012912
13.887481934,-0.08877,13.700000000000001,-0.213048,-0.41964,13.600000000000001,-1.007136,-0.7155400000000001,13.5,-1.7172960000000002,-0.0538,13.4,-0.12911999999999998,0.0,13.4,0.0,-0.0,13.4,-0.0,0.00538,13.4,0.012912
13.921357874,-0.08877,13.700000000000001,-0.213048,-0.41695000000000004,13.600000000000001,-1.00068,-0.7155400000000001,13.4,-1.7172960000000002,-0.06725,13.4,-0.16140000000000002,0.0,13.4,0.0,-0.0,13.4,-0.0,0.00538,13.4,0.012912
13.954358464,-0.09146,13.700000000000001,-0.219504,-0.41695000000000004,13.600000000000001,-1.00068,-0.7155400000000001,13.4,-1.7172960000000002,-0.03228,13.4,-0.077472,-0.00269,13.4,-0.006456,-0.0,13.4,-0.0,0.00538,13.4,0.012912
13.987176707,-0.08877,13.700000000000001,-0.213048,-0.41695000000000004,13.600000000000001,-1.00068,-0.7155400000000001,13.4,-1.7172960000000002,-0.04304,13.4,-0.103296,0.0,13.4,0.0,-0.0,13.4,-0.0,0.00269,13.4,0.006456
14.021222498,-0.08877,13.700000000000001,-0.213048,-0.41695000000000004,13.600000000000001,-1.00068,-0.7155400000000001,13.5,-1.7172960000000002,-0.04573,13.4,-0.109752,0.0,13.4,0.0,-0.0,13.4,-0.0,0.00269,13.4,0.006456
14.054240904,-0.09953000000000001,13.700000000000001,-0.238872,-0.41695000000000004,13.5,-1.00068,-0.7155400000000001,13.4,-1.7172960000000002,-0.040350000000000004,13.4,-0.09684000000000001,0.0,13.4,0.0,-0.0,13.4,-0.0,0.00269,13.4,0.006456
14.08724351,-0.09146,13.600000000000001,-0.219504,-0.41695000000000004,13.5,-1.00068,-0.7155400000000001,13.4,-1.7172960000000002,-0.02959,13.4,-0.071016,0.0,13.4,0.0,-0.0,13.4,-0.0,0.00269,13.4,0.006456
14.121194807,-0.08877,13.700000000000001,-0.213048,-0.41695000000000004,13.600000000000001,-1.00068,-0.7155400000000001,13.5,-1.7172960000000002,-0.06187,13.4,-0.148488,-0.00269,13.4,-0.006456,-0.0,13.4,-0.0,0.00269,13.4,0.006456
14.154321066,-0.09146,13.700000000000001,-0.219504,-0.41695000000000004,13.600000000000001,-1.00068,-0.71823,13.5,-1.723752,-0.06994,13.4,-0.167856,0.0,13.4,0.0,-0.0,13.4,-0.0,0.00269,13.4,0.006456
14.187133163,-0.08877,13.700000000000001,-0.213048,-0.41695000000000004,13.600000000000001,-1.00068,-0.71823,13.5,-1.723752,-0.048420000000000005,13.4,-0.116208,0.0,13.4,0.0,-0.0,13.4,-0.0,-0.0,13.4,-0.0
14.221224267,-0.08877,13.700000000000001,-0.213048,-0.41695000000000004,13.600000000000001,-1.00068,-0.71823,13.5,-1.723752,-0.06456,13.4,-0.154944,-0.00269,13.4,-0.006456,-0.0,13.4,-0.0,-0.0,13.4,-0.0
14.253996335,-0.08877,13.600000000000001,-0.213048,-0.41964,13.600000000000001,-1.007136,-0.71823,13.5,-1.723752,-0.05918,13.4,-0.142032,0.0,13.4,0.0,-0.0,13.4,-0.0,-0.0,13.4,-0.0
14.288199633,-0.08877,13.700000000000001,-0.213048,-0.41964,13.600000000000001,-1.007136,-0.71823,13.5,-1.723752,-0.040350000000000004,13.4,-0.09684000000000001,0.0,13.4,0.0,-0.0,13.4,-0.0,-0.0,13.4,-0.0
14.321309473,-0.08877,13.700000000000001,-0.213048,-0.41695000000000004,13.600000000000001,-1.00068,-0.71823,13.4,-1.723752,-0.05111,13.4,-0.122664,0.0,13.4,0.0,0.00269,13.4,0.006456,-0.0,13.4,-0.0
14.354196031,-0.08877,13.700000000000001,-0.213048,-0.41695000000000004,13.600000000000001,-1.00068,-0.71823,13.5,-1.723752,-0.04304,13.4,-0.103296,0.0,13.4,0.0,-0.0,13.4,-0.0,-0.0,13.4,-0.0
14.388108299,-0.09146,13.700000000000001,-0.219504,-0.41695000000000004,13.600000000000001,-1.00068,-0.71823,13.4,-1.723752,-0.03497,13.4,-0.083928,0.0,13.4,0.0,-0.0,13.4,-0.0,-0.0,13.4,-0.0
14.420996007,-0.08877,13.700000000000001,-0.213048,-0.41695000000000004,13.600000000000001,-1.00068,-0.71823,13.5,-1.723752,-0.0538,13.4,-0.12911999999999998,-0.00269,13.4,-0.006456,-0.0,13.4,-0.0,-0.0,13.4,-0.0
14.454038752,-0.08877,13.700000000000001,-0.213048,-0.41695000000000004,13.600000000000001,-1.00068,-0.71823,13.5,-1.723752,-0.040350000000000004,13.4,-0.09684000000000001,-0.00269,13.4,-0.006456,-0.0,13.4,-0.0,-0.0,13.4,-0.0
14.488252204,-0.08877,13.700000000000001,-0.213048,-0.41695000000000004,13.600000000000001,-1.00068,-0.71823,13.5,-1.723752,-0.05918,13.4,-0.142032,0.0,13.4,0.0,-0.0,13.4,-0.0,-0.0,13.4,-0.0
14.521262146,-0.08877,13.700000000000001,-0.213048,-0.41695000000000004,13.600000000000001,-1.00068,-0.71823,13.4,-1.723752,-0.03497,13.4,-0.083928,-0.00269,13.4,-0.006456,-0.0,13.4,-0.0,-0.0,13.4,-0.0
14.554166516,-0.08877,13.700000000000001,-0.213048,-0.41695000000000004,13.600000000000001,-1.00068,-0.71823,13.5,-1.723752,-0.0538,13.4,-0.12911999999999998,-0.00269,13.4,-0.006456,-0.0,13.4,-0.0,-0.0,13.4,-0.0
14.588031923,-0.08877,13.700000000000001,-0.213048,-0.41964,13.600000000000001,-1.007136,-0.71823,13.4,-1.723752,-0.06187,13.4,-0.148488,0.0,13.4,0.0,-0.0,13.4,-0.0,0.00269,13.4,0.006456
14.621211204,-0.09146,13.700000000000001,-0.219504,-0.41695000000000004,13.600000000000001,-1.00068,-0.71823,13.4,-1.723752,-0.05918,13.4,-0.142032,0.0,13.4,0.0,-0.0,13.4,-0.0,0.00269,13.4,0.006456
14.653988922,-0.08877,13.600000000000001,-0.213048,-0.41695000000000004,13.600000000000001,-1.00068,-0.71823,13.5,-1.723752,-0.05111,13.4,-0.122664,0.0,13.4,0.0,-0.0,13.4,-0.0,0.00269,13.4,0.006456
14.687972654,-0.08877,13.600000000000001,-0.213048,-0.41695000000000004,13.600000000000001,-1.00068,-0.71823,13.5,-1.723752,-0.04573,13.4,-0.109752,-0.00269,13.4,-0.006456,-0.0,13.4,-0.0,0.00269,13.4,0.006456
14.720894861,-0.08877,13.700000000000001,-0.213048,-0.41695000000000004,13.5,-1.00068,-0.71823,13.5,-1.723752,-0.06725,13.4,-0.16140000000000002,0.0,13.4,0.0,-0.0,13.4,-0.0,0.00269,13.4,0.006456
14.753900196,-0.08877,13.700000000000001,-0.213048,-0.41695000000000004,13.600000000000001,-1.00068,-0.71823,13.5,-1.723752,-0.03766,13.4,-0.09038399999999999,0.0,13.4,0.0,-0.0,13.4,-0.0,0.00269,13.4,0.006456
14.787946746,-0.09146,13.700000000000001,-0.219504,-0.41695000000000004,13.600000000000001,-1.00068,-0.71823,13.4,-1.723752,-0.040350000000000004,13.4,-0.09684000000000001,0.0,13.4,0.0,-0.0,13.4,-0.0,0.00269,13.4,0.006456
14.820857161,-0.08877,13.700000000000001,-0.213048,-0.41695000000000004,13.600000000000001,-1.00068,-0.71823,13.4,-1.723752,-0.03766,13.4,-0.09038399999999999,-0.00269,13.4,-0.006456,-0.0,13.4,-0.0,0.00269,13.4,0.006456
14.853963156,-0.08877,13.700000000000001,-0.213048,-0.41695000000000004,13.600000000000001,-1.00068,-0.71823,13.4,-1.723752,-0.0538,13.4,-0.12911999999999998,-0.00269,13.4,-0.006456,-0.0,13.4,-0.0,0.00269,13.4,0.006456
14.887908697,-0.09146,13.700000000000001,-0.219504,-0.41695000000000004,13.600000000000001,-1.00068,-0.71823,13.5,-1.723752,-0.04573,13.4,-0.109752,0.0,13.4,0.0,-0.0,13.4,-0.0,0.00269,13.4,0.006456
14.92100281,-0.08877,13.700000000000001,-0.213048,-0.41695000000000004,13.5,-1.00068,-0.71823,13.4,-1.723752,-0.03766,13.4,-0.09038399999999999,0.0,13.4,0.0,-0.0,13.4,-0.0,0.00269,13.4,0.006456
14.953967118,-0.08877,13.700000000000001,-0.213048,-0.41695000000000004,13.600000000000001,-1.00068,-0.71823,13.4,-1.723752,-0.048420000000000005,13.4,-0.116208,0.0,13.4,0.0,-0.0,13.4,-0.0,0.00269,13.4,0.006456
14.987896438,-0.08877,13.700000000000001,-0.213048,-0.41695000000000004,13.600000000000001,-1.00068,-0.71823,13.4,-1.723752,-0.04573,13.4,-0.109752,0.0,13.4,0.0,-0.0,13.4,-0.0,0.00269,13.4,0.006456
