RoboFEI-Work/manip_ws/pick_telemetry/pick_telemetry_20260625_213624.csv
time,manip_joint1/current,manip_joint1/voltage,manip_joint1/effort,manip_joint2/current,manip_joint2/voltage,manip_joint2/effort,manip_joint3/current,manip_joint3/voltage,manip_joint3/effort,manip_joint4/current,manip_joint4/voltage,manip_joint4/effort,manip_joint5/current,manip_joint5/voltage,manip_joint5/effort,manip_joint6/current,manip_joint6/voltage,manip_joint6/effort,manip_joint7/current,manip_joint7/voltage,manip_joint7/effort
0.002191985,-0.19368000000000002,13.600000000000001,-0.464832,-0.81776,13.600000000000001,-1.962624,-0.6940200000000001,13.4,-1.6656480000000002,-0.01076,13.4,-0.025824,0.02152,13.3,0.051648,-0.0,13.4,-0.0,-0.0,13.4,-0.0
0.002656127,-0.19368000000000002,13.600000000000001,-0.464832,-0.8339000000000001,13.600000000000001,-2.00136,-0.69133,13.4,-1.659192,-0.00807,13.4,-0.019368,0.01076,13.3,0.025824,-0.0,13.4,-0.0,-0.0,13.4,-0.0
0.003036168,-0.18561,13.600000000000001,-0.44546399999999997,-0.82314,13.600000000000001,-1.975536,-0.6940200000000001,13.4,-1.6656480000000002,-0.00807,13.4,-0.019368,0.01883,13.3,0.045191999999999996,-0.0,13.4,-0.0,-0.0,13.4,-0.0
0.003411048,-0.18292,13.600000000000001,-0.439008,-0.82314,13.5,-1.975536,-0.6940200000000001,13.4,-1.6656480000000002,-0.00807,13.4,-0.019368,0.01614,13.3,0.038736,-0.0,13.4,-0.0,-0.0,13.4,-0.0
0.003783775,-0.18561,13.600000000000001,-0.44546399999999997,-0.82852,13.600000000000001,-1.988448,-0.69671,13.4,-1.672104,-0.00807,13.4,-0.019368,0.0,13.3,0.0,-0.0,13.4,-0.0,-0.0,13.4,-0.0
0.004130897,-0.18561,13.600000000000001,-0.44546399999999997,-0.81238,13.5,-1.949712,-0.69671,13.4,-1.672104,-0.01345,13.4,-0.032279999999999996,0.0,13.3,0.0,-0.0,13.4,-0.0,-0.0,13.4,-0.0
0.00451493,-0.18561,13.600000000000001,-0.44546399999999997,-0.82045,13.5,-1.96908,-0.69671,13.4,-1.672104,-0.01076,13.4,-0.025824,0.03228,13.3,0.077472,-0.0,13.4,-0.0,-0.0,13.4,-0.0
0.004846364,-0.18561,13.600000000000001,-0.44546399999999997,-0.8258300000000001,13.4,-1.981992,-0.69671,13.3,-1.672104,-0.00807,13.4,-0.019368,0.01614,13.3,0.038736,-0.0,13.4,-0.0,-0.0,13.4,-0.0
0.005182732,-0.18561,13.600000000000001,-0.44546399999999997,-0.83121,13.5,-1.994904,-0.69671,13.4,-1.672104,-0.00807,13.4,-0.019368,0.00269,13.3,0.006456,-0.0,13.4,-0.0,-0.0,13.4,-0.0
0.005505796,-0.18561,13.600000000000001,-0.44546399999999997,-0.83121,13.4,-1.994904,-0.68864,13.4,-1.652736,-0.01345,13.4,-0.032279999999999996,0.00538,13.3,0.012912,-0.0,13.4,-0.0,-0.0,13.4,-0.0
0.005816217,-0.18561,13.600000000000001,-0.44546399999999997,-0.81238,13.5,-1.949712,-0.69671,13.4,-1.672104,-0.01614,13.4,-0.038736,0.01614,13.3,0.038736,-0.0,13.4,-0.0,-0.0,13.4,-0.0
0.006155793,-0.18561,13.600000000000001,-0.44546399999999997,-0.82852,13.4,-1.988448,-0.69671,13.4,-1.672104,-0.00807,13.4,-0.019368,0.01345,13.3,0.032279999999999996,-0.0,13.4,-0.0,-0.0,13.4,-0.0
0.006500909,-0.19637000000000002,13.600000000000001,-0.47128800000000004,-0.83121,13.5,-1.994904,-0.6994,13.4,-1.67856,-0.01076,13.4,-0.025824,0.00269,13.3,0.006456,-0.0,13.4,-0.0,-0.0,13.4,-0.0
0.00682686,-0.18561,13.600000000000001,-0.44546399999999997,-0.82314,13.5,-1.975536,-0.69671,13.4,-1.672104,-0.00538,13.4,-0.012912,0.00269,13.3,0.006456,-0.0,13.4,-0.0,-0.0,13.4,-0.0
0.00715888,-0.18292,13.600000000000001,-0.439008,-0.8150700000000001,13.5,-1.9561680000000001,-0.69671,13.4,-1.672104,-0.01614,13.4,-0.038736,0.03228,13.3,0.077472,-0.0,13.4,-0.0,-0.0,13.4,-0.0
0.024294716,-0.18561,13.600000000000001,-0.44546399999999997,-0.83121,13.5,-1.994904,-0.69671,13.4,-1.672104,-0.00807,13.4,-0.019368,0.00538,13.3,0.012912,-0.0,13.4,-0.0,-0.0,13.4,-0.0
0.057224743,-0.18561,13.600000000000001,-0.44546399999999997,-0.8339000000000001,13.5,-2.00136,-0.68864,13.4,-1.652736,-0.00807,13.4,-0.019368,0.01614,13.3,0.038736,-0.0,13.4,-0.0,-0.0,13.3,-0.0
0.090126801,-0.18561,13.600000000000001,-0.44546399999999997,-0.8339000000000001,13.600000000000001,-2.00136,-0.69671,13.4,-1.672104,-0.00538,13.4,-0.012912,0.02152,13.3,0.051648,-0.0,13.4,-0.0,-0.0,13.4,-0.0
0.124247492,-0.06725,13.700000000000001,-0.16140000000000002,-0.28783000000000003,13.600000000000001,-0.6907920000000001,-0.26631,13.600000000000001,-0.6391439999999999,0.0,13.600000000000001,0.0,-0.00269,13.5,-0.006456,-0.0,13.5,-0.0,-0.0,13.5,-0.0
0.157110637,-0.048420000000000005,13.700000000000001,-0.116208,-0.27438,13.700000000000001,-0.658512,-0.27169,13.600000000000001,-0.652056,-0.01345,13.600000000000001,-0.032279999999999996,0.0,13.5,0.0,-0.0,13.600000000000001,-0.0,-0.0,13.600000000000001,-0.0
0.190251787,0.0,13.700000000000001,0.0,-0.36046,13.600000000000001,-0.865104,-0.28783000000000003,13.600000000000001,-0.6907920000000001,-0.00807,13.600000000000001,-0.019368,0.0,13.5,0.0,-0.0,13.600000000000001,-0.0,-0.0,13.600000000000001,-0.0
0.224215937,0.00807,13.700000000000001,0.019368,-0.37929,13.700000000000001,-0.910296,-0.31473,13.600000000000001,-0.755352,0.0,13.600000000000001,0.0,0.00269,13.5,0.006456,-0.0,13.600000000000001,-0.0,-0.0,13.600000000000001,-0.0
0.257110452,0.048420000000000005,13.700000000000001,0.116208,-0.42502,13.600000000000001,-1.020048,-0.32280000000000003,13.600000000000001,-0.7747200000000001,0.0,13.600000000000001,0.0,-0.02152,13.5,-0.051648,-0.0,13.600000000000001,-0.0,-0.0,13.600000000000001,-0.0
0.290152423,0.048420000000000005,13.700000000000001,0.116208,-0.38467,13.600000000000001,-0.923208,-0.30397,13.600000000000001,-0.7295280000000001,0.0,13.600000000000001,0.0,-0.00269,13.5,-0.006456,-0.0,13.5,-0.0,-0.0,13.4,-0.0
0.324155029,0.0538,13.700000000000001,0.12911999999999998,-0.36853,13.600000000000001,-0.884472,-0.30128,13.5,-0.7230719999999999,-0.00538,13.600000000000001,-0.012912,-0.01076,13.5,-0.025824,-0.0,13.5,-0.0,-0.0,13.5,-0.0
0.357135947,0.12105,13.700000000000001,0.29052,-0.36853,13.600000000000001,-0.884472,-0.32280000000000003,13.5,-0.7747200000000001,-0.00538,13.5,-0.012912,-0.01883,13.5,-0.045191999999999996,-0.0,13.5,-0.0,0.00269,13.5,0.006456
0.39009671,0.15871000000000002,13.700000000000001,0.380904,-0.36853,13.600000000000001,-0.884472,-0.35508,13.5,-0.852192,0.0,13.5,0.0,-0.00538,13.5,-0.012912,-0.0,13.5,-0.0,-0.0,13.5,-0.0
0.424024377,0.23403000000000002,13.700000000000001,0.5616720000000001,-0.36853,13.600000000000001,-0.884472,-0.34432,13.5,-0.826368,0.0,13.5,0.0,-0.01076,13.4,-0.025824,-0.0,13.5,-0.0,-0.0,13.5,-0.0
0.457169218,0.28514,13.700000000000001,0.6843359999999999,-0.36853,13.600000000000001,-0.884472,-0.35508,13.5,-0.852192,0.0,13.5,0.0,-0.05918,13.4,-0.142032,-0.0,13.5,-0.0,-0.0,13.5,-0.0
0.490158984,0.30397,13.600000000000001,0.7295280000000001,-0.33356,13.600000000000001,-0.800544,-0.4035,13.5,-0.9684,0.0,13.5,0.0,-0.03766,13.4,-0.09038399999999999,-0.0,13.5,-0.0,-0.0,13.4,-0.0
0.524398923,0.28514,13.600000000000001,0.6843359999999999,-0.31742000000000004,13.600000000000001,-0.761808,-0.37122,13.5,-0.8909279999999999,-0.00538,13.5,-0.012912,-0.04304,13.4,-0.103296,-0.0,13.5,-0.0,-0.0,13.4,-0.0
0.557188374,0.27976,13.600000000000001,0.671424,-0.31742000000000004,13.600000000000001,-0.761808,-0.4304,13.5,-1.0329599999999999,-0.02152,13.4,-0.051648,-0.056490000000000005,13.4,-0.135576,-0.0,13.4,-0.0,-0.0,13.4,-0.0
0.590044537,0.27438,13.600000000000001,0.658512,-0.31742000000000004,13.600000000000001,-0.761808,-0.44116,13.4,-1.058784,-0.00538,13.4,-0.012912,-0.048420000000000005,13.4,-0.116208,-0.0,13.4,-0.0,-0.0,13.4,-0.0
0.624331369,0.27707000000000004,13.600000000000001,0.6649680000000001,-0.32280000000000003,13.5,-0.7747200000000001,-0.4842,13.4,-1.16208,-0.00538,13.4,-0.012912,-0.04304,13.3,-0.103296,-0.0,13.4,-0.0,-0.0,13.4,-0.0
0.657082991,0.32011,13.600000000000001,0.768264,-0.33356,13.5,-0.800544,-0.47882,13.4,-1.149168,0.0,13.4,0.0,-0.08070000000000001,13.200000000000001,-0.19368000000000002,-0.0,13.4,-0.0,-0.0,13.3,-0.0
0.690939592,0.29052,13.5,0.697248,-0.31742000000000004,13.5,-0.761808,-0.51917,13.4,-1.246008,-0.01345,13.4,-0.032279999999999996,-0.056490000000000005,13.3,-0.135576,-0.0,13.3,-0.0,-0.0,13.3,-0.0
0.723938961,0.29052,13.600000000000001,0.697248,-0.31204000000000004,13.4,-0.7488960000000001,-0.52993,13.4,-1.271832,0.0,13.3,0.0,-0.09415,13.3,-0.22596,-0.0,13.3,-0.0,-0.0,13.3,-0.0
0.756993381,0.31204000000000004,13.5,0.7488960000000001,-0.30666,13.5,-0.735984,-0.55145,13.4,-1.32348,-0.01345,13.3,-0.032279999999999996,-0.10222,13.3,-0.245328,-0.0,13.3,-0.0,-0.0,13.3,-0.0
0.790949506,0.33894,13.5,0.8134560000000001,-0.27707000000000004,13.4,-0.6649680000000001,-0.60256,13.3,-1.4461439999999999,-0.00269,13.3,-0.006456,-0.06456,13.3,-0.154944,-0.0,13.3,-0.0,-0.0,13.3,-0.0
0.82389552,0.35508,13.5,0.852192,-0.33625,13.4,-0.8069999999999999,-0.6052500000000001,13.3,-1.4526000000000001,-0.00807,13.3,-0.019368,-0.10222,13.200000000000001,-0.245328,-0.0,13.200000000000001,-0.0,-0.0,13.200000000000001,-0.0
0.856908489,0.33894,13.5,0.8134560000000001,-0.32549,13.4,-0.781176,-0.64291,13.3,-1.542984,0.00269,13.200000000000001,0.006456,-0.10222,13.100000000000001,-0.245328,-0.0,13.200000000000001,-0.0,-0.0,13.200000000000001,-0.0
0.891044628,0.33087,13.5,0.794088,-0.30935,13.4,-0.74244,-0.68057,13.3,-1.633368,0.00269,13.3,0.006456,-0.06456,13.100000000000001,-0.154944,-0.0,13.200000000000001,-0.0,-0.0,13.200000000000001,-0.0
0.923854958,0.34701000000000004,13.5,0.8328240000000001,-0.31742000000000004,13.4,-0.761808,-0.72092,13.200000000000001,-1.730208,-0.01614,13.200000000000001,-0.038736,-0.09146,13.100000000000001,-0.219504,-0.0,13.100000000000001,-0.0,-0.0,13.200000000000001,-0.0
0.95679868,0.31742000000000004,13.5,0.761808,-0.32818,13.3,-0.787632,-0.7558900000000001,13.200000000000001,-1.814136,0.0,13.200000000000001,0.0,-0.06994,13.100000000000001,-0.167856,-0.0,13.100000000000001,-0.0,-0.0,13.100000000000001,-0.0
0.990891987,0.33087,13.4,0.794088,-0.30128,13.3,-0.7230719999999999,-0.74244,13.200000000000001,-1.7818559999999999,0.00269,13.200000000000001,0.006456,-0.11029,13.100000000000001,-0.264696,-0.0,13.100000000000001,-0.0,-0.0,13.100000000000001,-0.0
1.023883676,0.39543,13.4,0.949032,-0.31204000000000004,13.3,-0.7488960000000001,-0.70747,13.200000000000001,-1.697928,0.0,13.100000000000001,0.0,-0.15602000000000002,13.0,-0.37444800000000006,-0.0,13.100000000000001,-0.0,-0.0,13.100000000000001,-0.0
1.056788541,0.41157,13.4,0.987768,-0.30935,13.200000000000001,-0.74244,-0.6940200000000001,13.100000000000001,-1.6656480000000002,-0.01883,13.200000000000001,-0.045191999999999996,-0.08070000000000001,13.100000000000001,-0.19368000000000002,-0.0,13.0,-0.0,-0.0,13.100000000000001,-0.0
1.090822651,0.38736000000000004,13.4,0.929664,-0.30128,13.3,-0.7230719999999999,-0.71285,13.100000000000001,-1.71084,-0.00269,13.200000000000001,-0.006456,-0.08608,13.0,-0.206592,-0.0,13.0,-0.0,-0.0,13.0,-0.0
1.123857702,0.38736000000000004,13.3,0.929664,-0.2959,13.200000000000001,-0.71016,-0.66174,13.200000000000001,-1.588176,-0.00269,13.100000000000001,-0.006456,-0.15333,13.0,-0.367992,-0.0,13.0,-0.0,-0.0,13.0,-0.0
1.156861837,0.38467,13.5,0.923208,-0.27438,13.3,-0.658512,-0.69671,13.100000000000001,-1.672104,0.0,13.100000000000001,0.0,-0.07263,13.0,-0.174312,-0.0,13.0,-0.0,0.00269,13.0,0.006456
1.19079064,0.34701000000000004,13.3,0.8328240000000001,-0.27976,13.3,-0.671424,-0.67788,13.100000000000001,-1.6269120000000001,-0.00269,13.100000000000001,-0.006456,-0.09415,13.100000000000001,-0.22596,-0.0,13.0,-0.0,-0.0,13.100000000000001,-0.0
1.223815172,0.36046,13.4,0.865104,-0.28514,13.200000000000001,-0.6843359999999999,-0.6725,13.100000000000001,-1.6139999999999999,0.0,13.100000000000001,0.0,-0.12374,13.0,-0.296976,-0.0,13.0,-0.0,-0.0,13.100000000000001,-0.0
1.256805006,0.35239000000000004,13.3,0.845736,-0.30935,13.200000000000001,-0.74244,-0.6187,13.200000000000001,-1.48488,-0.02152,13.100000000000001,-0.051648,-0.10491,13.0,-0.251784,-0.0,13.0,-0.0,-0.0,13.0,-0.0
1.290829356,0.36584,13.4,0.878016,-0.32011,13.3,-0.768264,-0.6187,13.200000000000001,-1.48488,-0.00269,13.200000000000001,-0.006456,-0.07263,13.100000000000001,-0.174312,-0.0,13.100000000000001,-0.0,-0.0,13.0,-0.0
1.32379821,0.42502,13.4,1.020048,-0.31742000000000004,13.200000000000001,-0.761808,-0.64291,13.0,-1.542984,0.0,13.100000000000001,0.0,-0.14257,13.0,-0.34216799999999997,-0.0,13.0,-0.0,-0.0,13.0,-0.0
1.356880221,0.41426,13.4,0.994224,-0.35239000000000004,13.200000000000001,-0.845736,-0.68864,13.100000000000001,-1.652736,-0.00269,13.0,-0.006456,-0.07532,13.0,-0.18076799999999998,-0.0,13.0,-0.0,-0.0,13.0,-0.0
1.390813769,0.37391,13.4,0.8973840000000001,-0.31742000000000004,13.3,-0.761808,-0.6348400000000001,13.200000000000001,-1.523616,0.0,13.100000000000001,0.0,-0.07263,13.0,-0.174312,-0.0,13.100000000000001,-0.0,-0.0,13.0,-0.0
1.423708022,0.41964,13.4,1.007136,-0.34432,13.200000000000001,-0.826368,-0.65905,13.200000000000001,-1.58172,0.0,13.0,0.0,-0.1076,13.0,-0.25823999999999997,-0.0,13.0,-0.0,-0.0,13.0,-0.0
1.456769939,0.41964,13.5,1.007136,-0.31742000000000004,13.200000000000001,-0.761808,-0.6456000000000001,13.200000000000001,-1.5494400000000002,-0.01883,13.100000000000001,-0.045191999999999996,-0.04573,13.0,-0.109752,-0.0,13.0,-0.0,-0.0,13.100000000000001,-0.0
1.490699221,0.40619,13.3,0.974856,-0.32011,13.3,-0.768264,-0.6348400000000001,13.200000000000001,-1.523616,-0.01076,13.100000000000001,-0.025824,-0.08877,13.0,-0.213048,-0.0,13.0,-0.0,-0.0,13.0,-0.0
1.523706406,0.45192000000000004,13.4,1.084608,-0.32280000000000003,13.200000000000001,-0.7747200000000001,-0.65367,13.200000000000001,-1.568808,0.0,13.100000000000001,0.0,-0.09953000000000001,13.0,-0.238872,-0.0,13.0,-0.0,-0.0,13.0,-0.0
1.556659524,0.42771000000000003,13.4,1.026504,-0.30128,13.200000000000001,-0.7230719999999999,-0.6859500000000001,13.100000000000001,-1.6462800000000002,-0.01345,13.100000000000001,-0.032279999999999996,-0.07263,13.0,-0.174312,-0.0,13.100000000000001,-0.0,-0.0,13.0,-0.0
1.590629601,0.40619,13.4,0.974856,-0.2959,13.200000000000001,-0.71016,-0.68057,13.100000000000001,-1.633368,-0.01883,13.100000000000001,-0.045191999999999996,-0.06456,13.0,-0.154944,-0.0,13.0,-0.0,-0.0,13.0,-0.0
1.623617694,0.44385,13.3,1.06524,-0.28514,13.200000000000001,-0.6843359999999999,-0.7047800000000001,13.100000000000001,-1.691472,0.0,13.100000000000001,0.0,-0.11029,13.0,-0.264696,-0.0,13.0,-0.0,-0.0,13.0,-0.0
1.657638818,0.40619,13.4,0.974856,-0.34432,13.3,-0.826368,-0.68864,13.100000000000001,-1.652736,-0.01883,13.100000000000001,-0.045191999999999996,-0.07532,13.0,-0.18076799999999998,-0.0,13.0,-0.0,-0.0,13.0,-0.0
1.690620302,0.44116,13.3,1.058784,-0.33356,13.200000000000001,-0.800544,-0.66712,13.100000000000001,-1.601088,-0.02152,13.100000000000001,-0.051648,-0.14795,13.0,-0.35508,-0.0,13.0,-0.0,-0.0,13.0,-0.0
1.723581745,0.45999,13.4,1.103976,-0.35508,13.3,-0.852192,-0.6725,13.100000000000001,-1.6139999999999999,-0.01345,13.100000000000001,-0.032279999999999996,-0.06187,13.0,-0.148488,-0.0,13.0,-0.0,-0.0,13.0,-0.0
1.757775342,0.44116,13.3,1.058784,-0.35777000000000003,13.200000000000001,-0.8586480000000001,-0.71285,13.100000000000001,-1.71084,0.0,13.100000000000001,0.0,-0.09146,13.0,-0.219504,-0.0,13.0,-0.0,0.00269,13.0,0.006456
1.79060734,0.47075,13.4,1.1298,-0.33356,13.3,-0.800544,-0.7155400000000001,13.100000000000001,-1.7172960000000002,-0.01076,13.100000000000001,-0.025824,-0.08877,12.9,-0.213048,-0.0,13.0,-0.0,0.00269,13.0,0.006456
1.823544222,0.46806000000000003,13.3,1.1233440000000001,-0.37122,13.200000000000001,-0.8909279999999999,-0.7155400000000001,13.100000000000001,-1.7172960000000002,0.0,13.100000000000001,0.0,-0.11298000000000001,13.0,-0.271152,-0.0,13.0,-0.0,-0.0,13.0,-0.0
1.857723387,0.41964,13.4,1.007136,-0.36046,13.200000000000001,-0.865104,-0.6940200000000001,13.100000000000001,-1.6656480000000002,-0.01883,13.0,-0.045191999999999996,-0.08608,12.9,-0.206592,-0.0,13.0,-0.0,-0.0,13.0,-0.0
1.890462345,0.44923,13.3,1.078152,-0.36046,13.200000000000001,-0.865104,-0.66981,13.0,-1.607544,-0.01614,13.100000000000001,-0.038736,-0.11029,13.0,-0.264696,-0.0,13.0,-0.0,-0.0,13.0,-0.0
1.923517467,0.44654,13.4,1.071696,-0.3497,13.200000000000001,-0.83928,-0.71823,13.100000000000001,-1.723752,0.0,13.100000000000001,0.0,-0.08877,13.0,-0.213048,-0.0,12.9,-0.0,-0.0,13.0,-0.0
1.957590487,0.4035,13.4,0.9684,-0.31742000000000004,13.3,-0.761808,-0.70209,13.100000000000001,-1.6850159999999998,0.0,13.100000000000001,0.0,-0.10222,13.0,-0.245328,-0.0,12.9,-0.0,-0.0,13.0,-0.0
1.99052354,0.41964,13.3,1.007136,-0.34701000000000004,13.200000000000001,-0.8328240000000001,-0.6725,13.100000000000001,-1.6139999999999999,0.0,13.100000000000001,0.0,-0.13719,12.9,-0.329256,-0.0,13.0,-0.0,0.00269,13.0,0.006456
2.023427983,0.42771000000000003,13.4,1.026504,-0.34163,13.3,-0.819912,-0.64022,13.100000000000001,-1.536528,-0.01614,13.100000000000001,-0.038736,-0.10491,13.0,-0.251784,-0.0,12.9,-0.0,0.00269,13.0,0.006456
2.057317255,0.40619,13.3,0.974856,-0.35508,13.200000000000001,-0.852192,-0.66174,13.100000000000001,-1.588176,-0.00807,13.0,-0.019368,-0.08608,13.0,-0.206592,-0.0,13.0,-0.0,0.00269,13.0,0.006456
2.090525842,0.42771000000000003,13.4,1.026504,-0.33894,13.3,-0.8134560000000001,-0.66174,13.100000000000001,-1.588176,-0.02152,13.100000000000001,-0.051648,-0.1345,13.0,-0.32280000000000003,-0.0,12.9,-0.0,-0.0,13.0,-0.0
2.123317054,0.4304,13.3,1.0329599999999999,-0.38467,13.200000000000001,-0.923208,-0.65905,13.100000000000001,-1.58172,-0.00269,13.0,-0.006456,-0.12105,13.0,-0.29052,-0.0,12.9,-0.0,0.00269,13.0,0.006456
2.157510991,0.41426,13.4,0.994224,-0.35239000000000004,13.3,-0.845736,-0.69671,13.200000000000001,-1.672104,-0.01614,13.100000000000001,-0.038736,-0.09146,13.0,-0.219504,-0.0,13.0,-0.0,0.00269,13.0,0.006456
2.1903216,0.44654,13.3,1.071696,-0.35239000000000004,13.200000000000001,-0.845736,-0.7343700000000001,13.100000000000001,-1.762488,0.0,13.0,0.0,-0.14257,13.0,-0.34216799999999997,-0.0,12.9,-0.0,0.00269,13.0,0.006456
2.223426408,0.42502,13.4,1.020048,-0.36853,13.3,-0.884472,-0.6859500000000001,13.100000000000001,-1.6462800000000002,-0.01883,13.100000000000001,-0.045191999999999996,-0.09684000000000001,12.9,-0.232416,-0.0,13.0,-0.0,0.00269,13.0,0.006456
2.25766196,0.40619,13.3,0.974856,-0.33894,13.200000000000001,-0.8134560000000001,-0.66981,13.100000000000001,-1.607544,0.0,13.100000000000001,0.0,-0.11567000000000001,13.0,-0.277608,-0.0,12.9,-0.0,0.00269,13.0,0.006456
2.290411109,0.43578,13.4,1.045872,-0.38736000000000004,13.3,-0.929664,-0.67788,13.100000000000001,-1.6269120000000001,-0.00538,13.100000000000001,-0.012912,-0.14795,13.0,-0.35508,-0.0,13.0,-0.0,0.00269,13.0,0.006456
2.324339209,0.41157,13.3,0.987768,-0.35239000000000004,13.200000000000001,-0.845736,-0.73168,13.0,-1.756032,-0.024210000000000002,13.0,-0.058104,-0.11029,13.0,-0.264696,-0.0,13.0,-0.0,0.00538,13.0,0.012912
2.357359193,0.41964,13.4,1.007136,-0.32818,13.200000000000001,-0.787632,-0.6994,13.100000000000001,-1.67856,-0.01614,13.100000000000001,-0.038736,-0.12643000000000001,12.9,-0.30343200000000004,-0.0,13.0,-0.0,0.00538,13.0,0.012912
2.390409788,0.42233000000000004,13.3,1.013592,-0.34432,13.200000000000001,-0.826368,-0.69671,13.0,-1.672104,0.0,13.0,0.0,-0.12374,12.9,-0.296976,-0.0,12.9,-0.0,0.00538,12.9,0.012912
2.423380652,0.43847,13.3,1.052328,-0.30666,13.200000000000001,-0.735984,-0.76665,13.100000000000001,-1.83996,-0.024210000000000002,13.100000000000001,-0.058104,-0.10222,13.0,-0.245328,-0.0,12.9,-0.0,0.00538,13.0,0.012912
2.457428191,0.4304,13.4,1.0329599999999999,-0.31473,13.200000000000001,-0.755352,-0.7155400000000001,13.100000000000001,-1.7172960000000002,-0.01883,13.100000000000001,-0.045191999999999996,-0.09953000000000001,13.0,-0.238872,-0.0,13.0,-0.0,0.00538,13.0,0.012912
2.49041967,0.42233000000000004,13.4,1.013592,-0.30128,13.200000000000001,-0.7230719999999999,-0.72899,13.100000000000001,-1.749576,-0.01614,13.100000000000001,-0.038736,-0.11567000000000001,13.0,-0.277608,-0.0,13.0,-0.0,0.00538,13.0,0.012912
2.524240178,0.42233000000000004,13.3,1.013592,-0.33894,13.3,-0.8134560000000001,-0.7047800000000001,13.100000000000001,-1.691472,-0.03228,13.100000000000001,-0.077472,-0.10222,12.9,-0.245328,-0.0,13.0,-0.0,0.00538,13.0,0.012912
2.557385602,0.44116,13.3,1.058784,-0.32280000000000003,13.100000000000001,-0.7747200000000001,-0.7236100000000001,13.100000000000001,-1.7366640000000002,-0.01883,13.100000000000001,-0.045191999999999996,-0.13719,13.0,-0.329256,-0.0,12.9,-0.0,0.00538,13.0,0.012912
2.590219802,0.40888,13.4,0.981312,-0.34163,13.3,-0.819912,-0.7263000000000001,13.100000000000001,-1.74312,-0.02152,13.100000000000001,-0.051648,-0.13181,12.9,-0.316344,-0.0,13.0,-0.0,0.00538,13.0,0.012912
2.624139463,0.38467,13.3,0.923208,-0.33894,13.200000000000001,-0.8134560000000001,-0.71016,13.100000000000001,-1.704384,-0.0269,13.100000000000001,-0.06455999999999999,-0.09415,13.0,-0.22596,-0.0,12.9,-0.0,0.00538,13.0,0.012912
2.657268518,0.4304,13.4,1.0329599999999999,-0.32549,13.3,-0.781176,-0.73975,13.100000000000001,-1.7754,-0.0269,13.0,-0.06455999999999999,-0.14526,12.9,-0.348624,-0.0,12.9,-0.0,0.00538,13.0,0.012912
2.690372675,0.38736000000000004,13.4,0.929664,-0.35508,13.200000000000001,-0.852192,-0.72899,13.100000000000001,-1.749576,-0.02152,13.100000000000001,-0.051648,-0.11029,13.0,-0.264696,-0.0,12.9,-0.0,0.00538,13.0,0.012912
2.724194674,0.4035,13.4,0.9684,-0.35239000000000004,13.200000000000001,-0.845736,-0.71823,13.100000000000001,-1.723752,-0.02152,13.100000000000001,-0.051648,-0.11298000000000001,13.0,-0.271152,-0.0,13.0,-0.0,0.00538,13.0,0.012912
2.75718415,0.4035,13.3,0.9684,-0.32549,13.200000000000001,-0.781176,-0.73168,13.0,-1.756032,-0.02959,13.100000000000001,-0.071016,-0.14795,13.0,-0.35508,-0.0,12.9,-0.0,0.00538,13.0,0.012912
2.790239084,0.3766,13.3,0.90384,-0.33894,13.200000000000001,-0.8134560000000001,-0.7155400000000001,13.100000000000001,-1.7172960000000002,-0.01883,13.100000000000001,-0.045191999999999996,-0.11836,12.9,-0.284064,-0.0,13.0,-0.0,0.00538,13.0,0.012912
2.824121608,0.39274000000000003,13.3,0.9425760000000001,-0.33356,13.200000000000001,-0.800544,-0.70747,13.100000000000001,-1.697928,0.0,13.100000000000001,0.0,-0.10222,13.0,-0.245328,-0.0,12.9,-0.0,0.00538,13.0,0.012912
2.857119597,0.39274000000000003,13.4,0.9425760000000001,-0.33356,13.200000000000001,-0.800544,-0.7236100000000001,13.100000000000001,-1.7366640000000002,-0.01883,13.100000000000001,-0.045191999999999996,-0.1345,12.9,-0.32280000000000003,-0.0,12.9,-0.0,0.00538,13.0,0.012912
2.890117833,0.36046,13.4,0.865104,-0.33625,13.3,-0.8069999999999999,-0.7263000000000001,13.100000000000001,-1.74312,-0.01883,13.100000000000001,-0.045191999999999996,-0.13719,12.9,-0.329256,-0.0,12.9,-0.0,0.00538,13.0,0.012912
2.924141054,0.36315000000000003,13.3,0.87156,-0.33087,13.3,-0.794088,-0.7451300000000001,13.100000000000001,-1.7883120000000001,-0.00538,13.100000000000001,-0.012912,-0.09953000000000001,13.0,-0.238872,-0.0,12.9,-0.0,0.00538,13.0,0.012912
2.957092072,0.39274000000000003,13.3,0.9425760000000001,-0.32011,13.3,-0.768264,-0.7263000000000001,13.100000000000001,-1.74312,-0.03766,13.0,-0.09038399999999999,-0.11836,13.0,-0.284064,-0.0,13.0,-0.0,0.00538,12.9,0.012912
2.990127395,0.34432,13.4,0.826368,-0.33625,13.3,-0.8069999999999999,-0.6940200000000001,13.100000000000001,-1.6656480000000002,-0.02152,13.100000000000001,-0.051648,-0.11567000000000001,13.0,-0.277608,-0.0,12.9,-0.0,0.00538,13.0,0.012912
3.024109036,0.34163,13.4,0.819912,-0.33894,13.3,-0.8134560000000001,-0.67788,13.100000000000001,-1.6269120000000001,-0.0269,13.100000000000001,-0.06455999999999999,-0.09415,13.0,-0.22596,-0.0,13.0,-0.0,0.00538,13.0,0.012912
3.0570661,0.36046,13.3,0.865104,-0.33894,13.200000000000001,-0.8134560000000001,-0.6751900000000001,13.100000000000001,-1.6204560000000001,-0.01345,13.100000000000001,-0.032279999999999996,-0.15064,13.0,-0.36153599999999997,-0.0,13.0,-0.0,0.00269,13.0,0.006456
3.09043518,0.3497,13.4,0.83928,-0.37122,13.200000000000001,-0.8909279999999999,-0.69133,13.100000000000001,-1.659192,-0.02959,13.100000000000001,-0.071016,-0.12912,12.9,-0.309888,-0.0,12.9,-0.0,0.00269,13.0,0.006456
3.124099629,0.3497,13.3,0.83928,-0.33894,13.3,-0.8134560000000001,-0.73168,13.100000000000001,-1.756032,-0.024210000000000002,13.100000000000001,-0.058104,-0.07801000000000001,13.0,-0.18722400000000003,-0.0,12.9,-0.0,0.00269,13.0,0.006456
3.157084397,0.36315000000000003,13.4,0.87156,-0.36584,13.3,-0.878016,-0.73168,13.100000000000001,-1.756032,-0.00807,13.100000000000001,-0.019368,-0.15064,12.9,-0.36153599999999997,-0.0,13.0,-0.0,0.00269,13.0,0.006456
3.190008123,0.3497,13.4,0.83928,-0.32549,13.200000000000001,-0.781176,-0.84735,13.200000000000001,-2.03364,-0.040350000000000004,13.100000000000001,-0.09684000000000001,-0.09953000000000001,13.0,-0.238872,-0.0,13.0,-0.0,0.00269,13.0,0.006456
3.223995131,0.33087,13.4,0.794088,-0.35508,13.200000000000001,-0.852192,-0.79086,13.100000000000001,-1.898064,-0.03497,13.0,-0.083928,-0.11029,12.9,-0.264696,-0.0,13.0,-0.0,0.00269,13.0,0.006456
3.256989349,0.37122,13.3,0.8909279999999999,-0.37929,13.3,-0.910296,-0.7747200000000001,13.100000000000001,-1.859328,-0.0269,13.100000000000001,-0.06455999999999999,-0.12912,13.0,-0.309888,-0.0,12.9,-0.0,0.00269,12.9,0.006456
3.291021879,0.34432,13.4,0.826368,-0.36046,13.200000000000001,-0.865104,-0.74244,13.100000000000001,-1.7818559999999999,-0.03228,13.0,-0.077472,-0.11029,12.9,-0.264696,-0.0,13.0,-0.0,0.00269,13.0,0.006456
3.324086627,0.31742000000000004,13.5,0.761808,-0.35508,13.3,-0.852192,-0.6994,13.200000000000001,-1.67856,-0.024210000000000002,13.200000000000001,-0.058104,-0.1345,13.0,-0.32280000000000003,-0.0,13.0,-0.0,0.00269,13.0,0.006456
3.357097114,0.28783000000000003,13.4,0.6907920000000001,-0.32280000000000003,13.3,-0.7747200000000001,-0.71823,13.200000000000001,-1.723752,-0.0269,13.100000000000001,-0.06455999999999999,-0.09953000000000001,13.0,-0.238872,-0.0,13.0,-0.0,0.00269,13.100000000000001,0.006456
3.39092138,0.29052,13.5,0.697248,-0.34701000000000004,13.3,-0.8328240000000001,-0.75858,13.100000000000001,-1.820592,-0.024210000000000002,13.200000000000001,-0.058104,-0.09953000000000001,13.100000000000001,-0.238872,-0.0,13.0,-0.0,0.00269,13.100000000000001,0.006456
3.42405002,0.2959,13.4,0.71016,-0.35508,13.3,-0.852192,-0.80162,13.100000000000001,-1.9238879999999998,-0.024210000000000002,13.100000000000001,-0.058104,-0.09146,13.0,-0.219504,-0.0,13.0,-0.0,0.00269,13.100000000000001,0.006456
3.456806922,0.269,13.5,0.6456000000000001,-0.33894,13.3,-0.8134560000000001,-0.79893,13.200000000000001,-1.917432,-0.024210000000000002,13.200000000000001,-0.058104,-0.08877,13.0,-0.213048,-0.0,13.100000000000001,-0.0,0.00269,13.100000000000001,0.006456
3.490919721,0.26362,13.5,0.632688,-0.39005,13.4,-0.93612,-0.76127,13.200000000000001,-1.827048,-0.02959,13.200000000000001,-0.071016,-0.06187,13.100000000000001,-0.148488,-0.0,13.100000000000001,-0.0,0.00269,13.100000000000001,0.006456
3.52390773,0.28514,13.5,0.6843359999999999,-0.38736000000000004,13.3,-0.929664,-0.7155400000000001,13.200000000000001,-1.7172960000000002,-0.0269,13.200000000000001,-0.06455999999999999,-0.07801000000000001,13.100000000000001,-0.18722400000000003,-0.0,13.100000000000001,-0.0,0.00269,13.100000000000001,0.006456
3.55687796,0.27169,13.5,0.652056,-0.33356,13.4,-0.800544,-0.77203,13.200000000000001,-1.8528719999999999,-0.0269,13.200000000000001,-0.06455999999999999,-0.08877,13.200000000000001,-0.213048,-0.0,13.100000000000001,-0.0,-0.0,13.200000000000001,-0.0
3.591320846,0.25555,13.5,0.61332,-0.37122,13.4,-0.8909279999999999,-0.72899,13.3,-1.749576,-0.0269,13.200000000000001,-0.06455999999999999,-0.056490000000000005,13.100000000000001,-0.135576,-0.0,13.200000000000001,-0.0,0.00269,13.200000000000001,0.006456
3.623842996,0.26093,13.4,0.626232,-0.36046,13.4,-0.865104,-0.7451300000000001,13.3,-1.7883120000000001,-0.03766,13.3,-0.09038399999999999,-0.07801000000000001,13.200000000000001,-0.18722400000000003,-0.0,13.200000000000001,-0.0,0.00269,13.200000000000001,0.006456
3.656852762,0.24748,13.5,0.593952,-0.37929,13.4,-0.910296,-0.79086,13.3,-1.898064,-0.03766,13.3,-0.09038399999999999,-0.05918,13.100000000000001,-0.142032,-0.0,13.200000000000001,-0.0,-0.0,13.200000000000001,-0.0
3.690870906,0.23134000000000002,13.5,0.555216,-0.36853,13.4,-0.884472,-0.77203,13.3,-1.8528719999999999,-0.02959,13.3,-0.071016,-0.056490000000000005,13.200000000000001,-0.135576,-0.0,13.3,-0.0,0.00269,13.200000000000001,0.006456
3.723803766,0.22596000000000002,13.5,0.542304,-0.37391,13.5,-0.8973840000000001,-0.7639600000000001,13.3,-1.833504,-0.04304,13.3,-0.103296,-0.06725,13.200000000000001,-0.16140000000000002,-0.0,13.200000000000001,-0.0,-0.0,13.3,-0.0
3.756800582,0.20982,13.5,0.503568,-0.40619,13.5,-0.974856,-0.7451300000000001,13.4,-1.7883120000000001,-0.03766,13.3,-0.09038399999999999,-0.05111,13.200000000000001,-0.122664,-0.0,13.3,-0.0,-0.0,13.3,-0.0
3.790803491,0.19906000000000001,13.5,0.477744,-0.40888,13.5,-0.981312,-0.72092,13.3,-1.730208,-0.02959,13.3,-0.071016,-0.04573,13.3,-0.109752,-0.0,13.3,-0.0,-0.0,13.3,-0.0
3.823762631,0.21251,13.5,0.510024,-0.40619,13.5,-0.974856,-0.7047800000000001,13.4,-1.691472,-0.03766,13.3,-0.09038399999999999,-0.048420000000000005,13.3,-0.116208,-0.0,13.3,-0.0,0.00269,13.3,0.006456
3.856733431,0.20175,13.5,0.4842,-0.41157,13.5,-0.987768,-0.72092,13.4,-1.730208,-0.03497,13.3,-0.083928,-0.02959,13.3,-0.071016,-0.0,13.3,-0.0,-0.0,13.3,-0.0
3.890747988,0.17216,13.600000000000001,0.413184,-0.3497,13.5,-0.83928,-0.71823,13.4,-1.723752,-0.056490000000000005,13.3,-0.135576,-0.03766,13.3,-0.09038399999999999,-0.0,13.3,-0.0,-0.0,13.4,-0.0
3.923790007,0.18023,13.600000000000001,0.432552,-0.35777000000000003,13.5,-0.8586480000000001,-0.71823,13.4,-1.723752,-0.02959,13.4,-0.071016,-0.05918,13.3,-0.142032,-0.0,13.4,-0.0,0.00269,13.4,0.006456
3.957139679,0.18292,13.700000000000001,0.439008,-0.33087,13.5,-0.794088,-0.73706,13.4,-1.768944,-0.040350000000000004,13.4,-0.09684000000000001,-0.02959,13.3,-0.071016,-0.0,13.4,-0.0,0.00269,13.4,0.006456
3.990726272,0.16140000000000002,13.600000000000001,0.38736000000000004,-0.33356,13.5,-0.800544,-0.7801,13.4,-1.87224,-0.03766,13.4,-0.09038399999999999,-0.01076,13.3,-0.025824,-0.0,13.4,-0.0,0.00269,13.4,0.006456
4.023733135,0.16409,13.600000000000001,0.393816,-0.3497,13.5,-0.83928,-0.72092,13.3,-1.730208,-0.06725,13.4,-0.16140000000000002,-0.02959,13.4,-0.071016,-0.0,13.4,-0.0,0.00269,13.4,0.006456
4.05767883,0.15064,13.600000000000001,0.36153599999999997,-0.3497,13.5,-0.83928,-0.72092,13.4,-1.730208,-0.040350000000000004,13.4,-0.09684000000000001,-0.00269,13.4,-0.006456,-0.0,13.4,-0.0,0.00269,13.4,0.006456
4.090702258,0.13719,13.600000000000001,0.329256,-0.35239000000000004,13.5,-0.845736,-0.74782,13.3,-1.7947680000000001,-0.048420000000000005,13.4,-0.116208,-0.01345,13.4,-0.032279999999999996,-0.0,13.4,-0.0,0.00269,13.4,0.006456
4.123535945,0.1345,13.600000000000001,0.32280000000000003,-0.35239000000000004,13.5,-0.845736,-0.7451300000000001,13.4,-1.7883120000000001,-0.02959,13.4,-0.071016,0.0,13.4,0.0,-0.0,13.4,-0.0,0.00269,13.4,0.006456
4.157566739,0.12912,13.600000000000001,0.309888,-0.35508,13.5,-0.852192,-0.75051,13.4,-1.801224,-0.05111,13.4,-0.122664,-0.00807,13.4,-0.019368,-0.0,13.4,-0.0,0.00269,13.4,0.006456
4.190742938,0.11836,13.700000000000001,0.284064,-0.35508,13.5,-0.852192,-0.74782,13.4,-1.7947680000000001,-0.05918,13.4,-0.142032,0.0,13.4,0.0,-0.0,13.4,-0.0,-0.0,13.4,-0.0
4.223600754,0.11029,13.700000000000001,0.264696,-0.34701000000000004,13.5,-0.8328240000000001,-0.75051,13.4,-1.801224,-0.03228,13.4,-0.077472,-0.00269,13.4,-0.006456,-0.0,13.4,-0.0,0.00269,13.4,0.006456
4.257692964,0.11298000000000001,13.700000000000001,0.271152,-0.35508,13.600000000000001,-0.852192,-0.75051,13.4,-1.801224,-0.04304,13.4,-0.103296,0.0,13.4,0.0,-0.0,13.4,-0.0,0.00269,13.4,0.006456
4.29060515,0.13181,13.700000000000001,0.316344,-0.35777000000000003,13.600000000000001,-0.8586480000000001,-0.75051,13.5,-1.801224,-0.05111,13.4,-0.122664,0.0,13.4,0.0,-0.0,13.4,-0.0,0.00269,13.4,0.006456
4.323616427,0.13988,13.700000000000001,0.335712,-0.35777000000000003,13.600000000000001,-0.8586480000000001,-0.75051,13.5,-1.801224,-0.04304,13.4,-0.103296,-0.00269,13.4,-0.006456,-0.0,13.4,-0.0,-0.0,13.4,-0.0
4.357608049,0.13988,13.700000000000001,0.335712,-0.35508,13.600000000000001,-0.852192,-0.75051,13.4,-1.801224,-0.03766,13.4,-0.09038399999999999,-0.00269,13.4,-0.006456,-0.0,13.4,-0.0,-0.0,13.4,-0.0
4.39085408,0.13181,13.700000000000001,0.316344,-0.35777000000000003,13.600000000000001,-0.8586480000000001,-0.75051,13.5,-1.801224,-0.048420000000000005,13.4,-0.116208,-0.00269,13.4,-0.006456,-0.0,13.4,-0.0,-0.0,13.4,-0.0
4.423467205,0.13181,13.700000000000001,0.316344,-0.35508,13.600000000000001,-0.852192,-0.7532,13.5,-1.80768,-0.0538,13.4,-0.12911999999999998,-0.00538,13.4,-0.012912,-0.0,13.4,-0.0,-0.0,13.4,-0.0
4.457499727,0.13988,13.700000000000001,0.335712,-0.35777000000000003,13.5,-0.8586480000000001,-0.75051,13.4,-1.801224,-0.048420000000000005,13.4,-0.116208,-0.00538,13.4,-0.012912,-0.0,13.4,-0.0,-0.0,13.4,-0.0
4.490463926,0.12912,13.700000000000001,0.309888,-0.35777000000000003,13.600000000000001,-0.8586480000000001,-0.75051,13.5,-1.801224,-0.040350000000000004,13.4,-0.09684000000000001,-0.00538,13.4,-0.012912,-0.0,13.4,-0.0,0.00269,13.4,0.006456
4.523412192,0.13181,13.700000000000001,0.316344,-0.35777000000000003,13.5,-0.8586480000000001,-0.75051,13.5,-1.801224,-0.05111,13.4,-0.122664,-0.00538,13.4,-0.012912,-0.0,13.4,-0.0,0.00269,13.4,0.006456
4.557511997,0.13181,13.700000000000001,0.316344,-0.35508,13.600000000000001,-0.852192,-0.75051,13.4,-1.801224,-0.0538,13.4,-0.12911999999999998,-0.00538,13.4,-0.012912,-0.0,13.4,-0.0,0.00269,13.4,0.006456
4.590450548,0.12105,13.700000000000001,0.29052,-0.35777000000000003,13.600000000000001,-0.8586480000000001,-0.75051,13.4,-1.801224,-0.03766,13.4,-0.09038399999999999,-0.00807,13.4,-0.019368,-0.0,13.4,-0.0,0.00269,13.4,0.006456
4.623431064,0.12912,13.700000000000001,0.309888,-0.35777000000000003,13.600000000000001,-0.8586480000000001,-0.75051,13.4,-1.801224,-0.05111,13.4,-0.122664,-0.00538,13.4,-0.012912,-0.0,13.4,-0.0,-0.0,13.4,-0.0
4.657468751,0.12374,13.700000000000001,0.296976,-0.35777000000000003,13.5,-0.8586480000000001,-0.75051,13.5,-1.801224,-0.0538,13.4,-0.12911999999999998,-0.00538,13.4,-0.012912,-0.0,13.4,-0.0,-0.0,13.4,-0.0
4.69043743,0.12374,13.700000000000001,0.296976,-0.35239000000000004,13.600000000000001,-0.845736,-0.75051,13.4,-1.801224,-0.04573,13.4,-0.109752,-0.00269,13.4,-0.006456,-0.0,13.4,-0.0,0.00269,13.4,0.006456
4.723488533,0.12643000000000001,13.700000000000001,0.30343200000000004,-0.36046,13.600000000000001,-0.865104,-0.75051,13.5,-1.801224,-0.04573,13.4,-0.109752,-0.00538,13.4,-0.012912,-0.0,13.4,-0.0,-0.0,13.4,-0.0
4.757572492,0.12912,13.700000000000001,0.309888,-0.36046,13.600000000000001,-0.865104,-0.75051,13.5,-1.801224,-0.048420000000000005,13.4,-0.116208,-0.00538,13.4,-0.012912,-0.0,13.4,-0.0,0.00269,13.4,0.006456
4.79047836,0.12105,13.700000000000001,0.29052,-0.35777000000000003,13.600000000000001,-0.8586480000000001,-0.75051,13.4,-1.801224,-0.040350000000000004,13.4,-0.09684000000000001,-0.00538,13.4,-0.012912,-0.0,13.4,-0.0,-0.0,13.4,-0.0
4.823460792,0.12105,13.700000000000001,0.29052,-0.3497,13.600000000000001,-0.83928,-0.75051,13.5,-1.801224,-0.0538,13.4,-0.12911999999999998,-0.00538,13.4,-0.012912,-0.0,13.4,-0.0,0.00269,13.4,0.006456
4.857513064,0.14526,13.700000000000001,0.348624,-0.36046,13.600000000000001,-0.865104,-0.75051,13.5,-1.801224,-0.04573,13.4,-0.109752,-0.00269,13.4,-0.006456,-0.0,13.4,-0.0,0.00269,13.4,0.006456
4.890328603,0.13719,13.700000000000001,0.329256,-0.36046,13.600000000000001,-0.865104,-0.75051,13.5,-1.801224,-0.05111,13.4,-0.122664,-0.00538,13.4,-0.012912,-0.0,13.4,-0.0,-0.0,13.4,-0.0
4.924357854,0.15064,13.700000000000001,0.36153599999999997,-0.35777000000000003,13.600000000000001,-0.8586480000000001,-0.75051,13.5,-1.801224,-0.040350000000000004,13.4,-0.09684000000000001,-0.00807,13.4,-0.019368,-0.0,13.4,-0.0,-0.0,13.4,-0.0
4.95741531,0.14257,13.700000000000001,0.34216799999999997,-0.35777000000000003,13.600000000000001,-0.8586480000000001,-0.75051,13.4,-1.801224,-0.05111,13.4,-0.122664,-0.00538,13.4,-0.012912,-0.0,13.4,-0.0,-0.0,13.4,-0.0
4.990362873,0.13719,13.700000000000001,0.329256,-0.35777000000000003,13.600000000000001,-0.8586480000000001,-0.7532,13.5,-1.80768,-0.04573,13.4,-0.109752,0.0,13.4,0.0,-0.0,13.4,-0.0,-0.0,13.4,-0.0
5.024431824,0.14526,13.700000000000001,0.348624,-0.35777000000000003,13.600000000000001,-0.8586480000000001,-0.7558900000000001,13.5,-1.814136,-0.048420000000000005,13.5,-0.116208,-0.00538,13.4,-0.012912,-0.0,13.4,-0.0,0.00269,13.4,0.006456
5.05743137,0.13719,13.700000000000001,0.329256,-0.35777000000000003,13.600000000000001,-0.8586480000000001,-0.75051,13.4,-1.801224,-0.04304,13.4,-0.103296,-0.00807,13.4,-0.019368,-0.0,13.4,-0.0,0.00269,13.4,0.006456
5.090360374,0.13719,13.700000000000001,0.329256,-0.3497,13.600000000000001,-0.83928,-0.7532,13.5,-1.80768,-0.0538,13.4,-0.12911999999999998,-0.00538,13.4,-0.012912,-0.0,13.4,-0.0,0.00269,13.4,0.006456
5.124387765,0.13719,13.700000000000001,0.329256,-0.35777000000000003,13.5,-0.8586480000000001,-0.75051,13.5,-1.801224,-0.03766,13.4,-0.09038399999999999,-0.00807,13.4,-0.019368,-0.0,13.4,-0.0,-0.0,13.4,-0.0
5.157314527,0.14257,13.700000000000001,0.34216799999999997,-0.35777000000000003,13.600000000000001,-0.8586480000000001,-0.75051,13.5,-1.801224,-0.040350000000000004,13.4,-0.09684000000000001,-0.00807,13.4,-0.019368,-0.0,13.4,-0.0,-0.0,13.4,-0.0
5.190260173,0.13181,13.700000000000001,0.316344,-0.36046,13.600000000000001,-0.865104,-0.75051,13.5,-1.801224,-0.02959,13.4,-0.071016,-0.00269,13.4,-0.006456,-0.0,13.4,-0.0,0.00269,13.4,0.006456
5.225984967,0.12374,13.700000000000001,0.296976,-0.36046,13.600000000000001,-0.865104,-0.75051,13.4,-1.801224,-0.040350000000000004,13.4,-0.09684000000000001,-0.00538,13.4,-0.012912,-0.0,13.4,-0.0,0.00269,13.4,0.006456
5.257292199,0.13181,13.700000000000001,0.316344,-0.35239000000000004,13.600000000000001,-0.845736,-0.75051,13.5,-1.801224,-0.048420000000000005,13.4,-0.116208,0.0,13.4,0.0,-0.0,13.4,-0.0,-0.0,13.4,-0.0
5.291341474,0.12374,13.700000000000001,0.296976,-0.36046,13.600000000000001,-0.865104,-0.75051,13.4,-1.801224,-0.048420000000000005,13.4,-0.116208,-0.00538,13.4,-0.012912,-0.0,13.4,-0.0,-0.0,13.4,-0.0
5.324175155,0.12643000000000001,13.700000000000001,0.30343200000000004,-0.35777000000000003,13.600000000000001,-0.8586480000000001,-0.75051,13.4,-1.801224,-0.04573,13.4,-0.109752,-0.00269,13.4,-0.006456,-0.0,13.4,-0.0,0.00269,13.4,0.006456
5.357368373,0.12643000000000001,13.700000000000001,0.30343200000000004,-0.36046,13.600000000000001,-0.865104,-0.75051,13.5,-1.801224,-0.03228,13.4,-0.077472,-0.00269,13.4,-0.006456,-0.0,13.4,-0.0,-0.0,13.4,-0.0
5.390216336,0.12105,13.700000000000001,0.29052,-0.35777000000000003,13.600000000000001,-0.8586480000000001,-0.7532,13.4,-1.80768,-0.05918,13.4,-0.142032,-0.00807,13.4,-0.019368,-0.0,13.4,-0.0,0.00538,13.4,0.012912
5.424159454,0.12105,13.700000000000001,0.29052,-0.36046,13.600000000000001,-0.865104,-0.75051,13.5,-1.801224,-0.04573,13.4,-0.109752,0.0,13.4,0.0,-0.0,13.4,-0.0,0.00269,13.4,0.006456
5.457480833,0.12105,13.700000000000001,0.29052,-0.36046,13.5,-0.865104,-0.75051,13.4,-1.801224,-0.04304,13.4,-0.103296,-0.00269,13.4,-0.006456,-0.0,13.4,-0.0,0.00269,13.4,0.006456
5.490291136,0.12643000000000001,13.700000000000001,0.30343200000000004,-0.36046,13.600000000000001,-0.865104,-0.76127,13.4,-1.827048,-0.03766,13.4,-0.09038399999999999,0.0,13.4,0.0,-0.0,13.4,-0.0,-0.0,13.4,-0.0
5.524063158,0.12374,13.700000000000001,0.296976,-0.36046,13.600000000000001,-0.865104,-0.75051,13.4,-1.801224,-0.040350000000000004,13.4,-0.09684000000000001,-0.00269,13.4,-0.006456,-0.0,13.4,-0.0,-0.0,13.4,-0.0
5.557278657,0.12105,13.700000000000001,0.29052,-0.36046,13.600000000000001,-0.865104,-0.75051,13.5,-1.801224,-0.05918,13.4,-0.142032,-0.00538,13.4,-0.012912,-0.0,13.4,-0.0,-0.0,13.4,-0.0
5.590079406,0.12912,13.700000000000001,0.309888,-0.36046,13.600000000000001,-0.865104,-0.75051,13.5,-1.801224,-0.05111,13.4,-0.122664,-0.00269,13.4,-0.006456,-0.0,13.4,-0.0,0.00269,13.4,0.006456
5.624042862,0.12643000000000001,13.700000000000001,0.30343200000000004,-0.36046,13.600000000000001,-0.865104,-0.75051,13.5,-1.801224,-0.03766,13.4,-0.09038399999999999,0.0,13.4,0.0,-0.0,13.4,-0.0,-0.0,13.4,-0.0
5.657150064,0.12374,13.700000000000001,0.296976,-0.35777000000000003,13.600000000000001,-0.8586480000000001,-0.75051,13.5,-1.801224,-0.05918,13.4,-0.142032,0.0,13.4,0.0,-0.0,13.4,-0.0,-0.0,13.4,-0.0
5.690126282,0.12374,13.700000000000001,0.296976,-0.35508,13.600000000000001,-0.852192,-0.75051,13.5,-1.801224,-0.06187,13.4,-0.148488,-0.00538,13.4,-0.012912,-0.0,13.4,-0.0,-0.0,13.4,-0.0
5.724181628,0.12912,13.600000000000001,0.309888,-0.35777000000000003,13.600000000000001,-0.8586480000000001,-0.75051,13.4,-1.801224,-0.056490000000000005,13.4,-0.135576,-0.00538,13.4,-0.012912,-0.0,13.4,-0.0,0.00269,13.4,0.006456
5.757018069,0.13988,13.700000000000001,0.335712,-0.36046,13.600000000000001,-0.865104,-0.75051,13.4,-1.801224,-0.03766,13.4,-0.09038399999999999,-0.00538,13.4,-0.012912,-0.0,13.4,-0.0,-0.0,13.4,-0.0
5.790365833,0.12105,13.700000000000001,0.29052,-0.36046,13.600000000000001,-0.865104,-0.75051,13.4,-1.801224,-0.03497,13.4,-0.083928,-0.00538,13.4,-0.012912,-0.0,13.4,-0.0,0.00269,13.4,0.006456
5.823961619,0.12105,13.700000000000001,0.29052,-0.36046,13.600000000000001,-0.865104,-0.75051,13.5,-1.801224,-0.03228,13.4,-0.077472,-0.00538,13.4,-0.012912,-0.0,13.4,-0.0,0.00269,13.4,0.006456
5.857110902,0.13181,13.700000000000001,0.316344,-0.36046,13.600000000000001,-0.865104,-0.75051,13.4,-1.801224,-0.048420000000000005,13.4,-0.116208,-0.00269,13.4,-0.006456,-0.0,13.4,-0.0,0.00269,13.4,0.006456
5.889982439,0.12105,13.700000000000001,0.29052,-0.36046,13.5,-0.865104,-0.75051,13.5,-1.801224,-0.05111,13.4,-0.122664,0.0,13.4,0.0,-0.0,13.4,-0.0,-0.0,13.4,-0.0
5.923972835,0.12105,13.700000000000001,0.29052,-0.35777000000000003,13.600000000000001,-0.8586480000000001,-0.75051,13.4,-1.801224,-0.03766,13.4,-0.09038399999999999,-0.00807,13.4,-0.019368,-0.0,13.4,-0.0,0.00269,13.4,0.006456
5.957019029,0.13719,13.700000000000001,0.329256,-0.36046,13.600000000000001,-0.865104,-0.76127,13.4,-1.827048,-0.04573,13.4,-0.109752,-0.00538,13.4,-0.012912,-0.0,13.4,-0.0,0.00269,13.4,0.006456
5.991063032,0.12105,13.700000000000001,0.29052,-0.36046,13.600000000000001,-0.865104,-0.75051,13.5,-1.801224,-0.05918,13.4,-0.142032,-0.00538,13.4,-0.012912,-0.0,13.4,-0.0,-0.0,13.4,-0.0
6.02401352,0.12105,13.700000000000001,0.29052,-0.36046,13.600000000000001,-0.865104,-0.7532,13.4,-1.80768,-0.056490000000000005,13.4,-0.135576,-0.00269,13.4,-0.006456,-0.0,13.4,-0.0,0.00269,13.4,0.006456
6.057290546,0.12105,13.700000000000001,0.29052,-0.36046,13.600000000000001,-0.865104,-0.75051,13.5,-1.801224,-0.0538,13.4,-0.12911999999999998,0.0,13.4,0.0,-0.0,13.4,-0.0,-0.0,13.4,-0.0
6.090849395,0.13181,13.700000000000001,0.316344,-0.36046,13.600000000000001,-0.865104,-0.75051,13.5,-1.801224,-0.04573,13.4,-0.109752,-0.00538,13.4,-0.012912,-0.0,13.4,-0.0,-0.0,13.4,-0.0
6.124322173,0.12374,13.700000000000001,0.296976,-0.35508,13.600000000000001,-0.852192,-0.7532,13.5,-1.80768,-0.03766,13.4,-0.09038399999999999,-0.00538,13.4,-0.012912,-0.0,13.4,-0.0,0.00269,13.4,0.006456
6.157416493,0.12105,13.700000000000001,0.29052,-0.36046,13.600000000000001,-0.865104,-0.75051,13.4,-1.801224,-0.048420000000000005,13.4,-0.116208,-0.00538,13.4,-0.012912,-0.0,13.4,-0.0,-0.0,13.4,-0.0
6.191053871,0.12105,13.700000000000001,0.29052,-0.35508,13.600000000000001,-0.852192,-0.75051,13.5,-1.801224,-0.06994,13.4,-0.167856,0.0,13.4,0.0,-0.0,13.4,-0.0,-0.0,13.4,-0.0
6.22387005,0.12912,13.700000000000001,0.309888,-0.35777000000000003,13.600000000000001,-0.8586480000000001,-0.75051,13.4,-1.801224,-0.048420000000000005,13.4,-0.116208,-0.00807,13.4,-0.019368,-0.0,13.4,-0.0,-0.0,13.4,-0.0
6.256912773,0.12105,13.700000000000001,0.29052,-0.36046,13.600000000000001,-0.865104,-0.76127,13.5,-1.827048,-0.04573,13.4,-0.109752,-0.00538,13.4,-0.012912,-0.0,13.4,-0.0,0.00269,13.4,0.006456
6.290991058,0.12105,13.700000000000001,0.29052,-0.36046,13.600000000000001,-0.865104,-0.75051,13.4,-1.801224,-0.0538,13.4,-0.12911999999999998,-0.00538,13.4,-0.012912,-0.0,13.4,-0.0,-0.0,13.4,-0.0
6.323815505,0.12105,13.700000000000001,0.29052,-0.35777000000000003,13.600000000000001,-0.8586480000000001,-0.75051,13.4,-1.801224,-0.0538,13.5,-0.12911999999999998,-0.00538,13.4,-0.012912,-0.0,13.4,-0.0,-0.0,13.4,-0.0
6.356869201,0.12105,13.700000000000001,0.29052,-0.36046,13.600000000000001,-0.865104,-0.75051,13.5,-1.801224,-0.0538,13.4,-0.12911999999999998,-0.00269,13.4,-0.006456,-0.0,13.4,-0.0,0.00269,13.4,0.006456
6.390983059,0.12105,13.700000000000001,0.29052,-0.36046,13.600000000000001,-0.865104,-0.76127,13.5,-1.827048,-0.06187,13.4,-0.148488,0.0,13.4,0.0,-0.0,13.4,-0.0,0.00269,13.4,0.006456
6.424190306,0.12912,13.700000000000001,0.309888,-0.36046,13.600000000000001,-0.865104,-0.75051,13.5,-1.801224,-0.05918,13.4,-0.142032,0.0,13.4,0.0,-0.0,13.4,-0.0,0.00269,13.4,0.006456
6.456841153,0.12374,13.700000000000001,0.296976,-0.35508,13.600000000000001,-0.852192,-0.75051,13.4,-1.801224,-0.056490000000000005,13.4,-0.135576,-0.00269,13.4,-0.006456,-0.0,13.4,-0.0,0.00269,13.4,0.006456
6.491043193,0.12105,13.700000000000001,0.29052,-0.36046,13.600000000000001,-0.865104,-0.75051,13.4,-1.801224,-0.04304,13.4,-0.103296,-0.00538,13.4,-0.012912,-0.0,13.4,-0.0,0.00269,13.4,0.006456
6.524063698,0.12374,13.700000000000001,0.296976,-0.36046,13.600000000000001,-0.865104,-0.75051,13.4,-1.801224,-0.03497,13.4,-0.083928,0.0,13.4,0.0,-0.0,13.4,-0.0,0.00269,13.4,0.006456
6.557336506,0.13181,13.700000000000001,0.316344,-0.36046,13.600000000000001,-0.865104,-0.75051,13.4,-1.801224,-0.03497,13.4,-0.083928,-0.00269,13.4,-0.006456,-0.0,13.4,-0.0,0.00269,13.4,0.006456
6.591207238,0.12643000000000001,13.700000000000001,0.30343200000000004,-0.36046,13.5,-0.865104,-0.75051,13.5,-1.801224,-0.0538,13.4,-0.12911999999999998,0.0,13.4,0.0,-0.0,13.4,-0.0,0.00269,13.4,0.006456
6.6240301,0.12105,13.700000000000001,0.29052,-0.36046,13.600000000000001,-0.865104,-0.75051,13.4,-1.801224,-0.05111,13.4,-0.122664,0.0,13.4,0.0,-0.0,13.4,-0.0,-0.0,13.4,-0.0
6.65701073,0.12374,13.700000000000001,0.296976,-0.36046,13.5,-0.865104,-0.75051,13.5,-1.801224,-0.056490000000000005,13.4,-0.135576,0.0,13.4,0.0,-0.0,13.4,-0.0,-0.0,13.4,-0.0
6.690805108,0.12643000000000001,13.700000000000001,0.30343200000000004,-0.36046,13.600000000000001,-0.865104,-0.75051,13.5,-1.801224,-0.03497,13.4,-0.083928,-0.00538,13.4,-0.012912,-0.0,13.4,-0.0,0.00269,13.4,0.006456
6.723641212,0.12374,13.700000000000001,0.296976,-0.36046,13.600000000000001,-0.865104,-0.75051,13.5,-1.801224,-0.040350000000000004,13.4,-0.09684000000000001,0.0,13.4,0.0,-0.0,13.4,-0.0,-0.0,13.4,-0.0
6.75676159,0.12105,13.700000000000001,0.29052,-0.36046,13.600000000000001,-0.865104,-0.76127,13.5,-1.827048,-0.03497,13.4,-0.083928,-0.00269,13.4,-0.006456,-0.0,13.4,-0.0,0.00269,13.4,0.006456
6.790859396,0.13181,13.700000000000001,0.316344,-0.36046,13.600000000000001,-0.865104,-0.75051,13.5,-1.801224,-0.03228,13.4,-0.077472,0.0,13.4,0.0,-0.0,13.4,-0.0,-0.0,13.4,-0.0
6.823782225,0.12643000000000001,13.700000000000001,0.30343200000000004,-0.35239000000000004,13.600000000000001,-0.845736,-0.75051,13.4,-1.801224,-0.048420000000000005,13.4,-0.116208,0.0,13.4,0.0,-0.0,13.4,-0.0,0.00269,13.4,0.006456
6.857630496,0.12105,13.700000000000001,0.29052,-0.36046,13.600000000000001,-0.865104,-0.75051,13.5,-1.801224,-0.048420000000000005,13.4,-0.116208,0.0,13.4,0.0,-0.0,13.4,-0.0,-0.0,13.4,-0.0
6.89081742,0.12105,13.700000000000001,0.29052,-0.36046,13.600000000000001,-0.865104,-0.75051,13.4,-1.801224,-0.03766,13.4,-0.09038399999999999,-0.00269,13.4,-0.006456,-0.0,13.4,-0.0,-0.0,13.4,-0.0
6.923880425,0.12105,13.700000000000001,0.29052,-0.36046,13.600000000000001,-0.865104,-0.75051,13.5,-1.801224,-0.03766,13.4,-0.09038399999999999,0.0,13.4,0.0,-0.0,13.4,-0.0,-0.0,13.4,-0.0
6.957711825,0.12105,13.700000000000001,0.29052,-0.36046,13.5,-0.865104,-0.75051,13.5,-1.801224,-0.03766,13.4,-0.09038399999999999,0.0,13.4,0.0,-0.0,13.4,-0.0,0.00269,13.4,0.006456
6.991085185,0.12105,13.700000000000001,0.29052,-0.36046,13.600000000000001,-0.865104,-0.75051,13.4,-1.801224,-0.04304,13.4,-0.103296,-0.00269,13.4,-0.006456,-0.0,13.4,-0.0,-0.0,13.4,-0.0
7.024333667,0.12105,13.700000000000001,0.29052,-0.35777000000000003,13.600000000000001,-0.8586480000000001,-0.75051,13.4,-1.801224,-0.056490000000000005,13.4,-0.135576,0.0,13.4,0.0,-0.0,13.4,-0.0,0.00269,13.4,0.006456
7.058163364,0.12105,13.700000000000001,0.29052,-0.36046,13.600000000000001,-0.865104,-0.75051,13.4,-1.801224,-0.040350000000000004,13.4,-0.09684000000000001,0.0,13.4,0.0,-0.0,13.4,-0.0,-0.0,13.4,-0.0
7.091111749,0.12105,13.700000000000001,0.29052,-0.35508,13.5,-0.852192,-0.7558900000000001,13.4,-1.814136,-0.05918,13.4,-0.142032,-0.00269,13.4,-0.006456,-0.0,13.4,-0.0,-0.0,13.4,-0.0
7.124002126,0.1345,13.700000000000001,0.32280000000000003,-0.36046,13.600000000000001,-0.865104,-0.75051,13.5,-1.801224,-0.048420000000000005,13.4,-0.116208,-0.00538,13.4,-0.012912,-0.0,13.4,-0.0,0.00269,13.4,0.006456
7.157754672,0.12105,13.700000000000001,0.29052,-0.36046,13.600000000000001,-0.865104,-0.75051,13.4,-1.801224,-0.056490000000000005,13.4,-0.135576,0.0,13.4,0.0,-0.0,13.4,-0.0,0.00269,13.4,0.006456
7.190554499,0.12105,13.700000000000001,0.29052,-0.36046,13.600000000000001,-0.865104,-0.75051,13.5,-1.801224,-0.048420000000000005,13.4,-0.116208,-0.00269,13.4,-0.006456,-0.0,13.4,-0.0,-0.0,13.4,-0.0
7.223521724,0.12105,13.700000000000001,0.29052,-0.36046,13.600000000000001,-0.865104,-0.75051,13.4,-1.801224,-0.0538,13.4,-0.12911999999999998,0.0,13.4,0.0,-0.0,13.4,-0.0,0.00269,13.4,0.006456
7.257556239,0.12643000000000001,13.700000000000001,0.30343200000000004,-0.36046,13.600000000000001,-0.865104,-0.75051,13.5,-1.801224,-0.040350000000000004,13.4,-0.09684000000000001,-0.00269,13.4,-0.006456,-0.0,13.4,-0.0,0.00269,13.4,0.006456
7.290467442,0.12105,13.700000000000001,0.29052,-0.35777000000000003,13.600000000000001,-0.8586480000000001,-0.75051,13.5,-1.801224,-0.05111,13.4,-0.122664,-0.00269,13.4,-0.006456,-0.0,13.4,-0.0,0.00269,13.4,0.006456
7.323463532,0.12105,13.700000000000001,0.29052,-0.36046,13.600000000000001,-0.865104,-0.75051,13.4,-1.801224,-0.048420000000000005,13.4,-0.116208,-0.00807,13.4,-0.019368,-0.0,13.4,-0.0,0.00269,13.4,0.006456
7.35742395,0.12105,13.700000000000001,0.29052,-0.36046,13.600000000000001,-0.865104,-0.76127,13.5,-1.827048,-0.048420000000000005,13.4,-0.116208,0.0,13.4,0.0,-0.0,13.4,-0.0,0.00269,13.4,0.006456
7.39039749,0.12105,13.600000000000001,0.29052,-0.36046,13.600000000000001,-0.865104,-0.75051,13.4,-1.801224,-0.048420000000000005,13.4,-0.116208,-0.00538,13.4,-0.012912,-0.0,13.4,-0.0,0.00269,13.4,0.006456
7.423358887,0.12105,13.700000000000001,0.29052,-0.36046,13.600000000000001,-0.865104,-0.75051,13.5,-1.801224,-0.05111,13.4,-0.122664,-0.00269,13.4,-0.006456,-0.0,13.4,-0.0,-0.0,13.4,-0.0
7.457594289,0.040350000000000004,13.700000000000001,0.09684000000000001,-0.269,13.700000000000001,-0.6456000000000001,-0.29052,13.600000000000001,-0.697248,-0.040350000000000004,13.600000000000001,-0.09684000000000001,0.0,13.5,0.0,-0.0,13.600000000000001,-0.0,-0.0,13.5,-0.0
7.490590945,0.00269,13.700000000000001,0.006456,-0.31473,13.700000000000001,-0.755352,-0.30935,13.600000000000001,-0.74244,-0.06994,13.600000000000001,-0.167856,0.0,13.5,0.0,-0.0,13.600000000000001,-0.0,-0.0,13.600000000000001,-0.0
7.524588984,0.0,13.700000000000001,0.0,-0.32549,13.700000000000001,-0.781176,-0.32818,13.600000000000001,-0.787632,-0.048420000000000005,13.600000000000001,-0.116208,0.00807,13.5,0.019368,-0.0,13.600000000000001,-0.0,0.00269,13.600000000000001,0.006456
7.557751855,-0.01076,13.700000000000001,-0.025824,-0.43309000000000003,13.700000000000001,-1.0394160000000001,-0.40619,13.5,-0.974856,-0.040350000000000004,13.600000000000001,-0.09684000000000001,0.02152,13.5,0.051648,-0.0,13.600000000000001,-0.0,-0.0,13.600000000000001,-0.0
7.59046213,-0.056490000000000005,13.700000000000001,-0.135576,-0.47882,13.700000000000001,-1.149168,-0.55145,13.5,-1.32348,-0.05111,13.5,-0.122664,0.0,13.5,0.0,-0.0,13.5,-0.0,-0.0,13.5,-0.0
7.624768878,-0.07801000000000001,13.700000000000001,-0.18722400000000003,-0.47613,13.600000000000001,-1.142712,-0.64829,13.5,-1.555896,-0.05111,13.5,-0.122664,0.0,13.5,0.0,-0.0,13.5,-0.0,0.00269,13.5,0.006456
7.657763833,-0.11567000000000001,13.700000000000001,-0.277608,-0.36046,13.600000000000001,-0.865104,-0.71285,13.5,-1.71084,-0.05918,13.5,-0.142032,0.024210000000000002,13.5,0.058104,-0.0,13.5,-0.0,-0.0,13.5,-0.0
7.691008551,-0.16409,13.700000000000001,-0.393816,-0.39543,13.600000000000001,-0.949032,-0.6725,13.4,-1.6139999999999999,-0.03497,13.4,-0.083928,0.01614,13.4,0.038736,-0.0,13.5,-0.0,0.00269,13.5,0.006456
7.724524446,-0.19637000000000002,13.600000000000001,-0.47128800000000004,-0.34432,13.5,-0.826368,-0.63215,13.5,-1.5171599999999998,-0.05111,13.4,-0.122664,0.02152,13.4,0.051648,-0.0,13.4,-0.0,0.00269,13.4,0.006456
7.758041185,-0.20444,13.600000000000001,-0.490656,-0.36315000000000003,13.5,-0.87156,-0.70209,13.4,-1.6850159999999998,-0.02959,13.4,-0.071016,0.0,13.4,0.0,-0.0,13.4,-0.0,-0.0,13.4,-0.0
7.790504771,-0.20175,13.600000000000001,-0.4842,-0.38198000000000004,13.5,-0.916752,-0.7263000000000001,13.4,-1.74312,-0.03497,13.4,-0.083928,0.0269,13.4,0.06455999999999999,-0.0,13.4,-0.0,-0.0,13.4,-0.0
7.824745256,-0.22596000000000002,13.5,-0.542304,-0.41157,13.5,-0.987768,-0.7047800000000001,13.3,-1.691472,-0.04573,13.4,-0.109752,0.02152,13.3,0.051648,-0.0,13.4,-0.0,0.00269,13.4,0.006456
7.857450818,-0.22865000000000002,13.600000000000001,-0.54876,-0.38198000000000004,13.5,-0.916752,-0.69671,13.3,-1.672104,-0.03766,13.4,-0.09038399999999999,0.0269,13.3,0.06455999999999999,-0.0,13.3,-0.0,-0.0,13.3,-0.0
7.890534678,-0.23134000000000002,13.600000000000001,-0.555216,-0.40888,13.5,-0.981312,-0.6644300000000001,13.3,-1.594632,-0.04573,13.3,-0.109752,0.0269,13.3,0.06455999999999999,-0.0,13.3,-0.0,0.00269,13.3,0.006456
7.924456012,-0.20982,13.5,-0.503568,-0.41964,13.5,-1.007136,-0.65367,13.3,-1.568808,-0.0269,13.3,-0.06455999999999999,0.01614,13.3,0.038736,-0.0,13.3,-0.0,-0.0,13.3,-0.0
7.957894576,-0.21789,13.5,-0.522936,-0.36584,13.5,-0.878016,-0.65905,13.200000000000001,-1.58172,-0.0269,13.3,-0.06455999999999999,0.04573,13.3,0.109752,-0.0,13.3,-0.0,0.00269,13.3,0.006456
7.990655014,-0.2421,13.5,-0.58104,-0.46537,13.4,-1.1168879999999999,-0.6994,13.3,-1.67856,-0.03766,13.3,-0.09038399999999999,0.0269,13.200000000000001,0.06455999999999999,-0.0,13.3,-0.0,0.00269,13.3,0.006456
8.024562152,-0.25017,13.5,-0.6004079999999999,-0.45461,13.4,-1.091064,-0.68057,13.3,-1.633368,-0.0269,13.200000000000001,-0.06455999999999999,0.00538,13.200000000000001,0.012912,-0.0,13.200000000000001,-0.0,0.00269,13.200000000000001,0.006456
8.057996562,-0.27438,13.5,-0.658512,-0.5111,13.4,-1.22664,-0.6751900000000001,13.200000000000001,-1.6204560000000001,-0.048420000000000005,13.3,-0.116208,0.0538,13.200000000000001,0.12911999999999998,-0.0,13.200000000000001,-0.0,0.00269,13.200000000000001,0.006456
8.090674478,-0.31742000000000004,13.4,-0.761808,-0.43847,13.3,-1.052328,-0.7155400000000001,13.100000000000001,-1.7172960000000002,-0.02959,13.200000000000001,-0.071016,0.01614,13.200000000000001,0.038736,-0.0,13.200000000000001,-0.0,0.00269,13.200000000000001,0.006456
8.124546687,-0.30666,13.4,-0.735984,-0.48689000000000004,13.3,-1.168536,-0.65367,13.3,-1.568808,-0.02959,13.200000000000001,-0.071016,0.0269,13.200000000000001,0.06455999999999999,-0.0,13.200000000000001,-0.0,0.00269,13.200000000000001,0.006456
8.158119056,-0.32549,13.4,-0.781176,-0.44654,13.3,-1.071696,-0.6751900000000001,13.100000000000001,-1.6204560000000001,-0.04304,13.100000000000001,-0.103296,0.02959,13.100000000000001,0.071016,-0.0,13.100000000000001,-0.0,0.00269,13.100000000000001,0.006456
8.190755835,-0.33625,13.4,-0.8069999999999999,-0.47075,13.3,-1.1298,-0.6751900000000001,13.100000000000001,-1.6204560000000001,-0.03228,13.200000000000001,-0.077472,0.02959,13.100000000000001,0.071016,-0.0,13.100000000000001,-0.0,-0.0,13.200000000000001,-0.0
8.224749391,-0.34432,13.5,-0.826368,-0.5245500000000001,13.3,-1.25892,-0.62946,13.200000000000001,-1.510704,-0.03766,13.200000000000001,-0.09038399999999999,0.03228,13.100000000000001,0.077472,-0.0,13.100000000000001,-0.0,0.00269,13.100000000000001,0.006456
8.257779734,-0.32549,13.4,-0.781176,-0.53262,13.3,-1.2782879999999999,-0.66981,13.200000000000001,-1.607544,-0.03766,13.200000000000001,-0.09038399999999999,0.06187,13.100000000000001,0.148488,-0.0,13.100000000000001,-0.0,0.00269,13.100000000000001,0.006456
8.290074964,-0.28783000000000003,13.5,-0.6907920000000001,-0.54338,13.3,-1.304112,-0.6994,13.200000000000001,-1.67856,-0.02959,13.100000000000001,-0.071016,0.024210000000000002,13.100000000000001,0.058104,-0.0,13.100000000000001,-0.0,0.00269,13.200000000000001,0.006456
8.324215868,-0.27976,13.4,-0.671424,-0.5944900000000001,13.4,-1.426776,-0.7047800000000001,13.100000000000001,-1.691472,-0.03766,13.200000000000001,-0.09038399999999999,0.03497,13.200000000000001,0.083928,-0.0,13.200000000000001,-0.0,0.00269,13.200000000000001,0.006456
8.358213622,-0.2959,13.5,-0.71016,-0.5649000000000001,13.3,-1.35576,-0.66174,13.3,-1.588176,-0.0269,13.100000000000001,-0.06455999999999999,0.03228,13.200000000000001,0.077472,-0.0,13.100000000000001,-0.0,-0.0,13.200000000000001,-0.0
8.390883258,-0.30666,13.4,-0.735984,-0.56759,13.4,-1.362216,-0.6859500000000001,13.200000000000001,-1.6462800000000002,-0.0269,13.200000000000001,-0.06455999999999999,0.03228,13.200000000000001,0.077472,-0.0,13.200000000000001,-0.0,0.00269,13.200000000000001,0.006456
8.424524513,-0.28514,13.5,-0.6843359999999999,-0.58104,13.3,-1.394496,-0.6187,13.3,-1.48488,-0.0269,13.3,-0.06455999999999999,0.01345,13.200000000000001,0.032279999999999996,-0.0,13.200000000000001,-0.0,0.00269,13.200000000000001,0.006456
8.457421125,-0.30935,13.5,-0.74244,-0.54607,13.4,-1.3105680000000002,-0.6940200000000001,13.200000000000001,-1.6656480000000002,-0.024210000000000002,13.3,-0.058104,0.03766,13.200000000000001,0.09038399999999999,-0.0,13.200000000000001,-0.0,-0.0,13.200000000000001,-0.0
8.490681046,-0.28245000000000003,13.5,-0.67788,-0.54069,13.3,-1.297656,-0.66712,13.3,-1.601088,-0.0269,13.3,-0.06455999999999999,0.02152,13.200000000000001,0.051648,-0.0,13.200000000000001,-0.0,-0.0,13.200000000000001,-0.0
8.524253344,-0.29321,13.5,-0.703704,-0.52993,13.4,-1.271832,-0.66712,13.3,-1.601088,-0.0269,13.3,-0.06455999999999999,0.01883,13.3,0.045191999999999996,-0.0,13.200000000000001,-0.0,-0.0,13.3,-0.0
8.55741732,-0.2959,13.600000000000001,-0.71016,-0.538,13.5,-1.2912000000000001,-0.72899,13.3,-1.749576,-0.0269,13.3,-0.06455999999999999,0.01883,13.3,0.045191999999999996,-0.0,13.3,-0.0,-0.0,13.3,-0.0
8.590530478,-0.28245000000000003,13.600000000000001,-0.67788,-0.5541400000000001,13.4,-1.3299360000000002,-0.66174,13.4,-1.588176,-0.0269,13.3,-0.06455999999999999,0.0269,13.3,0.06455999999999999,-0.0,13.3,-0.0,0.00269,13.3,0.006456
8.624695615,-0.29321,13.5,-0.703704,-0.58373,13.4,-1.400952,-0.70747,13.4,-1.697928,-0.0269,13.3,-0.06455999999999999,0.01076,13.3,0.025824,-0.0,13.3,-0.0,0.00269,13.3,0.006456
8.657857176,-0.27976,13.600000000000001,-0.671424,-0.54876,13.5,-1.317024,-0.7047800000000001,13.3,-1.691472,-0.0269,13.3,-0.06455999999999999,0.00269,13.3,0.006456,-0.0,13.3,-0.0,-0.0,13.3,-0.0
8.691071186,-0.29859,13.600000000000001,-0.716616,-0.65636,13.5,-1.575264,-0.65636,13.3,-1.575264,-0.02959,13.4,-0.071016,0.01883,13.3,0.045191999999999996,-0.0,13.3,-0.0,-0.0,13.3,-0.0
8.724201127,-0.29052,13.700000000000001,-0.697248,-0.65098,13.5,-1.562352,-0.65367,13.3,-1.568808,-0.0269,13.3,-0.06455999999999999,0.00538,13.3,0.012912,-0.0,13.4,-0.0,0.00269,13.3,0.006456
8.756907721,-0.269,13.5,-0.6456000000000001,-0.62946,13.5,-1.510704,-0.66712,13.4,-1.601088,-0.0269,13.4,-0.06455999999999999,0.01883,13.3,0.045191999999999996,-0.0,13.4,-0.0,0.00269,13.4,0.006456
8.791073955,-0.25824,13.600000000000001,-0.619776,-0.6187,13.5,-1.48488,-0.67788,13.4,-1.6269120000000001,-0.0269,13.4,-0.06455999999999999,0.01614,13.3,0.038736,-0.0,13.4,-0.0,0.00269,13.4,0.006456
8.824674051,-0.26631,13.600000000000001,-0.6391439999999999,-0.62139,13.5,-1.491336,-0.6751900000000001,13.4,-1.6204560000000001,-0.0269,13.4,-0.06455999999999999,0.00538,13.3,0.012912,-0.0,13.4,-0.0,0.00269,13.4,0.006456
8.85768148,-0.25286000000000003,13.600000000000001,-0.6068640000000001,-0.6052500000000001,13.5,-1.4526000000000001,-0.64291,13.4,-1.542984,-0.0269,13.4,-0.06455999999999999,0.00269,13.3,0.006456,-0.0,13.4,-0.0,0.00269,13.4,0.006456
8.891093168,-0.24479,13.600000000000001,-0.587496,-0.62946,13.5,-1.510704,-0.64829,13.4,-1.555896,-0.0269,13.4,-0.06455999999999999,0.00269,13.4,0.006456,-0.0,13.4,-0.0,0.00269,13.4,0.006456
8.924079047,-0.25555,13.600000000000001,-0.61332,-0.65098,13.5,-1.562352,-0.6994,13.4,-1.67856,-0.0269,13.4,-0.06455999999999999,0.01345,13.4,0.032279999999999996,-0.0,13.4,-0.0,-0.0,13.4,-0.0
8.956865684,-0.24479,13.600000000000001,-0.587496,-0.5944900000000001,13.5,-1.426776,-0.68864,13.4,-1.652736,-0.0269,13.4,-0.06455999999999999,0.0,13.4,0.0,-0.0,13.4,-0.0,0.00269,13.4,0.006456
8.990895143,-0.24479,13.600000000000001,-0.587496,-0.58911,13.5,-1.413864,-0.73706,13.4,-1.768944,-0.0269,13.4,-0.06455999999999999,0.0,13.4,0.0,-0.0,13.4,-0.0,0.00269,13.4,0.006456
9.023845058,-0.24479,13.600000000000001,-0.587496,-0.5918,13.5,-1.42032,-0.75051,13.5,-1.801224,-0.02959,13.4,-0.071016,0.0,13.4,0.0,-0.0,13.4,-0.0,0.00269,13.4,0.006456
9.056810525,-0.25824,13.600000000000001,-0.619776,-0.60256,13.5,-1.4461439999999999,-0.7451300000000001,13.5,-1.7883120000000001,-0.0269,13.4,-0.06455999999999999,0.0,13.4,0.0,-0.0,13.4,-0.0,0.00269,13.4,0.006456
9.090811517,-0.269,13.600000000000001,-0.6456000000000001,-0.59987,13.5,-1.439688,-0.74782,13.5,-1.7947680000000001,-0.0269,13.4,-0.06455999999999999,0.0,13.4,0.0,-0.0,13.4,-0.0,0.00269,13.4,0.006456
9.124287753,-0.27169,13.600000000000001,-0.652056,-0.60256,13.5,-1.4461439999999999,-0.75051,13.4,-1.801224,-0.02959,13.4,-0.071016,0.0,13.4,0.0,-0.0,13.4,-0.0,-0.0,13.4,-0.0
9.156772447,-0.26631,13.600000000000001,-0.6391439999999999,-0.6052500000000001,13.5,-1.4526000000000001,-0.74782,13.5,-1.7947680000000001,-0.040350000000000004,13.4,-0.09684000000000001,0.0,13.4,0.0,-0.0,13.4,-0.0,0.00269,13.4,0.006456
9.190788466,-0.27438,13.600000000000001,-0.658512,-0.6052500000000001,13.5,-1.4526000000000001,-0.75858,13.4,-1.820592,-0.0269,13.4,-0.06455999999999999,0.0,13.4,0.0,-0.0,13.4,-0.0,0.00269,13.4,0.006456
9.223747594,-0.08608,13.700000000000001,-0.206592,-0.42233000000000004,13.700000000000001,-1.013592,-0.30397,13.600000000000001,-0.7295280000000001,-0.02959,13.5,-0.071016,-0.00538,13.5,-0.012912,-0.0,13.5,-0.0,0.00269,13.600000000000001,0.006456
9.257092757,-0.056490000000000005,13.700000000000001,-0.135576,-0.44654,13.700000000000001,-1.071696,-0.28514,13.600000000000001,-0.6843359999999999,-0.0269,13.5,-0.06455999999999999,-0.00807,13.5,-0.019368,-0.0,13.600000000000001,-0.0,0.00269,13.600000000000001,0.006456
9.291791753,-0.00538,13.700000000000001,-0.012912,-0.51379,13.700000000000001,-1.233096,-0.31473,13.600000000000001,-0.755352,-0.06725,13.5,-0.16140000000000002,-0.01614,13.5,-0.038736,-0.0,13.600000000000001,-0.0,0.00269,13.600000000000001,0.006456
9.323736631,0.00807,13.700000000000001,0.019368,-0.67788,13.600000000000001,-1.6269120000000001,-0.36584,13.5,-0.878016,-0.07532,13.5,-0.18076799999999998,-0.01076,13.5,-0.025824,-0.0,13.600000000000001,-0.0,0.00269,13.600000000000001,0.006456
9.356784365,0.03766,13.700000000000001,0.09038399999999999,-0.7047800000000001,13.600000000000001,-1.691472,-0.45192000000000004,13.5,-1.084608,-0.08070000000000001,13.5,-0.19368000000000002,-0.01076,13.5,-0.025824,-0.0,13.5,-0.0,-0.0,13.4,-0.0
9.391469575,0.048420000000000005,13.700000000000001,0.116208,-0.6940200000000001,13.600000000000001,-1.6656480000000002,-0.42502,13.4,-1.020048,-0.09146,13.5,-0.219504,0.0,13.5,0.0,-0.0,13.5,-0.0,-0.0,13.4,-0.0
9.424066466,0.13719,13.700000000000001,0.329256,-0.71285,13.600000000000001,-1.71084,-0.34163,13.5,-0.819912,-0.06994,13.5,-0.167856,-0.01883,13.5,-0.045191999999999996,-0.0,13.5,-0.0,0.00269,13.4,0.006456
9.458387408,0.2152,13.700000000000001,0.5164799999999999,-0.73706,13.5,-1.768944,-0.30128,13.5,-0.7230719999999999,-0.08877,13.5,-0.213048,0.0,13.4,0.0,-0.0,13.5,-0.0,0.00269,13.4,0.006456
9.490989897,0.33894,13.700000000000001,0.8134560000000001,-0.78279,13.5,-1.878696,-0.25824,13.4,-0.619776,-0.08339,13.5,-0.200136,-0.00269,13.4,-0.006456,-0.0,13.5,-0.0,-0.0,13.4,-0.0
9.523975509,0.41964,13.600000000000001,1.007136,-0.8339000000000001,13.5,-2.00136,-0.2959,13.4,-0.71016,-0.07263,13.5,-0.174312,-0.01345,13.4,-0.032279999999999996,-0.0,13.4,-0.0,-0.0,13.4,-0.0
9.558259482,0.51379,13.700000000000001,1.233096,-0.87963,13.5,-2.111112,-0.41695000000000004,13.4,-1.00068,-0.08608,13.4,-0.206592,-0.01883,13.4,-0.045191999999999996,-0.0,13.4,-0.0,-0.0,13.4,-0.0
9.59128013,0.55683,13.5,1.336392,-0.92267,13.5,-2.2144079999999997,-0.4304,13.4,-1.0329599999999999,-0.09415,13.4,-0.22596,-0.00807,13.3,-0.019368,-0.0,13.4,-0.0,0.00269,13.3,0.006456
9.623550586,0.5245500000000001,13.5,1.25892,-0.97109,13.4,-2.330616,-0.4035,13.3,-0.9684,-0.09415,13.3,-0.22596,-0.01883,13.3,-0.045191999999999996,-0.0,13.3,-0.0,-0.0,13.3,-0.0
9.657984435,0.48151,13.5,1.155624,-1.03296,13.4,-2.479104,-0.28783000000000003,13.3,-0.6907920000000001,-0.10222,13.200000000000001,-0.245328,-0.01614,13.3,-0.038736,-0.0,13.3,-0.0,0.00269,13.3,0.006456
9.690804257,0.41964,13.3,1.007136,-1.06793,13.3,-2.563032,-0.269,13.3,-0.6456000000000001,-0.09953000000000001,13.3,-0.238872,-0.02959,13.200000000000001,-0.071016,-0.0,13.3,-0.0,-0.0,13.3,-0.0
9.724015912,0.38736000000000004,13.5,0.929664,-1.14863,13.4,-2.756712,-0.27976,13.3,-0.671424,-0.11298000000000001,13.200000000000001,-0.271152,-0.01076,13.200000000000001,-0.025824,-0.0,13.200000000000001,-0.0,0.00269,13.200000000000001,0.006456
9.757953636,0.41426,13.4,0.994224,-1.23471,13.3,-2.963304,-0.30128,13.200000000000001,-0.7230719999999999,-0.08339,13.200000000000001,-0.200136,-0.01614,13.100000000000001,-0.038736,-0.0,13.200000000000001,-0.0,0.00269,13.200000000000001,0.006456
9.790874873,0.40619,13.4,0.974856,-1.31003,13.100000000000001,-3.144072,-0.31473,13.100000000000001,-0.755352,-0.11836,13.100000000000001,-0.284064,-0.03228,13.100000000000001,-0.077472,-0.0,13.100000000000001,-0.0,0.00269,13.100000000000001,0.006456
9.824007929,0.43309000000000003,13.4,1.0394160000000001,-1.36652,13.3,-3.279648,-0.31473,13.200000000000001,-0.755352,-0.10222,13.100000000000001,-0.245328,-0.04304,13.100000000000001,-0.103296,-0.0,13.100000000000001,-0.0,0.00269,13.100000000000001,0.006456
9.85778546,0.43847,13.3,1.052328,-1.43377,13.200000000000001,-3.441048,-0.31742000000000004,13.100000000000001,-0.761808,-0.09953000000000001,13.100000000000001,-0.238872,-0.03497,13.0,-0.083928,-0.0,13.100000000000001,-0.0,0.00269,13.0,0.006456
9.890736357,0.48151,13.4,1.155624,-1.5279200000000002,13.100000000000001,-3.667008,-0.32549,13.100000000000001,-0.781176,-0.11836,13.0,-0.284064,-0.04573,13.0,-0.109752,-0.0,13.0,-0.0,0.00269,13.0,0.006456
9.923831575,0.49765000000000004,13.3,1.19436,-1.4095600000000001,13.100000000000001,-3.382944,-0.31742000000000004,13.100000000000001,-0.761808,-0.12105,13.0,-0.29052,-0.03497,13.0,-0.083928,-0.0,13.0,-0.0,-0.0,13.0,-0.0
9.957457953,0.47613,13.4,1.142712,-1.36114,13.0,-3.266736,-0.35239000000000004,13.100000000000001,-0.845736,-0.10222,13.0,-0.245328,-0.03228,12.9,-0.077472,-0.0,12.9,-0.0,-0.0,13.0,-0.0
9.991598973,0.47613,13.3,1.142712,-1.36114,13.200000000000001,-3.266736,-0.36046,13.0,-0.865104,-0.12374,13.0,-0.296976,-0.040350000000000004,12.9,-0.09684000000000001,-0.0,13.0,-0.0,0.00269,13.0,0.006456
10.024347741,0.45192000000000004,13.200000000000001,1.084608,-1.22395,13.0,-2.9374800000000003,-0.32549,13.100000000000001,-0.781176,-0.09953000000000001,13.100000000000001,-0.238872,-0.02959,13.0,-0.071016,-0.0,13.0,-0.0,0.00269,13.0,0.006456
10.057859965,0.42502,13.3,1.020048,-1.2481600000000002,13.200000000000001,-2.9955840000000005,-0.3766,13.0,-0.90384,-0.11029,13.100000000000001,-0.264696,-0.01345,13.0,-0.032279999999999996,-0.0,13.0,-0.0,0.00269,13.0,0.006456
10.090420124,0.39005,13.200000000000001,0.93612,-1.12442,13.100000000000001,-2.6986079999999997,-0.34163,13.100000000000001,-0.819912,-0.10491,13.100000000000001,-0.251784,-0.01883,13.0,-0.045191999999999996,-0.0,13.100000000000001,-0.0,-0.0,13.100000000000001,-0.0
10.125244056,0.32011,13.3,0.768264,-1.21588,13.3,-2.9181120000000003,-0.33087,13.0,-0.794088,-0.11298000000000001,13.100000000000001,-0.271152,-0.02152,13.100000000000001,-0.051648,-0.0,13.100000000000001,-0.0,0.00269,13.100000000000001,0.006456
10.157473229,0.31204000000000004,13.5,0.7488960000000001,-1.1809100000000001,13.200000000000001,-2.834184,-0.29321,13.200000000000001,-0.703704,-0.09415,13.200000000000001,-0.22596,-0.024210000000000002,13.100000000000001,-0.058104,-0.0,13.200000000000001,-0.0,-0.0,13.100000000000001,-0.0
10.190478812,0.28245000000000003,13.4,0.67788,-1.19436,13.3,-2.866464,-0.32011,13.100000000000001,-0.768264,-0.09953000000000001,13.200000000000001,-0.238872,-0.0269,13.100000000000001,-0.06455999999999999,-0.0,13.100000000000001,-0.0,0.00269,13.100000000000001,0.006456
10.22502458,0.25017,13.4,0.6004079999999999,-1.26699,13.4,-3.040776,-0.32549,13.200000000000001,-0.781176,-0.10491,13.200000000000001,-0.251784,-0.00538,13.100000000000001,-0.012912,-0.0,13.200000000000001,-0.0,0.00269,13.200000000000001,0.006456
10.25730275,0.29052,13.4,0.697248,-1.1889800000000001,13.4,-2.853552,-0.31204000000000004,13.3,-0.7488960000000001,-0.09146,13.200000000000001,-0.219504,-0.02152,13.200000000000001,-0.051648,-0.0,13.200000000000001,-0.0,0.00269,13.200000000000001,0.006456
10.290321472,0.269,13.5,0.6456000000000001,-1.24547,13.4,-2.989128,-0.32549,13.200000000000001,-0.781176,-0.1076,13.200000000000001,-0.25823999999999997,-0.01883,13.200000000000001,-0.045191999999999996,-0.0,13.200000000000001,-0.0,0.00269,13.200000000000001,0.006456
10.324377121,0.28783000000000003,13.4,0.6907920000000001,-1.27237,13.3,-3.0536879999999997,-0.31473,13.3,-0.755352,-0.11029,13.200000000000001,-0.264696,-0.01076,13.200000000000001,-0.025824,-0.0,13.200000000000001,-0.0,0.00269,13.200000000000001,0.006456
10.358000239,0.30397,13.5,0.7295280000000001,-1.19974,13.3,-2.879376,-0.30666,13.3,-0.735984,-0.08877,13.200000000000001,-0.213048,-0.02152,13.200000000000001,-0.051648,-0.0,13.200000000000001,-0.0,0.00269,13.200000000000001,0.006456
10.390270621,0.30397,13.5,0.7295280000000001,-1.21588,13.3,-2.9181120000000003,-0.43847,13.3,-1.052328,-0.09146,13.3,-0.219504,-0.00538,13.200000000000001,-0.012912,-0.0,13.200000000000001,-0.0,-0.0,13.200000000000001,-0.0
10.424271984,0.27707000000000004,13.5,0.6649680000000001,-1.2374,13.4,-2.96976,-0.37122,13.3,-0.8909279999999999,-0.09415,13.200000000000001,-0.22596,-0.00269,13.200000000000001,-0.006456,-0.0,13.200000000000001,-0.0,0.00269,13.200000000000001,0.006456
10.457160347,0.27976,13.4,0.671424,-1.345,13.3,-3.2279999999999998,-0.36046,13.3,-0.865104,-0.08877,13.200000000000001,-0.213048,-0.01345,13.200000000000001,-0.032279999999999996,-0.0,13.200000000000001,-0.0,0.00269,13.200000000000001,0.006456
10.490218996,0.24479,13.5,0.587496,-1.2400900000000001,13.4,-2.9762160000000004,-0.35239000000000004,13.3,-0.845736,-0.09146,13.200000000000001,-0.219504,-0.00538,13.200000000000001,-0.012912,-0.0,13.200000000000001,-0.0,-0.0,13.200000000000001,-0.0
10.524458336,0.22327,13.5,0.535848,-1.22395,13.3,-2.9374800000000003,-0.37391,13.3,-0.8973840000000001,-0.06725,13.3,-0.16140000000000002,-0.01614,13.200000000000001,-0.038736,-0.0,13.3,-0.0,0.00269,13.200000000000001,0.006456
10.557510703,0.23672,13.5,0.568128,-1.19974,13.4,-2.879376,-0.36046,13.3,-0.865104,-0.07801000000000001,13.3,-0.18722400000000003,0.00538,13.200000000000001,0.012912,-0.0,13.3,-0.0,0.00269,13.200000000000001,0.006456
10.590474473,0.21251,13.5,0.510024,-1.20781,13.3,-2.898744,-0.34432,13.3,-0.826368,-0.07532,13.3,-0.18076799999999998,-0.01614,13.200000000000001,-0.038736,-0.0,13.3,-0.0,-0.0,13.3,-0.0
10.624353989,0.22865000000000002,13.5,0.54876,-1.22664,13.4,-2.943936,-0.3766,13.3,-0.90384,-0.06725,13.3,-0.16140000000000002,0.0,13.3,0.0,-0.0,13.3,-0.0,0.00269,13.3,0.006456
10.657456001,0.21789,13.600000000000001,0.522936,-1.17822,13.5,-2.827728,-0.29052,13.3,-0.697248,-0.08339,13.3,-0.200136,-0.00807,13.3,-0.019368,-0.0,13.3,-0.0,0.00269,13.3,0.006456
10.690690563,0.20175,13.5,0.4842,-1.2185700000000002,13.4,-2.9245680000000003,-0.31204000000000004,13.3,-0.7488960000000001,-0.05111,13.3,-0.122664,0.0,13.3,0.0,-0.0,13.3,-0.0,-0.0,13.3,-0.0
10.724371262,0.19637000000000002,13.5,0.47128800000000004,-1.2320200000000001,13.4,-2.9568480000000004,-0.31473,13.3,-0.755352,-0.08339,13.3,-0.200136,-0.00538,13.3,-0.012912,-0.0,13.3,-0.0,-0.0,13.3,-0.0
10.757829512,0.20444,13.600000000000001,0.490656,-1.2481600000000002,13.4,-2.9955840000000005,-0.35777000000000003,13.3,-0.8586480000000001,-0.06994,13.3,-0.167856,0.0,13.3,0.0,-0.0,13.3,-0.0,0.00269,13.3,0.006456
10.790415699,0.20444,13.600000000000001,0.490656,-1.25354,13.3,-3.008496,-0.3497,13.3,-0.83928,-0.06994,13.3,-0.167856,0.0,13.3,0.0,-0.0,13.3,-0.0,-0.0,13.3,-0.0
10.824426588,0.21251,13.5,0.510024,-1.25354,13.4,-3.008496,-0.36853,13.3,-0.884472,-0.07263,13.3,-0.174312,0.0,13.3,0.0,-0.0,13.3,-0.0,-0.0,13.3,-0.0
10.857424036,0.21251,13.600000000000001,0.510024,-1.25354,13.5,-3.008496,-0.34432,13.3,-0.826368,-0.08339,13.3,-0.200136,0.0,13.3,0.0,-0.0,13.3,-0.0,-0.0,13.3,-0.0
10.890653008,0.21789,13.600000000000001,0.522936,-1.2481600000000002,13.4,-2.9955840000000005,-0.33625,13.4,-0.8069999999999999,-0.07263,13.3,-0.174312,0.0,13.3,0.0,-0.0,13.3,-0.0,-0.0,13.3,-0.0
10.924364467,0.22058,13.600000000000001,0.529392,-1.25085,13.5,-3.00204,-0.35508,13.3,-0.852192,-0.08070000000000001,13.3,-0.19368000000000002,-0.00269,13.3,-0.006456,-0.0,13.3,-0.0,0.00269,13.3,0.006456
10.957341762,0.22327,13.600000000000001,0.535848,-1.25354,13.3,-3.008496,-0.34163,13.3,-0.819912,-0.07801000000000001,13.3,-0.18722400000000003,-0.00538,13.3,-0.012912,-0.0,13.3,-0.0,-0.0,13.3,-0.0
10.990229337,0.22058,13.600000000000001,0.529392,-1.25354,13.4,-3.008496,-0.34701000000000004,13.3,-0.8328240000000001,-0.08070000000000001,13.3,-0.19368000000000002,-0.00538,13.3,-0.012912,-0.0,13.3,-0.0,0.00269,13.3,0.006456
11.024411055,0.22058,13.5,0.529392,-1.2481600000000002,13.3,-2.9955840000000005,-0.35239000000000004,13.3,-0.845736,-0.08339,13.3,-0.200136,-0.00807,13.3,-0.019368,-0.0,13.3,-0.0,0.00269,13.3,0.006456
11.057282653,0.22058,13.600000000000001,0.529392,-1.25623,13.4,-3.0149519999999996,-0.35239000000000004,13.3,-0.845736,-0.08339,13.3,-0.200136,-0.00269,13.3,-0.006456,-0.0,13.3,-0.0,-0.0,13.3,-0.0
11.091517319,0.22058,13.600000000000001,0.529392,-1.25354,13.3,-3.008496,-0.3497,13.3,-0.83928,-0.08339,13.3,-0.200136,-0.00269,13.3,-0.006456,-0.0,13.3,-0.0,-0.0,13.3,-0.0
11.124667494,0.22058,13.600000000000001,0.529392,-1.25354,13.4,-3.008496,-0.33894,13.3,-0.8134560000000001,-0.08339,13.3,-0.200136,-0.00538,13.3,-0.012912,-0.0,13.3,-0.0,0.00269,13.3,0.006456
11.157485044,0.22058,13.5,0.529392,-1.25085,13.4,-3.00204,-0.35508,13.4,-0.852192,-0.08339,13.3,-0.200136,-0.00269,13.3,-0.006456,-0.0,13.3,-0.0,0.00269,13.3,0.006456
11.19165758,0.22058,13.600000000000001,0.529392,-1.25354,13.5,-3.008496,-0.3497,13.3,-0.83928,-0.08070000000000001,13.3,-0.19368000000000002,-0.00269,13.3,-0.006456,-0.0,13.3,-0.0,-0.0,13.3,-0.0
11.224458331,0.22327,13.600000000000001,0.535848,-1.25354,13.4,-3.008496,-0.35239000000000004,13.3,-0.845736,-0.08070000000000001,13.3,-0.19368000000000002,-0.00269,13.3,-0.006456,-0.0,13.3,-0.0,0.00269,13.3,0.006456
11.257371683,0.22058,13.600000000000001,0.529392,-1.25623,13.4,-3.0149519999999996,-0.35508,13.3,-0.852192,-0.08339,13.3,-0.200136,-0.00538,13.3,-0.012912,-0.0,13.3,-0.0,-0.0,13.3,-0.0
11.291303202,0.22327,13.600000000000001,0.535848,-1.25623,13.5,-3.0149519999999996,-0.34701000000000004,13.3,-0.8328240000000001,-0.08339,13.3,-0.200136,-0.00538,13.3,-0.012912,-0.0,13.3,-0.0,0.00269,13.3,0.006456
11.324284619,0.22058,13.600000000000001,0.529392,-1.25085,13.4,-3.00204,-0.35508,13.3,-0.852192,-0.08339,13.3,-0.200136,-0.00538,13.3,-0.012912,-0.0,13.3,-0.0,-0.0,13.3,-0.0
11.357185934,0.22058,13.5,0.529392,-1.2481600000000002,13.4,-2.9955840000000005,-0.35508,13.3,-0.852192,-0.08339,13.3,-0.200136,-0.00269,13.3,-0.006456,-0.0,13.3,-0.0,0.00269,13.3,0.006456
11.391219187,0.22327,13.600000000000001,0.535848,-1.25623,13.4,-3.0149519999999996,-0.35508,13.3,-0.852192,-0.08608,13.3,-0.206592,-0.00538,13.3,-0.012912,-0.0,13.3,-0.0,0.00269,13.3,0.006456
11.424002001,0.22327,13.5,0.535848,-1.25354,13.4,-3.008496,-0.34432,13.3,-0.826368,-0.08339,13.3,-0.200136,-0.00538,13.3,-0.012912,-0.0,13.3,-0.0,0.00269,13.3,0.006456
11.457111261,0.22058,13.5,0.529392,-1.25354,13.3,-3.008496,-0.35508,13.3,-0.852192,-0.08339,13.3,-0.200136,-0.00269,13.3,-0.006456,-0.0,13.3,-0.0,0.00269,13.3,0.006456
11.49086973,0.22058,13.600000000000001,0.529392,-1.25354,13.5,-3.008496,-0.35508,13.3,-0.852192,-0.08339,13.3,-0.200136,-0.00269,13.3,-0.006456,-0.0,13.3,-0.0,0.00269,13.3,0.006456
11.523843678,0.22327,13.600000000000001,0.535848,-1.2481600000000002,13.4,-2.9955840000000005,-0.3497,13.3,-0.83928,-0.08339,13.3,-0.200136,-0.00269,13.3,-0.006456,-0.0,13.3,-0.0,-0.0,13.3,-0.0
11.556873605,0.22058,13.600000000000001,0.529392,-1.25354,13.4,-3.008496,-0.35239000000000004,13.3,-0.845736,-0.08339,13.3,-0.200136,-0.00269,13.3,-0.006456,-0.0,13.3,-0.0,-0.0,13.3,-0.0
11.590936953,0.22058,13.5,0.529392,-1.25623,13.5,-3.0149519999999996,-0.35508,13.3,-0.852192,-0.08877,13.3,-0.213048,0.0,13.3,0.0,-0.0,13.3,-0.0,0.00269,13.3,0.006456
11.624032421,0.22058,13.5,0.529392,-1.2481600000000002,13.5,-2.9955840000000005,-0.34432,13.3,-0.826368,-0.08339,13.3,-0.200136,0.0,13.3,0.0,-0.0,13.3,-0.0,0.00269,13.3,0.006456
11.657125466,0.22058,13.600000000000001,0.529392,-1.25623,13.3,-3.0149519999999996,-0.3497,13.3,-0.83928,-0.08339,13.3,-0.200136,-0.00269,13.3,-0.006456,-0.0,13.3,-0.0,0.00269,13.3,0.006456
11.69136191,0.22058,13.600000000000001,0.529392,-1.25354,13.4,-3.008496,-0.35508,13.3,-0.852192,-0.08070000000000001,13.3,-0.19368000000000002,0.0,13.3,0.0,-0.0,13.3,-0.0,0.00269,13.3,0.006456
11.724460197,0.22058,13.5,0.529392,-1.25354,13.5,-3.008496,-0.35508,13.3,-0.852192,-0.08339,13.3,-0.200136,0.0,13.3,0.0,-0.0,13.3,-0.0,-0.0,13.3,-0.0
11.757180935,0.22327,13.600000000000001,0.535848,-1.25354,13.4,-3.008496,-0.3497,13.3,-0.83928,-0.08070000000000001,13.3,-0.19368000000000002,0.0,13.3,0.0,-0.0,13.3,-0.0,0.00269,13.3,0.006456
11.791398724,0.22058,13.600000000000001,0.529392,-1.25354,13.4,-3.008496,-0.33894,13.3,-0.8134560000000001,-0.08339,13.3,-0.200136,-0.00269,13.3,-0.006456,-0.0,13.3,-0.0,-0.0,13.3,-0.0
11.823954543,0.22058,13.600000000000001,0.529392,-1.25354,13.5,-3.008496,-0.35508,13.3,-0.852192,-0.08339,13.3,-0.200136,-0.00538,13.3,-0.012912,-0.0,13.3,-0.0,0.00269,13.3,0.006456
11.857236675,0.22327,13.5,0.535848,-1.25354,13.4,-3.008496,-0.35239000000000004,13.3,-0.845736,-0.09146,13.3,-0.219504,0.0,13.3,0.0,-0.0,13.3,-0.0,-0.0,13.3,-0.0
11.89105445,0.22058,13.600000000000001,0.529392,-1.25354,13.3,-3.008496,-0.3497,13.3,-0.83928,-0.08339,13.3,-0.200136,-0.00269,13.3,-0.006456,-0.0,13.3,-0.0,-0.0,13.3,-0.0
11.923660784,0.22058,13.600000000000001,0.529392,-1.25354,13.5,-3.008496,-0.35508,13.3,-0.852192,-0.08339,13.3,-0.200136,-0.00269,13.3,-0.006456,-0.0,13.3,-0.0,-0.0,13.3,-0.0
11.957175284,0.22058,13.600000000000001,0.529392,-1.25354,13.4,-3.008496,-0.35508,13.4,-0.852192,-0.08339,13.3,-0.200136,-0.00538,13.3,-0.012912,-0.0,13.3,-0.0,-0.0,13.3,-0.0
11.99126257,0.22058,13.600000000000001,0.529392,-1.25354,13.4,-3.008496,-0.35508,13.3,-0.852192,-0.08339,13.3,-0.200136,0.0,13.3,0.0,-0.0,13.3,-0.0,0.00269,13.3,0.006456
12.023952218,0.22865000000000002,13.600000000000001,0.54876,-1.25354,13.3,-3.008496,-0.35508,13.3,-0.852192,-0.08339,13.3,-0.200136,-0.00269,13.3,-0.006456,-0.0,13.3,-0.0,-0.0,13.3,-0.0
12.058115153,0.22058,13.600000000000001,0.529392,-1.25354,13.4,-3.008496,-0.35239000000000004,13.3,-0.845736,-0.08339,13.3,-0.200136,0.0,13.3,0.0,-0.0,13.3,-0.0,0.00269,13.3,0.006456
12.09132316,0.22058,13.600000000000001,0.529392,-1.2481600000000002,13.5,-2.9955840000000005,-0.35508,13.4,-0.852192,-0.08070000000000001,13.3,-0.19368000000000002,0.0,13.3,0.0,-0.0,13.3,-0.0,0.00269,13.3,0.006456
12.123605161,0.22058,13.600000000000001,0.529392,-1.25354,13.4,-3.008496,-0.35239000000000004,13.3,-0.845736,-0.08608,13.3,-0.206592,-0.00269,13.3,-0.006456,-0.0,13.3,-0.0,0.00269,13.3,0.006456
12.157705384,0.22058,13.600000000000001,0.529392,-1.25354,13.5,-3.008496,-0.35239000000000004,13.3,-0.845736,-0.08070000000000001,13.3,-0.19368000000000002,-0.00269,13.3,-0.006456,-0.0,13.3,-0.0,0.00269,13.3,0.006456
12.19120109,0.22058,13.600000000000001,0.529392,-1.25085,13.4,-3.00204,-0.3497,13.3,-0.83928,-0.08070000000000001,13.3,-0.19368000000000002,-0.00269,13.3,-0.006456,-0.0,13.3,-0.0,-0.0,13.3,-0.0
12.22419706,0.22327,13.600000000000001,0.535848,-1.2481600000000002,13.3,-2.9955840000000005,-0.35508,13.3,-0.852192,-0.08339,13.3,-0.200136,-0.00538,13.3,-0.012912,-0.0,13.3,-0.0,0.00269,13.3,0.006456
12.257567438,0.22058,13.600000000000001,0.529392,-1.25354,13.4,-3.008496,-0.34701000000000004,13.3,-0.8328240000000001,-0.08339,13.3,-0.200136,0.0,13.3,0.0,-0.0,13.3,-0.0,-0.0,13.3,-0.0
12.290431839,0.22058,13.600000000000001,0.529392,-1.25085,13.4,-3.00204,-0.34432,13.4,-0.826368,-0.08070000000000001,13.3,-0.19368000000000002,-0.00538,13.3,-0.012912,-0.0,13.3,-0.0,0.00269,13.3,0.006456
12.323540847,0.22058,13.600000000000001,0.529392,-1.25354,13.4,-3.008496,-0.34701000000000004,13.3,-0.8328240000000001,-0.08070000000000001,13.3,-0.19368000000000002,0.0,13.3,0.0,-0.0,13.3,-0.0,-0.0,13.3,-0.0
12.357624463,0.22058,13.600000000000001,0.529392,-1.25354,13.4,-3.008496,-0.34432,13.3,-0.826368,-0.08070000000000001,13.3,-0.19368000000000002,-0.00538,13.3,-0.012912,-0.0,13.3,-0.0,-0.0,13.3,-0.0
12.390483967,0.22058,13.5,0.529392,-1.25354,13.4,-3.008496,-0.34432,13.3,-0.826368,-0.08070000000000001,13.3,-0.19368000000000002,0.0,13.3,0.0,-0.0,13.3,-0.0,0.00269,13.3,0.006456
12.423535229,0.22058,13.5,0.529392,-1.25354,13.5,-3.008496,-0.34701000000000004,13.3,-0.8328240000000001,-0.08339,13.3,-0.200136,0.0,13.3,0.0,-0.0,13.3,-0.0,0.00269,13.3,0.006456
12.457644091,0.22058,13.600000000000001,0.529392,-1.25085,13.4,-3.00204,-0.35508,13.3,-0.852192,-0.08339,13.3,-0.200136,-0.00269,13.3,-0.006456,-0.0,13.3,-0.0,0.00269,13.3,0.006456
12.490437922,0.22058,13.600000000000001,0.529392,-1.25354,13.5,-3.008496,-0.35508,13.3,-0.852192,-0.08339,13.3,-0.200136,-0.00269,13.3,-0.006456,-0.0,13.3,-0.0,-0.0,13.3,-0.0
12.524105691,0.22058,13.600000000000001,0.529392,-1.25354,13.3,-3.008496,-0.35508,13.4,-0.852192,-0.08339,13.3,-0.200136,-0.00269,13.3,-0.006456,-0.0,13.3,-0.0,0.00269,13.3,0.006456
12.557426684,0.22058,13.5,0.529392,-1.25354,13.5,-3.008496,-0.34701000000000004,13.3,-0.8328240000000001,-0.08070000000000001,13.3,-0.19368000000000002,0.0,13.3,0.0,-0.0,13.3,-0.0,-0.0,13.3,-0.0
12.591060877,0.22058,13.600000000000001,0.529392,-1.25085,13.3,-3.00204,-0.35508,13.3,-0.852192,-0.08339,13.3,-0.200136,-0.00269,13.3,-0.006456,-0.0,13.3,-0.0,-0.0,13.3,-0.0
12.623885323,0.22058,13.600000000000001,0.529392,-1.25354,13.5,-3.008496,-0.35508,13.4,-0.852192,-0.08070000000000001,13.3,-0.19368000000000002,-0.00269,13.3,-0.006456,-0.0,13.3,-0.0,0.00269,13.3,0.006456
12.657824566,0.22058,13.5,0.529392,-1.25354,13.3,-3.008496,-0.3497,13.3,-0.83928,-0.08070000000000001,13.3,-0.19368000000000002,0.0,13.3,0.0,-0.0,13.3,-0.0,-0.0,13.3,-0.0
12.690367979,0.22058,13.5,0.529392,-1.25085,13.4,-3.00204,-0.34701000000000004,13.3,-0.8328240000000001,-0.08070000000000001,13.3,-0.19368000000000002,-0.00269,13.3,-0.006456,-0.0,13.3,-0.0,0.00269,13.3,0.006456
12.724471868,0.22058,13.600000000000001,0.529392,-1.25085,13.5,-3.00204,-0.3497,13.3,-0.83928,-0.08339,13.3,-0.200136,0.0,13.3,0.0,-0.0,13.3,-0.0,-0.0,13.3,-0.0
12.757384395,0.22058,13.600000000000001,0.529392,-1.25354,13.5,-3.008496,-0.35239000000000004,13.3,-0.845736,-0.08070000000000001,13.3,-0.19368000000000002,0.0,13.3,0.0,-0.0,13.3,-0.0,-0.0,13.3,-0.0
12.790349391,0.22058,13.5,0.529392,-1.25085,13.4,-3.00204,-0.34163,13.3,-0.819912,-0.08339,13.3,-0.200136,0.0,13.3,0.0,-0.0,13.3,-0.0,-0.0,13.3,-0.0
12.823389294,0.22058,13.600000000000001,0.529392,-1.25354,13.4,-3.008496,-0.33356,13.3,-0.800544,-0.08070000000000001,13.3,-0.19368000000000002,0.0,13.3,0.0,-0.0,13.3,-0.0,-0.0,13.3,-0.0
12.857277106,0.22058,13.600000000000001,0.529392,-1.25085,13.5,-3.00204,-0.34432,13.3,-0.826368,-0.08070000000000001,13.3,-0.19368000000000002,-0.00269,13.3,-0.006456,-0.0,13.3,-0.0,-0.0,13.3,-0.0
12.890381456,0.22058,13.5,0.529392,-1.25085,13.3,-3.00204,-0.35508,13.3,-0.852192,-0.08070000000000001,13.3,-0.19368000000000002,0.0,13.3,0.0,-0.0,13.3,-0.0,0.00269,13.3,0.006456
12.924311984,0.22058,13.5,0.529392,-1.24547,13.4,-2.989128,-0.3497,13.3,-0.83928,-0.08339,13.3,-0.200136,0.0,13.3,0.0,-0.0,13.3,-0.0,0.00269,13.3,0.006456
12.957316348,0.22058,13.600000000000001,0.529392,-1.25085,13.3,-3.00204,-0.34701000000000004,13.3,-0.8328240000000001,-0.08339,13.3,-0.200136,0.0,13.3,0.0,-0.0,13.3,-0.0,-0.0,13.3,-0.0
12.99080565,0.22058,13.5,0.529392,-1.25085,13.4,-3.00204,-0.35508,13.3,-0.852192,-0.08339,13.3,-0.200136,-0.00269,13.3,-0.006456,-0.0,13.3,-0.0,-0.0,13.3,-0.0
13.024659024,0.22058,13.600000000000001,0.529392,-1.24547,13.3,-2.989128,-0.35239000000000004,13.3,-0.845736,-0.08339,13.3,-0.200136,-0.00538,13.3,-0.012912,-0.0,13.3,-0.0,-0.0,13.3,-0.0
13.057650047,0.23134000000000002,13.5,0.555216,-1.25085,13.4,-3.00204,-0.34701000000000004,13.3,-0.8328240000000001,-0.08339,13.3,-0.200136,-0.00269,13.3,-0.006456,-0.0,13.3,-0.0,-0.0,13.3,-0.0
13.090819621,0.22327,13.600000000000001,0.535848,-1.25085,13.3,-3.00204,-0.3497,13.3,-0.83928,-0.08339,13.3,-0.200136,0.0,13.3,0.0,-0.0,13.3,-0.0,0.00269,13.3,0.006456
13.125152076,0.22327,13.5,0.535848,-1.2481600000000002,13.4,-2.9955840000000005,-0.3497,13.4,-0.83928,-0.08339,13.3,-0.200136,0.0,13.3,0.0,-0.0,13.3,-0.0,-0.0,13.3,-0.0
13.15754186,0.22327,13.600000000000001,0.535848,-1.25085,13.5,-3.00204,-0.3497,13.3,-0.83928,-0.08339,13.3,-0.200136,0.0,13.3,0.0,-0.0,13.3,-0.0,-0.0,13.3,-0.0
13.190521353,0.22327,13.600000000000001,0.535848,-1.25085,13.4,-3.00204,-0.34701000000000004,13.3,-0.8328240000000001,-0.08339,13.3,-0.200136,0.0,13.3,0.0,-0.0,13.3,-0.0,-0.0,13.3,-0.0
13.224047429,0.22327,13.600000000000001,0.535848,-1.25085,13.5,-3.00204,-0.34163,13.3,-0.819912,-0.08339,13.3,-0.200136,-0.00269,13.3,-0.006456,-0.0,13.3,-0.0,-0.0,13.3,-0.0
13.257056256,0.22327,13.5,0.535848,-1.24547,13.5,-2.989128,-0.35508,13.3,-0.852192,-0.08339,13.3,-0.200136,-0.00538,13.3,-0.012912,-0.0,13.3,-0.0,-0.0,13.3,-0.0
13.290138098,0.22596000000000002,13.5,0.542304,-1.24547,13.4,-2.989128,-0.35508,13.3,-0.852192,-0.08339,13.3,-0.200136,0.0,13.3,0.0,-0.0,13.3,-0.0,-0.0,13.3,-0.0
13.324412745,0.22327,13.600000000000001,0.535848,-1.25085,13.4,-3.00204,-0.35508,13.3,-0.852192,-0.08070000000000001,13.3,-0.19368000000000002,-0.00269,13.3,-0.006456,-0.0,13.3,-0.0,-0.0,13.3,-0.0
13.357094935,0.22596000000000002,13.5,0.542304,-1.25085,13.4,-3.00204,-0.35239000000000004,13.3,-0.845736,-0.08070000000000001,13.3,-0.19368000000000002,0.0,13.3,0.0,-0.0,13.3,-0.0,-0.0,13.3,-0.0
13.39009246,0.22327,13.600000000000001,0.535848,-1.25085,13.4,-3.00204,-0.34701000000000004,13.3,-0.8328240000000001,-0.08070000000000001,13.3,-0.19368000000000002,-0.00269,13.3,-0.006456,-0.0,13.3,-0.0,-0.0,13.3,-0.0
13.424069626,0.22327,13.600000000000001,0.535848,-1.25085,13.4,-3.00204,-0.3497,13.3,-0.83928,-0.08070000000000001,13.3,-0.19368000000000002,-0.00269,13.3,-0.006456,-0.0,13.3,-0.0,-0.0,13.3,-0.0
13.456909561,0.22058,13.600000000000001,0.529392,-1.25085,13.3,-3.00204,-0.35239000000000004,13.3,-0.845736,-0.08070000000000001,13.3,-0.19368000000000002,-0.00269,13.3,-0.006456,-0.0,13.3,-0.0,-0.0,13.3,-0.0
13.49025506,0.22058,13.5,0.529392,-1.25085,13.4,-3.00204,-0.35239000000000004,13.3,-0.845736,-0.08070000000000001,13.3,-0.19368000000000002,-0.00269,13.3,-0.006456,-0.0,13.3,-0.0,-0.0,13.3,-0.0
13.52395505,0.22058,13.600000000000001,0.529392,-1.2400900000000001,13.5,-2.9762160000000004,-0.34701000000000004,13.3,-0.8328240000000001,-0.08070000000000001,13.3,-0.19368000000000002,-0.00269,13.3,-0.006456,-0.0,13.3,-0.0,0.00269,13.3,0.006456
13.557146127,0.22058,13.5,0.529392,-1.25085,13.4,-3.00204,-0.35508,13.3,-0.852192,-0.08339,13.3,-0.200136,-0.00269,13.3,-0.006456,-0.0,13.3,-0.0,0.00269,13.3,0.006456
13.590326895,0.22058,13.5,0.529392,-1.2481600000000002,13.3,-2.9955840000000005,-0.35508,13.3,-0.852192,-0.08339,13.3,-0.200136,-0.00269,13.3,-0.006456,-0.0,13.3,-0.0,0.00269,13.3,0.006456
13.623961635,0.22058,13.5,0.529392,-1.2481600000000002,13.4,-2.9955840000000005,-0.3497,13.3,-0.83928,-0.08070000000000001,13.3,-0.19368000000000002,-0.00269,13.3,-0.006456,-0.0,13.3,-0.0,0.00269,13.3,0.006456
13.656946643,0.22058,13.600000000000001,0.529392,-1.25085,13.3,-3.00204,-0.35508,13.3,-0.852192,-0.08070000000000001,13.3,-0.19368000000000002,0.0,13.3,0.0,-0.0,13.3,-0.0,-0.0,13.3,-0.0
13.690706005,0.22058,13.5,0.529392,-1.2481600000000002,13.4,-2.9955840000000005,-0.35508,13.3,-0.852192,-0.08070000000000001,13.3,-0.19368000000000002,-0.00269,13.3,-0.006456,-0.0,13.3,-0.0,0.00269,13.3,0.006456
13.724596549,0.22058,13.600000000000001,0.529392,-1.25085,13.5,-3.00204,-0.3497,13.3,-0.83928,-0.08070000000000001,13.3,-0.19368000000000002,-0.00269,13.3,-0.006456,-0.0,13.3,-0.0,-0.0,13.3,-0.0
13.757641039,0.21789,13.600000000000001,0.522936,-1.24278,13.4,-2.982672,-0.35508,13.3,-0.852192,-0.08070000000000001,13.3,-0.19368000000000002,0.0,13.3,0.0,-0.0,13.3,-0.0,0.00269,13.3,0.006456
13.791582408,0.21789,13.600000000000001,0.522936,-1.2481600000000002,13.3,-2.9955840000000005,-0.35508,13.3,-0.852192,-0.08070000000000001,13.3,-0.19368000000000002,-0.00538,13.3,-0.012912,-0.0,13.3,-0.0,-0.0,13.3,-0.0
13.824332665,0.21789,13.600000000000001,0.522936,-1.2400900000000001,13.4,-2.9762160000000004,-0.35239000000000004,13.3,-0.845736,-0.08070000000000001,13.3,-0.19368000000000002,0.0,13.3,0.0,-0.0,13.3,-0.0,-0.0,13.3,-0.0
13.856926616,0.21789,13.600000000000001,0.522936,-1.2481600000000002,13.4,-2.9955840000000005,-0.3497,13.3,-0.83928,-0.08339,13.3,-0.200136,0.0,13.3,0.0,-0.0,13.3,-0.0,0.00269,13.3,0.006456
13.891229012,0.22865000000000002,13.600000000000001,0.54876,-1.2481600000000002,13.5,-2.9955840000000005,-0.34432,13.3,-0.826368,-0.08339,13.3,-0.200136,-0.00269,13.3,-0.006456,-0.0,13.3,-0.0,-0.0,13.3,-0.0
13.924144079,0.21789,13.600000000000001,0.522936,-1.2481600000000002,13.4,-2.9955840000000005,-0.35508,13.3,-0.852192,-0.08339,13.3,-0.200136,0.0,13.3,0.0,-0.0,13.3,-0.0,-0.0,13.3,-0.0
13.956872963,0.21789,13.5,0.522936,-1.2481600000000002,13.5,-2.9955840000000005,-0.35508,13.3,-0.852192,-0.08339,13.3,-0.200136,0.0,13.3,0.0,-0.0,13.3,-0.0,-0.0,13.3,-0.0
13.990940481,0.21789,13.600000000000001,0.522936,-1.2481600000000002,13.5,-2.9955840000000005,-0.34701000000000004,13.3,-0.8328240000000001,-0.08339,13.3,-0.200136,0.0,13.3,0.0,-0.0,13.3,-0.0,0.00269,13.3,0.006456
14.023839076,0.21789,13.600000000000001,0.522936,-1.24278,13.4,-2.982672,-0.34163,13.3,-0.819912,-0.08339,13.3,-0.200136,0.0,13.3,0.0,-0.0,13.3,-0.0,0.00269,13.3,0.006456
14.057028231,0.21789,13.5,0.522936,-1.2481600000000002,13.4,-2.9955840000000005,-0.3497,13.3,-0.83928,-0.08339,13.3,-0.200136,0.0,13.3,0.0,-0.0,13.3,-0.0,-0.0,13.3,-0.0
14.091948375,0.21789,13.600000000000001,0.522936,-1.2481600000000002,13.3,-2.9955840000000005,-0.35508,13.3,-0.852192,-0.08339,13.3,-0.200136,0.0,13.3,0.0,-0.0,13.3,-0.0,0.00269,13.3,0.006456
14.124803198,0.21789,13.600000000000001,0.522936,-1.24547,13.5,-2.989128,-0.35239000000000004,13.3,-0.845736,-0.08339,13.3,-0.200136,0.0,13.3,0.0,-0.0,13.3,-0.0,-0.0,13.3,-0.0
14.157342911,0.21789,13.600000000000001,0.522936,-1.2481600000000002,13.4,-2.9955840000000005,-0.34701000000000004,13.3,-0.8328240000000001,-0.08339,13.3,-0.200136,0.0,13.3,0.0,-0.0,13.3,-0.0,0.00269,13.3,0.006456
14.190739512,0.21789,13.5,0.522936,-1.2481600000000002,13.4,-2.9955840000000005,-0.35508,13.3,-0.852192,-0.07801000000000001,13.3,-0.18722400000000003,0.0,13.3,0.0,-0.0,13.3,-0.0,0.00269,13.3,0.006456
14.224381587,0.21789,13.600000000000001,0.522936,-1.2400900000000001,13.4,-2.9762160000000004,-0.35508,13.3,-0.852192,-0.07801000000000001,13.3,-0.18722400000000003,-0.00538,13.3,-0.012912,-0.0,13.3,-0.0,0.00269,13.3,0.006456
14.2572823,0.21789,13.600000000000001,0.522936,-1.24547,13.4,-2.989128,-0.35508,13.3,-0.852192,-0.08339,13.3,-0.200136,-0.00269,13.3,-0.006456,-0.0,13.3,-0.0,-0.0,13.3,-0.0
14.29071052,0.21789,13.600000000000001,0.522936,-1.2481600000000002,13.4,-2.9955840000000005,-0.35508,13.4,-0.852192,-0.08339,13.3,-0.200136,-0.00269,13.3,-0.006456,-0.0,13.3,-0.0,-0.0,13.3,-0.0
14.32370531,0.21789,13.600000000000001,0.522936,-1.2481600000000002,13.4,-2.9955840000000005,-0.34701000000000004,13.3,-0.8328240000000001,-0.08339,13.3,-0.200136,0.0,13.3,0.0,-0.0,13.3,-0.0,0.00269,13.3,0.006456
14.357122109,0.21789,13.600000000000001,0.522936,-1.2481600000000002,13.5,-2.9955840000000005,-0.3497,13.3,-0.83928,-0.08339,13.3,-0.200136,-0.00269,13.3,-0.006456,-0.0,13.3,-0.0,-0.0,13.3,-0.0
14.390653872,0.21789,13.5,0.522936,-1.2481600000000002,13.4,-2.9955840000000005,-0.35508,13.4,-0.852192,-0.08339,13.3,-0.200136,0.0,13.3,0.0,-0.0,13.3,-0.0,-0.0,13.3,-0.0
14.423619327,0.21789,13.600000000000001,0.522936,-1.2481600000000002,13.5,-2.9955840000000005,-0.3497,13.3,-0.83928,-0.08339,13.3,-0.200136,0.0,13.3,0.0,-0.0,13.3,-0.0,-0.0,13.3,-0.0
14.456617203,0.22058,13.5,0.529392,-1.24547,13.4,-2.989128,-0.35239000000000004,13.3,-0.845736,-0.08070000000000001,13.3,-0.19368000000000002,-0.00269,13.3,-0.006456,-0.0,13.3,-0.0,0.00269,13.3,0.006456
14.490690205,0.22058,13.600000000000001,0.529392,-1.24547,13.4,-2.989128,-0.35239000000000004,13.3,-0.845736,-0.08339,13.3,-0.200136,-0.00538,13.3,-0.012912,-0.0,13.3,-0.0,0.00269,13.3,0.006456
14.524032825,0.22058,13.5,0.529392,-1.24547,13.4,-2.989128,-0.34432,13.3,-0.826368,-0.08339,13.3,-0.200136,0.0,13.3,0.0,-0.0,13.3,-0.0,0.00269,13.3,0.006456
14.557676424,0.22058,13.600000000000001,0.529392,-1.2481600000000002,13.4,-2.9955840000000005,-0.35239000000000004,13.3,-0.845736,-0.08339,13.3,-0.200136,0.0,13.3,0.0,-0.0,13.3,-0.0,-0.0,13.3,-0.0
14.591055554,0.22058,13.5,0.529392,-1.24547,13.3,-2.989128,-0.35508,13.3,-0.852192,-0.08339,13.3,-0.200136,0.0,13.3,0.0,-0.0,13.3,-0.0,-0.0,13.3,-0.0
14.623757166,0.22058,13.600000000000001,0.529392,-1.2481600000000002,13.4,-2.9955840000000005,-0.34701000000000004,13.3,-0.8328240000000001,-0.08339,13.3,-0.200136,0.0,13.3,0.0,-0.0,13.3,-0.0,-0.0,13.3,-0.0
14.657671938,0.22058,13.600000000000001,0.529392,-1.24547,13.3,-2.989128,-0.35508,13.3,-0.852192,-0.08070000000000001,13.3,-0.19368000000000002,0.0,13.3,0.0,-0.0,13.3,-0.0,0.00269,13.3,0.006456
14.690597086,0.22058,13.5,0.529392,-1.2400900000000001,13.4,-2.9762160000000004,-0.34701000000000004,13.3,-0.8328240000000001,-0.08070000000000001,13.3,-0.19368000000000002,-0.00269,13.3,-0.006456,-0.0,13.3,-0.0,0.00269,13.3,0.006456
14.723663167,0.22058,13.5,0.529392,-1.24547,13.5,-2.989128,-0.35508,13.4,-0.852192,-0.08070000000000001,13.3,-0.19368000000000002,0.0,13.3,0.0,-0.0,13.3,-0.0,-0.0,13.3,-0.0
14.757523332,0.22058,13.600000000000001,0.529392,-1.24547,13.4,-2.989128,-0.34163,13.3,-0.819912,-0.08070000000000001,13.3,-0.19368000000000002,-0.00269,13.3,-0.006456,-0.0,13.3,-0.0,-0.0,13.3,-0.0
14.790624992,0.22058,13.600000000000001,0.529392,-1.2400900000000001,13.3,-2.9762160000000004,-0.34701000000000004,13.3,-0.8328240000000001,-0.08070000000000001,13.3,-0.19368000000000002,-0.00538,13.3,-0.012912,-0.0,13.3,-0.0,0.00269,13.3,0.006456
14.823669885,0.22058,13.600000000000001,0.529392,-1.24547,13.4,-2.989128,-0.35508,13.3,-0.852192,-0.08070000000000001,13.3,-0.19368000000000002,0.0,13.3,0.0,-0.0,13.3,-0.0,-0.0,13.3,-0.0
14.8575252,0.22327,13.600000000000001,0.535848,-1.24278,13.4,-2.982672,-0.3497,13.3,-0.83928,-0.08339,13.3,-0.200136,-0.00269,13.3,-0.006456,-0.0,13.3,-0.0,-0.0,13.3,-0.0
14.890509341,0.22327,13.5,0.535848,-1.24278,13.4,-2.982672,-0.34701000000000004,13.3,-0.8328240000000001,-0.08339,13.3,-0.200136,-0.00269,13.3,-0.006456,-0.0,13.3,-0.0,0.00269,13.3,0.006456
14.923757868,0.22327,13.600000000000001,0.535848,-1.24547,13.4,-2.989128,-0.35239000000000004,13.3,-0.845736,-0.08339,13.3,-0.200136,0.0,13.3,0.0,-0.0,13.3,-0.0,0.00269,13.3,0.006456
14.957464976,0.22327,13.5,0.535848,-1.24547,13.5,-2.989128,-0.34701000000000004,13.4,-0.8328240000000001,-0.08070000000000001,13.3,-0.19368000000000002,0.0,13.3,0.0,-0.0,13.3,-0.0,-0.0,13.3,-0.0
14.990560162,0.22327,13.600000000000001,0.535848,-1.24547,13.4,-2.989128,-0.35508,13.3,-0.852192,-0.08070000000000001,13.3,-0.19368000000000002,-0.00269,13.3,-0.006456,-0.0,13.3,-0.0,0.00269,13.3,0.006456
15.023464053,0.22327,13.600000000000001,0.535848,-1.24278,13.4,-2.982672,-0.3497,13.3,-0.83928,-0.08070000000000001,13.3,-0.19368000000000002,0.0,13.3,0.0,-0.0,13.3,-0.0,-0.0,13.3,-0.0
15.057640119,0.22327,13.5,0.535848,-1.24547,13.4,-2.989128,-0.35239000000000004,13.3,-0.845736,-0.08070000000000001,13.3,-0.19368000000000002,0.0,13.3,0.0,-0.0,13.3,-0.0,-0.0,13.3,-0.0
15.090660354,0.22327,13.600000000000001,0.535848,-1.24547,13.4,-2.989128,-0.35508,13.3,-0.852192,-0.08070000000000001,13.3,-0.19368000000000002,-0.00269,13.3,-0.006456,-0.0,13.3,-0.0,0.00269,13.3,0.006456
15.123392799,0.22327,13.600000000000001,0.535848,-1.24547,13.4,-2.989128,-0.35508,13.3,-0.852192,-0.08070000000000001,13.3,-0.19368000000000002,0.0,13.3,0.0,-0.0,13.3,-0.0,0.00269,13.3,0.006456
15.157795066,0.22327,13.600000000000001,0.535848,-1.2400900000000001,13.5,-2.9762160000000004,-0.35508,13.3,-0.852192,-0.08339,13.3,-0.200136,0.0,13.3,0.0,-0.0,13.3,-0.0,0.00269,13.3,0.006456
15.191041165,0.22327,13.600000000000001,0.535848,-1.24547,13.4,-2.989128,-0.35508,13.3,-0.852192,-0.08339,13.3,-0.200136,0.0,13.3,0.0,-0.0,13.3,-0.0,0.00269,13.3,0.006456
15.223388797,0.22327,13.5,0.535848,-1.24547,13.3,-2.989128,-0.3497,13.3,-0.83928,-0.08339,13.3,-0.200136,0.0,13.3,0.0,-0.0,13.3,-0.0,0.00269,13.3,0.006456
15.257607226,0.22327,13.600000000000001,0.535848,-1.24547,13.4,-2.989128,-0.35239000000000004,13.3,-0.845736,-0.08070000000000001,13.3,-0.19368000000000002,0.0,13.3,0.0,-0.0,13.3,-0.0,0.00269,13.3,0.006456
15.290969692,0.22058,13.5,0.529392,-1.24278,13.4,-2.982672,-0.35508,13.3,-0.852192,-0.08339,13.3,-0.200136,0.0,13.3,0.0,-0.0,13.3,-0.0,0.00269,13.3,0.006456
15.325044329,0.22327,13.600000000000001,0.535848,-1.2400900000000001,13.4,-2.9762160000000004,-0.35508,13.3,-0.852192,-0.08339,13.3,-0.200136,-0.00269,13.3,-0.006456,-0.0,13.3,-0.0,0.00269,13.3,0.006456
15.35764072,0.22327,13.600000000000001,0.535848,-1.24278,13.4,-2.982672,-0.35239000000000004,13.3,-0.845736,-0.08339,13.3,-0.200136,0.0,13.3,0.0,-0.0,13.3,-0.0,0.00269,13.3,0.006456
15.390465756,0.22327,13.600000000000001,0.535848,-1.24547,13.4,-2.989128,-0.35777000000000003,13.3,-0.8586480000000001,-0.08070000000000001,13.3,-0.19368000000000002,-0.00538,13.3,-0.012912,-0.0,13.3,-0.0,-0.0,13.3,-0.0
